;FLAVOR:Marlin
;TIME:34476
;Filament used: 49.2205m
;Layer height: 0.3
;MINX:28.885
;MINY:18.874
;MINZ:0.3
;MAXX:251.126
;MAXY:241.128
;MAXZ:9.3
;Generated with Cura_SteamEngine 4.8.0
M140 S60
M105
M190 S60
M104 S230
M105
M109 S230
M82 ;absolute extrusion mode
M201 X500.00 Y500.00 Z100.00 E5000.00 ;Setup machine max acceleration
M203 X500.00 Y500.00 Z10.00 E50.00 ;Setup machine max feedrate
M204 P500.00 R1000.00 T500.00 ;Setup Print/Retract/Travel acceleration
M205 X8.00 Y8.00 Z0.40 E5.00 ;Setup Jerk
M220 S100 ;Reset Feedrate
M221 S100 ;Reset Flowrate

G28 ;Home

G92 E0 ;Reset Extruder
G1 Z2.0 F3000 ;Move Z Axis up
G1 X10.1 Y20 Z0.28 F5000.0 ;Move to start position
G1 X10.1 Y200.0 Z0.28 F1500.0 E15 ;Draw the first line
G1 X10.4 Y200.0 Z0.28 F5000.0 ;Move to side a little
G1 X10.4 Y20 Z0.28 F1500.0 E30 ;Draw the second line
G92 E0 ;Reset Extruder
G1 Z2.0 F3000 ;Move Z Axis up

G92 E0
G92 E0
G1 F3000 E-3
;LAYER_COUNT:31
;LAYER:0
M107
G0 F3600 X60.323 Y52.555 Z0.3
;TYPE:SKIRT
G1 F3000 E0
G1 F1500 X60.829 Y52.027 E0.03649
G1 X61.491 Y51.375 E0.08284
G1 X65.1 Y47.925 E0.33193
G1 X65.568 Y47.49 E0.36381
G1 X66.314 Y46.835 E0.41334
G1 X70.118 Y43.61 E0.66214
G1 X70.637 Y43.182 E0.6957
G1 X71.426 Y42.57 E0.74552
G1 X75.45 Y39.555 E0.99638
G1 X75.928 Y39.207 E1.02588
G1 X76.797 Y38.613 E1.07839
G1 X80.974 Y35.855 E1.32811
G1 X81.576 Y35.471 E1.36374
G1 X82.345 Y35.013 E1.40839
G1 X86.688 Y32.505 E1.6586
G1 X87.352 Y32.136 E1.6965
G1 X88.092 Y31.751 E1.73811
G1 X92.655 Y29.469 E1.99264
G1 X93.184 Y29.214 E2.02194
G1 X94.097 Y28.807 E2.07181
G1 X98.743 Y26.82 E2.32391
G1 X99.312 Y26.586 E2.3546
G1 X100.154 Y26.268 E2.39951
G1 X104.953 Y24.548 E2.65384
G1 X105.669 Y24.304 E2.69158
G1 X106.493 Y24.05 E2.7346
G1 X111.338 Y22.635 E2.98642
G1 X112.026 Y22.446 E3.02201
G1 X112.916 Y22.228 E3.06773
G1 X117.815 Y21.11 E3.31842
G1 X118.518 Y20.962 E3.35427
G1 X119.402 Y20.801 E3.39909
G1 X124.361 Y19.978 E3.64988
G1 X124.972 Y19.885 E3.68072
G1 X125.93 Y19.768 E3.72887
G1 X130.923 Y19.243 E3.97934
G1 X131.7 Y19.174 E4.01826
G1 X132.604 Y19.119 E4.06344
G1 X137.574 Y18.896 E4.31165
G1 X138.246 Y18.876 E4.34519
G1 X139.241 Y18.874 E4.39483
G1 X144.263 Y18.949 E4.64541
G1 X144.973 Y18.972 E4.68085
G1 X145.896 Y19.027 E4.72698
G1 X150.85 Y19.398 E4.97483
G1 X151.622 Y19.468 E5.0135
G1 X152.511 Y19.575 E5.05817
G1 X157.532 Y20.255 E5.31096
G1 X158.174 Y20.353 E5.34336
G1 X159.106 Y20.522 E5.39061
G1 X164 Y21.486 E5.63947
G1 X164.73 Y21.643 E5.67672
G1 X165.6 Y21.854 E5.72138
G1 X170.448 Y23.115 E5.9713
G1 X171.177 Y23.317 E6.00904
G1 X171.996 Y23.569 E6.05179
G1 X176.804 Y25.131 E6.304
G1 X177.491 Y25.367 E6.34024
G1 X178.327 Y25.68 E6.38478
G1 X182.982 Y27.509 E6.6343
G1 X183.675 Y27.793 E6.67167
G1 X184.534 Y28.176 E6.71859
G1 X188.995 Y30.242 E6.96386
G1 X189.726 Y30.595 E7.00436
G1 X190.533 Y31.014 E7.04972
G1 X194.913 Y33.371 E7.29787
G1 X195.474 Y33.683 E7.3299
G1 X196.335 Y34.196 E7.3799
G1 X200.589 Y36.824 E7.62936
G1 X201.214 Y37.225 E7.66641
G1 X202.007 Y37.764 E7.71425
G1 X206.087 Y40.637 E7.9632
G1 X206.591 Y41.002 E7.99425
G1 X207.353 Y41.589 E8.04224
G1 X211.314 Y44.748 E8.295
G1 X211.858 Y45.197 E8.33019
G1 X212.54 Y45.792 E8.37535
G1 X216.285 Y49.164 E8.62676
G1 X216.739 Y49.584 E8.65762
G1 X217.404 Y50.237 E8.70412
G1 X220.948 Y53.833 E8.95601
G1 X221.479 Y54.39 E8.9944
G1 X222.078 Y55.054 E9.03901
G1 X225.416 Y58.875 E9.29214
G1 X225.83 Y59.365 E9.32415
G1 X226.418 Y60.101 E9.37114
G1 X229.477 Y64.059 E9.62071
G1 X229.924 Y64.655 E9.65788
G1 X230.443 Y65.394 E9.70293
G1 X233.267 Y69.535 E9.953
G1 X233.613 Y70.058 E9.98428
G1 X234.145 Y70.916 E10.03465
G1 X236.725 Y75.235 E10.28564
G1 X237.072 Y75.838 E10.32035
G1 X237.515 Y76.662 E10.36702
G1 X239.827 Y81.116 E10.61739
G1 X240.135 Y81.732 E10.65175
G1 X240.533 Y82.589 E10.69889
G1 X242.572 Y87.172 E10.94915
G1 X242.849 Y87.822 E10.9844
G1 X243.176 Y88.655 E11.02904
G1 X244.943 Y93.367 E11.28011
G1 X245.181 Y94.033 E11.3154
G1 X245.478 Y94.944 E11.3632
G1 X246.943 Y99.696 E11.61129
G1 X247.15 Y100.405 E11.64814
G1 X247.379 Y101.286 E11.69355
G1 X248.562 Y106.134 E11.94252
G1 X248.732 Y106.884 E11.98088
G1 X248.897 Y107.717 E12.02325
G1 X249.805 Y112.73 E12.27742
G1 X249.914 Y113.392 E12.31089
G1 X250.037 Y114.291 E12.35616
G1 X250.633 Y119.25 E12.60534
G1 X250.711 Y119.998 E12.64286
G1 X250.783 Y120.957 E12.69084
G1 X251.079 Y125.894 E12.93759
G1 X251.113 Y126.66 E12.97585
G1 X251.126 Y127.488 E13.01716
G1 X251.126 Y132.569 E13.27065
G1 X251.117 Y133.179 E13.30109
G1 X251.074 Y134.189 E13.35153
G1 X250.772 Y139.219 E13.60292
G1 X250.721 Y139.9 E13.637
G1 X250.619 Y140.869 E13.68561
G1 X250.025 Y145.807 E13.93374
G1 X249.923 Y146.554 E13.97135
G1 X249.782 Y147.4 E14.01414
G1 X248.872 Y152.413 E14.26833
G1 X248.749 Y153.035 E14.29996
G1 X248.534 Y153.988 E14.3487
G1 X247.353 Y158.823 E14.59701
G1 X247.197 Y159.425 E14.62804
G1 X246.9 Y160.448 E14.68118
G1 X245.441 Y165.173 E14.9279
G1 X245.201 Y165.91 E14.96657
G1 X244.908 Y166.728 E15.00992
G1 X243.145 Y171.425 E15.26021
G1 X242.909 Y172.031 E15.29266
G1 X242.538 Y172.904 E15.33998
G1 X240.47 Y177.548 E15.59361
G1 X240.178 Y178.177 E15.6282
G1 X239.756 Y179.021 E15.67528
G1 X237.458 Y183.449 E15.92417
G1 X237.156 Y184.012 E15.95605
G1 X236.681 Y184.838 E16.00359
G1 X234.063 Y189.22 E16.25825
G1 X233.713 Y189.784 E16.29137
G1 X233.195 Y190.571 E16.33837
G1 X230.362 Y194.724 E16.58918
G1 X229.974 Y195.275 E16.6228
G1 X229.394 Y196.05 E16.6711
G1 X226.337 Y200.002 E16.92037
G1 X225.887 Y200.565 E16.95632
G1 X225.319 Y201.237 E17.00022
G1 X221.971 Y205.067 E17.25401
G1 X221.543 Y205.541 E17.28588
G1 X220.863 Y206.254 E17.33503
G1 X217.397 Y209.77 E17.58135
G1 X216.838 Y210.32 E17.62047
G1 X216.188 Y210.923 E17.66471
G1 X212.451 Y214.288 E17.91559
G1 X211.93 Y214.742 E17.95007
G1 X211.18 Y215.359 E17.99852
G1 X207.268 Y218.478 E18.24813
G1 X206.728 Y218.894 E18.28214
G1 X205.964 Y219.451 E18.32931
G1 X201.887 Y222.32 E18.57803
G1 X201.284 Y222.73 E18.61441
G1 X200.482 Y223.242 E18.66188
G1 X196.232 Y225.869 E18.91115
G1 X195.72 Y226.175 E18.9409
G1 X194.803 Y226.687 E18.9933
G1 X190.412 Y229.052 E19.24212
G1 X189.789 Y229.374 E19.27711
G1 X188.9 Y229.803 E19.32636
G1 X184.389 Y231.891 E19.57435
G1 X183.727 Y232.186 E19.61051
G1 X182.913 Y232.518 E19.65437
G1 X178.254 Y234.348 E19.90409
G1 X177.616 Y234.588 E19.9381
G1 X176.704 Y234.901 E19.98621
G1 X171.898 Y236.463 E20.23833
G1 X171.327 Y236.639 E20.26813
G1 X170.324 Y236.918 E20.32007
G1 X165.511 Y238.168 E20.56816
G1 X164.783 Y238.345 E20.60554
G1 X163.871 Y238.539 E20.65206
G1 X159.033 Y239.492 E20.89807
G1 X158.254 Y239.633 E20.93756
G1 X157.34 Y239.771 E20.98368
G1 X152.387 Y240.442 E21.23304
G1 X151.671 Y240.527 E21.26901
G1 X150.771 Y240.608 E21.3141
G1 X145.78 Y240.981 E21.56379
G1 X145.028 Y241.026 E21.60138
G1 X144.153 Y241.052 E21.64505
G1 X139.156 Y241.128 E21.89438
G1 X138.415 Y241.127 E21.93135
G1 X137.449 Y241.098 E21.97956
G1 X132.513 Y240.875 E22.22607
G1 X131.738 Y240.829 E22.26481
G1 X130.838 Y240.748 E22.30989
G1 X125.883 Y240.227 E22.55846
G1 X125.249 Y240.152 E22.59031
G1 X124.193 Y239.994 E22.64358
G1 X119.325 Y239.185 E22.88978
G1 X118.555 Y239.045 E22.92882
G1 X117.72 Y238.87 E22.97138
G1 X112.78 Y237.741 E23.2242
G1 X112.211 Y237.602 E23.25342
G1 X111.186 Y237.321 E23.30644
G1 X106.41 Y235.925 E23.55469
G1 X105.814 Y235.742 E23.58579
G1 X104.879 Y235.425 E23.63505
G1 X100.153 Y233.731 E23.88552
G1 X99.444 Y233.465 E23.9233
G1 X98.608 Y233.122 E23.96838
G1 X93.987 Y231.146 E24.21912
G1 X93.343 Y230.859 E24.25429
G1 X92.517 Y230.461 E24.30004
G1 X88.015 Y228.209 E24.55118
G1 X87.406 Y227.892 E24.58543
G1 X86.57 Y227.427 E24.63315
G1 X82.278 Y224.948 E24.88043
G1 X81.616 Y224.553 E24.91889
G1 X80.861 Y224.071 E24.96358
G1 X76.7 Y221.324 E25.21233
G1 X76.143 Y220.945 E25.24595
G1 X75.387 Y220.398 E25.2925
G1 X71.309 Y217.341 E25.54677
G1 X70.855 Y216.991 E25.57537
G1 X70.03 Y216.316 E25.62855
G1 X66.228 Y213.091 E25.87728
G1 X65.696 Y212.625 E25.91257
G1 X64.983 Y211.964 E25.96107
G1 X61.391 Y208.53 E26.209
G1 X60.875 Y208.02 E26.24519
G1 X60.255 Y207.373 E26.2899
G1 X56.818 Y203.667 E26.54206
G1 X56.349 Y203.145 E26.57708
G1 X55.774 Y202.466 E26.62147
G1 X52.583 Y198.586 E26.8721
G1 X52.136 Y198.025 E26.90788
G1 X51.549 Y197.243 E26.95666
G1 X48.642 Y193.239 E27.20352
G1 X48.215 Y192.633 E27.24051
G1 X47.712 Y191.871 E27.28606
G1 X45.017 Y187.651 E27.53587
G1 X44.681 Y187.109 E27.56768
G1 X44.206 Y186.289 E27.61496
G1 X41.722 Y181.836 E27.86935
G1 X41.438 Y181.31 E27.89917
G1 X41.024 Y180.486 E27.94518
G1 X38.811 Y175.891 E28.19962
G1 X38.552 Y175.334 E28.23027
G1 X38.136 Y174.362 E28.28302
G1 X36.252 Y169.765 E28.53088
G1 X35.986 Y169.089 E28.56712
G1 X35.67 Y168.206 E28.61391
G1 X34.05 Y163.464 E28.86391
G1 X33.835 Y162.798 E28.89883
G1 X33.577 Y161.916 E28.94467
G1 X32.254 Y157.117 E29.19303
G1 X32.061 Y156.376 E29.23123
G1 X31.857 Y155.48 E29.27708
G1 X30.812 Y150.564 E29.52782
G1 X30.677 Y149.877 E29.56275
G1 X30.53 Y148.988 E29.6077
G1 X29.776 Y143.992 E29.85978
G1 X29.698 Y143.418 E29.88868
G1 X29.587 Y142.375 E29.941
G1 X29.14 Y137.405 E30.18996
G1 X29.087 Y136.691 E30.22568
G1 X29.044 Y135.748 E30.27278
G1 X28.895 Y130.752 E30.52214
G1 X28.885 Y130.051 E30.55711
G1 X28.899 Y129.09 E30.60506
G1 X29.048 Y124.137 E30.85228
G1 X29.077 Y123.475 E30.88534
G1 X29.151 Y122.468 E30.93572
G1 X29.597 Y117.516 E31.18377
G1 X29.664 Y116.87 E31.21617
G1 X29.798 Y115.87 E31.26651
G1 X30.548 Y110.893 E31.51762
G1 X30.648 Y110.289 E31.54816
G1 X30.842 Y109.294 E31.59874
G1 X31.891 Y104.361 E31.85035
G1 X32.023 Y103.782 E31.87997
G1 X32.275 Y102.802 E31.93046
G1 X33.614 Y97.953 E32.18143
G1 X33.787 Y97.36 E32.21225
G1 X34.1 Y96.39 E32.2631
G1 X35.702 Y91.702 E32.51026
G1 X35.962 Y90.978 E32.54864
G1 X36.308 Y90.097 E32.59586
G1 X38.19 Y85.506 E32.84341
G1 X38.491 Y84.804 E32.88151
G1 X38.846 Y84.038 E32.92363
G1 X41.051 Y79.458 E33.17723
G1 X41.356 Y78.85 E33.21117
G1 X41.797 Y78.029 E33.25766
G1 X44.251 Y73.63 E33.50897
G1 X44.544 Y73.12 E33.53832
G1 X45.076 Y72.258 E33.58885
G1 X47.809 Y67.978 E33.8422
G1 X48.16 Y67.449 E33.87387
G1 X48.721 Y66.651 E33.92254
G1 X51.629 Y62.648 E34.16939
G1 X52.042 Y62.095 E34.20382
G1 X52.625 Y61.361 E34.25059
G1 X55.858 Y57.431 E34.50447
G1 X56.312 Y56.898 E34.5394
G1 X56.894 Y56.252 E34.58278
G1 X60.323 Y52.555 E34.83435
G1 F3000 E31.83435
;MESH:dispenser_wheel.stl
G0 F3600 X67.411 Y61.121
G0 X66.96 Y59.93
G0 X68.583 Y59.49
G0 X70.268 Y59.49
G0 X71.905 Y59.893
G0 X73.398 Y60.677
G0 X74.66 Y61.795
G0 X137.882 Y132.302
G0 X139.108 Y132.991
G0 X140.024 Y133.205
G0 X140.024 Y133.105
;TYPE:WALL-INNER
G1 F3000 E34.83435
G1 F1500 X140.792 Y133.008 E34.87297
G1 X141.512 Y132.725 E34.91157
G1 X142.139 Y132.273 E34.95013
G1 X142.635 Y131.679 E34.98874
G1 X142.969 Y130.983 E35.02725
G1 X143.121 Y130.224 E35.06587
G1 X143.08 Y129.451 E35.10449
G1 X142.849 Y128.712 E35.14312
G1 X142.443 Y128.054 E35.18169
G1 X141.767 Y127.4 E35.22862
G1 X138.281 Y127.4 E35.40253
G1 X137.605 Y128.054 E35.44946
G1 X137.199 Y128.712 E35.48803
G1 X136.969 Y129.451 E35.52665
G1 X136.928 Y130.223 E35.56522
G1 X137.079 Y130.983 E35.60387
G1 X137.414 Y131.679 E35.64241
G1 X137.909 Y132.273 E35.68099
G1 X138.536 Y132.725 E35.71955
G1 X139.256 Y133.008 E35.75814
G1 X140.024 Y133.105 E35.79676
G0 F3600 X140.024 Y132.702
;TYPE:WALL-OUTER
G1 F1500 X140.692 Y132.617 E35.83036
G1 X141.319 Y132.371 E35.86396
G1 X141.864 Y131.978 E35.89748
G1 X142.296 Y131.461 E35.9311
G1 X142.587 Y130.855 E35.96464
G1 X142.719 Y130.195 E35.99822
G1 X142.683 Y129.522 E36.03184
G1 X142.482 Y128.879 E36.06545
G1 X142.129 Y128.307 E36.09898
G1 X141.605 Y127.8 E36.13536
G1 X138.443 Y127.8 E36.29311
G1 X137.919 Y128.307 E36.32949
G1 X137.566 Y128.879 E36.36302
G1 X137.366 Y129.522 E36.39662
G1 X137.33 Y130.194 E36.43019
G1 X137.461 Y130.855 E36.46381
G1 X137.753 Y131.461 E36.49737
G1 X138.184 Y131.978 E36.53095
G1 X138.729 Y132.371 E36.56447
G1 X139.356 Y132.617 E36.59808
G1 X140.024 Y132.702 E36.63167
G0 F3600 X140.024 Y133.142
G0 X140.024 Y133.205
G0 X152.985 Y224.597
G0 X153.583 Y226.174
G0 X154.445 Y227.423
G0 X155.77 Y228.73
G0 X155.826 Y228.648
;TYPE:WALL-INNER
G1 F1500 X157.31 Y229.426 E36.71527
G1 X158.937 Y229.828 E36.79888
G1 X160.614 Y229.828 E36.88255
G1 X162.242 Y229.426 E36.96621
G1 X163.726 Y228.648 E37.0498
G1 X164.982 Y227.536 E37.13349
G1 X165.933 Y226.156 E37.21711
G1 X166.528 Y224.588 E37.30078
G1 X166.73 Y222.924 E37.3844
G1 X166.528 Y221.26 E37.46803
G1 X165.933 Y219.692 E37.5517
G1 X164.982 Y218.312 E37.63531
G1 X163.726 Y217.2 E37.71901
G1 X162.242 Y216.422 E37.8026
G1 X160.614 Y216.02 E37.88626
G1 X158.937 Y216.02 E37.96993
G1 X157.31 Y216.422 E38.05354
G1 X155.826 Y217.2 E38.13713
G1 X154.57 Y218.312 E38.22083
G1 X153.618 Y219.692 E38.30447
G1 X153.023 Y221.26 E38.38814
G1 X152.822 Y222.924 E38.47176
G1 X153.023 Y224.588 E38.55538
G1 X153.618 Y226.156 E38.63905
G1 X154.57 Y227.536 E38.72269
G1 X155.826 Y228.648 E38.80638
G0 F3600 X156.055 Y228.316
;TYPE:WALL-OUTER
G1 F1500 X157.453 Y229.049 E38.88514
G1 X158.986 Y229.428 E38.96392
G1 X160.565 Y229.428 E39.0427
G1 X162.099 Y229.049 E39.12153
G1 X163.497 Y228.316 E39.20028
G1 X164.68 Y227.269 E39.2791
G1 X165.576 Y225.969 E39.35787
G1 X166.137 Y224.492 E39.43669
G1 X166.327 Y222.924 E39.51549
G1 X166.137 Y221.356 E39.59429
G1 X165.576 Y219.879 E39.67312
G1 X164.68 Y218.579 E39.75189
G1 X163.497 Y217.532 E39.8307
G1 X162.099 Y216.799 E39.90945
G1 X160.565 Y216.42 E39.98829
G1 X158.986 Y216.42 E40.06706
G1 X157.453 Y216.799 E40.14585
G1 X156.055 Y217.532 E40.2246
G1 X154.872 Y218.579 E40.30341
G1 X153.975 Y219.879 E40.38221
G1 X153.414 Y221.356 E40.46104
G1 X153.225 Y222.924 E40.53983
G1 X153.414 Y224.492 E40.61863
G1 X153.975 Y225.969 E40.69745
G1 X154.872 Y227.269 E40.77625
G1 X156.055 Y228.316 E40.85506
G0 F3600 X155.806 Y228.678
G0 X155.77 Y228.73
G0 X157.296 Y229.463
G0 X158.933 Y229.867
G0 X160.618 Y229.867
G0 X162.256 Y229.463
G0 X163.598 Y228.759
G0 X173.384 Y221.465
G0 X173.458 Y221.399
;TYPE:WALL-INNER
G1 F1500 X174.714 Y222.511 E40.93876
G1 X176.198 Y223.289 E41.02235
G1 X177.826 Y223.691 E41.10601
G1 X179.503 Y223.691 E41.18968
G1 X181.13 Y223.289 E41.27329
G1 X182.614 Y222.511 E41.35688
G1 X183.87 Y221.399 E41.44058
G1 X184.822 Y220.019 E41.52422
G1 X185.417 Y218.45 E41.60793
G1 X185.618 Y216.787 E41.69151
G1 X185.417 Y215.123 E41.77513
G1 X184.822 Y213.555 E41.8588
G1 X183.87 Y212.175 E41.94244
G1 X182.614 Y211.063 E42.02613
G1 X181.13 Y210.284 E42.10975
G1 X179.503 Y209.883 E42.19335
G1 X177.826 Y209.883 E42.27701
G1 X176.198 Y210.284 E42.36066
G1 X174.714 Y211.063 E42.44428
G1 X173.458 Y212.175 E42.52797
G1 X172.506 Y213.555 E42.61161
G1 X171.912 Y215.123 E42.69527
G1 X171.71 Y216.787 E42.77889
G1 X171.912 Y218.45 E42.86247
G1 X172.506 Y220.019 E42.94617
G1 X173.458 Y221.399 E43.02981
G0 F3600 X173.76 Y221.132
;TYPE:WALL-OUTER
G1 F1500 X174.943 Y222.179 E43.10863
G1 X176.341 Y222.912 E43.18738
G1 X177.875 Y223.291 E43.26621
G1 X179.454 Y223.291 E43.34499
G1 X180.987 Y222.912 E43.42377
G1 X182.385 Y222.179 E43.50253
G1 X183.568 Y221.132 E43.58134
G1 X184.465 Y219.832 E43.66014
G1 X185.026 Y218.354 E43.73901
G1 X185.215 Y216.787 E43.81776
G1 X185.026 Y215.219 E43.89655
G1 X184.465 Y213.742 E43.97537
G1 X183.568 Y212.442 E44.05417
G1 X182.385 Y211.395 E44.13299
G1 X180.987 Y210.661 E44.21176
G1 X179.454 Y210.283 E44.29054
G1 X177.875 Y210.283 E44.36931
G1 X176.341 Y210.661 E44.44813
G1 X174.943 Y211.395 E44.52691
G1 X173.76 Y212.442 E44.60572
G1 X172.863 Y213.742 E44.68452
G1 X172.303 Y215.219 E44.76333
G1 X172.113 Y216.787 E44.84213
G1 X172.303 Y218.354 E44.92088
G1 X172.863 Y219.832 E44.99973
G1 X173.76 Y221.132 E45.07853
G0 F3600 X173.431 Y221.423
G0 X173.384 Y221.465
G0 X174.692 Y222.543
G0 X176.184 Y223.326
G0 X177.822 Y223.73
G0 X179.507 Y223.73
G0 X181.144 Y223.326
G0 X182.636 Y222.543
G0 X183.899 Y221.425
G0 X190.584 Y211.534
G0 X190.658 Y211.468
;TYPE:WALL-INNER
G1 F1500 X191.914 Y212.581 E45.16226
G1 X193.398 Y213.359 E45.24585
G1 X195.025 Y213.76 E45.32945
