;FLAVOR:Marlin
;TIME:78976
;Filament used: 60.7162m
;Layer height: 0.15
;MINX:25.9
;MINY:5.436
;MINZ:0.3
;MAXX:254.1
;MAXY:238.336
;MAXZ:15
;Generated with Cura_SteamEngine 4.8.0
M140 S60
M105
M190 S60
M104 S200
M105
M109 S200
M82 ;absolute extrusion mode
M201 X500.00 Y500.00 Z100.00 E5000.00 ;Setup machine max acceleration
M203 X500.00 Y500.00 Z10.00 E50.00 ;Setup machine max feedrate
M204 P500.00 R1000.00 T500.00 ;Setup Print/Retract/Travel acceleration
M205 X8.00 Y8.00 Z0.40 E5.00 ;Setup Jerk
M220 S100 ;Reset Feedrate
M221 S100 ;Reset Flowrate

G28 ;Home

G92 E0 ;Reset Extruder
G1 Z2.0 F3000 ;Move Z Axis up
G1 X10.1 Y20 Z0.28 F5000.0 ;Move to start position
G1 X10.1 Y200.0 Z0.28 F1500.0 E15 ;Draw the first line
G1 X10.4 Y200.0 Z0.28 F5000.0 ;Move to side a little
G1 X10.4 Y20 Z0.28 F1500.0 E30 ;Draw the second line
G92 E0 ;Reset Extruder
G1 Z2.0 F3000 ;Move Z Axis up

G92 E0
G92 E0
G1 F3000 E-3
;LAYER_COUNT:99
;LAYER:0
M107
G0 F3600 X56.841 Y50.564 Z0.3
;TYPE:SUPPORT
G1 F3000 E0
G1 F1500 X61.452 Y45.667 E0.33557
G1 X66.339 Y41.066 E0.67044
G1 X71.492 Y36.773 E1.00505
G1 X76.89 Y32.801 E1.33941
G1 X82.541 Y29.149 E1.67509
G1 X88.379 Y25.858 E2.00944
G1 X94.398 Y22.928 E2.34342
G1 X100.624 Y20.349 E2.67963
G1 X106.948 Y18.167 E3.01339
G1 X113.416 Y16.364 E3.34838
G1 X119.978 Y14.957 E3.6832
G1 X126.624 Y13.944 E4.0186
G1 X133.275 Y13.34 E4.35178
G1 X140 Y13.137 E4.68745
G1 X146.725 Y13.34 E5.02311
G1 X153.376 Y13.944 E5.3563
G1 X160.022 Y14.957 E5.6917
G1 X166.584 Y16.364 E6.02652
G1 X173.052 Y18.167 E6.36151
G1 X179.376 Y20.349 E6.69527
G1 X185.602 Y22.928 E7.03148
G1 X191.621 Y25.858 E7.36546
G1 X197.459 Y29.149 E7.69981
G1 X203.11 Y32.801 E8.03549
G1 X208.508 Y36.773 E8.36984
G1 X213.661 Y41.066 E8.70446
G1 X218.548 Y45.667 E9.03932
G1 X223.143 Y50.546 E9.37369
G1 X227.45 Y55.713 E9.70929
G1 X231.418 Y61.102 E10.04317
G1 X235.072 Y66.752 E10.37886
G1 X238.362 Y72.583 E10.71288
G1 X241.295 Y78.604 E11.04701
G1 X243.875 Y84.828 E11.38315
G1 X246.062 Y91.162 E11.71746
G1 X247.863 Y97.614 E12.05166
G1 X249.277 Y104.191 E12.38729
G1 X250.288 Y110.829 E12.72228
G1 X250.894 Y117.482 E13.05557
G1 X251.1 Y124.225 E13.39214
G1 X251.1 Y235.336 E18.93549
G1 X28.9 Y235.336 E30.02109
G1 X28.9 Y124.237 E35.56384
G1 X29.106 Y117.482 E35.90101
G1 X29.712 Y110.829 E36.2343
G1 X30.724 Y104.191 E36.5693
G1 X32.131 Y97.638 E36.90368
G1 X33.938 Y91.162 E37.23911
G1 X36.125 Y84.828 E37.57342
G1 X38.695 Y78.626 E37.90835
G1 X41.638 Y72.583 E38.24369
G1 X44.928 Y66.752 E38.57771
G1 X48.582 Y61.102 E38.9134
G1 X52.55 Y55.713 E39.24728
G1 X56.841 Y50.564 E39.58168
G0 F3600 X56.854 Y50.673
G1 F1500 X223.146 Y50.673 E47.87802
G0 F3600 X224.028 Y51.733
G1 F1500 X224.028 Y235.256 E57.03402
G0 F3600 X221.361 Y235.256
G1 F1500 X221.361 Y48.771 E66.33779
G0 F3600 X220.642 Y48.006
G1 F1500 X59.36 Y48.006 E74.38418
G0 F3600 X58.674 Y48.734
G1 F1500 X58.674 Y235.256 E83.6898
G0 F3600 X56.007 Y235.256
G1 F1500 X56.007 Y51.689 E92.848
G0 F3600 X54.632 Y53.34
G1 F1500 X225.369 Y53.34 E101.3661
G0 F3600 X226.695 Y54.934
G1 F1500 X226.695 Y235.256 E110.3624
G0 F3600 X229.362 Y235.256
G1 F1500 X229.362 Y58.445 E119.18354
G0 F3600 X229.532 Y58.674
G1 F1500 X50.47 Y58.674 E128.11698
G0 F3600 X50.673 Y58.397
G1 F1500 X50.673 Y235.256 E136.94051
G0 F3600 X48.006 Y235.256
G1 F1500 X48.006 Y62.14 E145.5773
G0 F3600 X48.522 Y61.341
G1 F1500 X231.478 Y61.341 E154.70502
G0 F3600 X232.029 Y62.195
G1 F1500 X232.029 Y235.256 E163.33906
G0 F3600 X234.696 Y235.256
G1 F1500 X234.696 Y66.319 E171.76737
G0 F3600 X234.928 Y66.675
G1 F1500 X45.073 Y66.675 E181.23927
G0 F3600 X45.339 Y66.264
G1 F1500 X45.339 Y235.256 E189.67031
G0 F3600 X42.672 Y235.256
G1 F1500 X42.672 Y70.913 E197.86942
G0 F3600 X42.053 Y72.009
G1 F1500 X237.947 Y72.009 E207.64261
G0 F3600 X237.363 Y70.976
G1 F1500 X237.363 Y235.256 E215.83857
G0 F3600 X240.03 Y235.256
G1 F1500 X240.03 Y76.192 E223.77431
G0 F3600 X240.592 Y77.343
G1 F1500 X39.409 Y77.343 E233.81137
G0 F3600 X40.005 Y76.12
G1 F1500 X40.005 Y235.256 E241.7507
G0 F3600 X37.338 Y235.256
G1 F1500 X37.338 Y82.11 E249.39118
G0 F3600 X37.103 Y82.677
G1 F1500 X242.897 Y82.677 E259.65829
G0 F3600 X242.697 Y82.197
G1 F1500 X242.697 Y235.256 E267.29443
G0 F3600 X245.364 Y235.256
G1 F1500 X245.364 Y89.385 E274.57196
G0 F3600 X245.811 Y90.678
G1 F1500 X34.189 Y90.678 E285.12983
G0 F3600 X34.671 Y89.283
G1 F1500 X34.671 Y235.256 E292.41245
G0 F3600 X32.004 Y235.256
G1 F1500 X32.004 Y98.609 E299.2298
G0 F3600 X31.988 Y98.679
G1 F1500 X248.011 Y98.679 E310.00723
G0 F3600 X248.031 Y98.777
G1 F1500 X248.031 Y235.256 E316.81619
G0 F3600 X250.698 Y235.256
G1 F1500 X250.698 Y116.209 E322.75547
G0 F3600 X250.802 Y117.348
G1 F1500 X29.198 Y117.348 E333.81134
G0 F3600 X29.337 Y115.824
G1 F1500 X29.337 Y235.256 E339.76983
G0 F3600 X28.979 Y234.696
G1 F1500 X251.02 Y234.696 E350.8475
G0 F3600 X251.02 Y232.029
G1 F1500 X28.979 Y232.029 E361.92517
G0 F3600 X28.979 Y229.362
G1 F1500 X251.02 Y229.362 E373.00284
G0 F3600 X251.02 Y226.695
G1 F1500 X28.979 Y226.695 E384.08051
G0 F3600 X28.979 Y224.028
G1 F1500 X251.02 Y224.028 E395.15818
G0 F3600 X251.02 Y221.361
G1 F1500 X28.979 Y221.361 E406.23585
G0 F3600 X28.979 Y218.694
G1 F1500 X251.02 Y218.694 E417.31352
G0 F3600 X251.02 Y216.027
G1 F1500 X28.979 Y216.027 E428.39119
G0 F3600 X28.979 Y213.36
G1 F1500 X251.02 Y213.36 E439.46886
G0 F3600 X251.02 Y210.693
G1 F1500 X28.979 Y210.693 E450.54653
G0 F3600 X28.979 Y208.026
G1 F1500 X251.02 Y208.026 E461.6242
G0 F3600 X251.02 Y205.359
G1 F1500 X28.979 Y205.359 E472.70187
G0 F3600 X28.979 Y202.692
G1 F1500 X251.02 Y202.692 E483.77954
G0 F3600 X251.02 Y200.025
G1 F1500 X28.979 Y200.025 E494.85722
G0 F3600 X28.979 Y197.358
G1 F1500 X251.02 Y197.358 E505.93489
G0 F3600 X251.02 Y194.691
G1 F1500 X28.979 Y194.691 E517.01256
G0 F3600 X28.979 Y192.024
G1 F1500 X251.02 Y192.024 E528.09023
G0 F3600 X251.02 Y189.357
G1 F1500 X28.979 Y189.357 E539.1679
G0 F3600 X28.979 Y186.69
G1 F1500 X251.02 Y186.69 E550.24557
G0 F3600 X251.02 Y184.023
G1 F1500 X28.979 Y184.023 E561.32324
G0 F3600 X28.979 Y181.356
G1 F1500 X251.02 Y181.356 E572.40091
G0 F3600 X251.02 Y178.689
G1 F1500 X28.979 Y178.689 E583.47858
G0 F3600 X28.979 Y176.022
G1 F1500 X251.02 Y176.022 E594.55625
G0 F3600 X251.02 Y173.355
G1 F1500 X28.979 Y173.355 E605.63392
G0 F3600 X28.979 Y170.688
G1 F1500 X251.02 Y170.688 E616.71159
G0 F3600 X251.02 Y168.021
G1 F1500 X28.979 Y168.021 E627.78926
G0 F3600 X28.979 Y165.354
G1 F1500 X251.02 Y165.354 E638.86693
G0 F3600 X251.02 Y162.687
G1 F1500 X28.979 Y162.687 E649.9446
G0 F3600 X28.979 Y160.02
G1 F1500 X251.02 Y160.02 E661.02227
G0 F3600 X251.02 Y157.353
G1 F1500 X28.979 Y157.353 E672.09994
G0 F3600 X28.979 Y154.686
G1 F1500 X251.02 Y154.686 E683.17761
G0 F3600 X251.02 Y152.019
G1 F1500 X28.979 Y152.019 E694.25528
G0 F3600 X28.979 Y149.352
G1 F1500 X251.02 Y149.352 E705.33295
G0 F3600 X251.02 Y146.685
G1 F1500 X28.979 Y146.685 E716.41062
G0 F3600 X28.979 Y144.018
G1 F1500 X251.02 Y144.018 E727.48829
G0 F3600 X251.02 Y141.351
G1 F1500 X28.979 Y141.351 E738.56597
G0 F3600 X28.979 Y138.684
G1 F1500 X251.02 Y138.684 E749.64364
G0 F3600 X251.02 Y136.017
G1 F1500 X28.979 Y136.017 E760.72131
G0 F3600 X28.979 Y133.35
G1 F1500 X251.02 Y133.35 E771.79898
G0 F3600 X251.02 Y130.683
G1 F1500 X28.979 Y130.683 E782.87665
G0 F3600 X28.979 Y128.016
G1 F1500 X251.02 Y128.016 E793.95432
G0 F3600 X251.02 Y125.349
G1 F1500 X28.979 Y125.349 E805.03199
G0 F3600 X29.027 Y122.682
G1 F1500 X250.973 Y122.682 E816.10492
G0 F3600 X250.892 Y120.015
G1 F1500 X29.108 Y120.015 E827.16977
G0 F3600 X29.441 Y114.681
G1 F1500 X250.559 Y114.681 E838.20139
G0 F3600 X250.316 Y112.014
G1 F1500 X29.684 Y112.014 E849.20876
G0 F3600 X30.019 Y109.347
G1 F1500 X249.982 Y109.347 E860.18276
G0 F3600 X249.576 Y106.68
G1 F1500 X30.425 Y106.68 E871.11625
G0 F3600 X30.844 Y104.013
G1 F1500 X249.157 Y104.013 E882.00793
G0 F3600 X248.584 Y101.346
G1 F1500 X31.416 Y101.346 E892.84249
G0 F3600 X32.667 Y96.012
G1 F1500 X247.334 Y96.012 E903.55227
G0 F3600 X246.589 Y93.345
G1 F1500 X33.411 Y93.345 E914.18776
G0 F3600 X35.11 Y88.011
G1 F1500 X244.89 Y88.011 E924.65373
G0 F3600 X243.969 Y85.344
G1 F1500 X36.031 Y85.344 E935.0278
G0 F3600 X38.208 Y80.01
G1 F1500 X241.791 Y80.01 E945.18459
G0 F3600 X239.293 Y74.676
G1 F1500 X40.708 Y74.676 E955.09204
G0 F3600 X43.558 Y69.342
G1 F1500 X236.443 Y69.342 E964.71511
G0 F3600 X233.203 Y64.008
G1 F1500 X46.798 Y64.008 E974.01489
G0 F3600 X52.434 Y56.007
G1 F1500 X227.568 Y56.007 E982.75236
G0 F3600 X218.694 Y45.94
G1 F1500 X218.694 Y235.256 E992.19738
G0 F3600 X216.027 Y235.256
G1 F1500 X216.027 Y43.404 E1001.76891
G0 F3600 X215.252 Y42.672
G1 F1500 X64.749 Y42.672 E1009.27754
G0 F3600 X64.008 Y43.37
G1 F1500 X64.008 Y235.256 E1018.85077
G0 F3600 X61.341 Y235.256
G1 F1500 X61.341 Y45.902 E1028.29768
G0 F3600 X61.917 Y45.339
G1 F1500 X218.084 Y45.339 E1036.08888
G0 F3600 X213.36 Y40.919
G1 F1500 X213.36 Y235.256 E1045.78439
G0 F3600 X210.693 Y235.256
G1 F1500 X210.693 Y38.697 E1055.59076
G0 F3600 X212.265 Y40.005
G1 F1500 X67.736 Y40.005 E1062.80134
G0 F3600 X66.675 Y40.889
G1 F1500 X66.675 Y235.256 E1072.49835
G0 F3600 X69.342 Y235.256
G1 F1500 X69.342 Y38.667 E1082.30622
G0 F3600 X70.937 Y37.338
G1 F1500 X209.064 Y37.338 E1089.1974
G0 F3600 X208.026 Y36.518
G1 F1500 X208.026 Y235.256 E1099.11248
G0 F3600 X205.359 Y235.256
G1 F1500 X205.359 Y34.555 E1109.12549
G0 F3600 X205.519 Y34.671
G1 F1500 X74.482 Y34.671 E1115.66296
G0 F3600 X74.676 Y34.529
G1 F1500 X74.676 Y235.256 E1125.67727
G0 F3600 X72.009 Y235.256
G1 F1500 X72.009 Y36.491 E1135.59369
G0 F3600 X77.343 Y32.603
G1 F1500 X77.343 Y235.256 E1145.70409
G0 F3600 X80.01 Y235.256
G1 F1500 X80.01 Y30.88 E1155.90045
G0 F3600 X78.27 Y32.004
G1 F1500 X201.731 Y32.004 E1162.05995
G0 F3600 X202.692 Y32.627
G1 F1500 X202.692 Y235.256 E1172.16915
G0 F3600 X200.025 Y235.256
G1 F1500 X200.025 Y30.903 E1182.36436
G0 F3600 X197.604 Y29.337
G1 F1500 X82.397 Y29.337 E1188.11206
G0 F3600 X82.677 Y29.163
G1 F1500 X82.677 Y235.256 E1198.39408
G0 F3600 X85.344 Y235.256
G1 F1500 X85.344 Y27.66 E1208.75109
G0 F3600 X87.1 Y26.67
G1 F1500 X192.901 Y26.67 E1214.02952
G0 F3600 X192.024 Y26.178
G1 F1500 X192.024 Y235.256 E1224.46047
G0 F3600 X189.357 Y235.256
G1 F1500 X189.357 Y24.846 E1234.95787
G0 F3600 X187.628 Y24.003
G1 F1500 X92.373 Y24.003 E1239.71016
G0 F3600 X93.345 Y23.53
G1 F1500 X93.345 Y235.256 E1250.27321
G0 F3600 X90.678 Y235.256
G1 F1500 X90.678 Y24.828 E1260.77151
G0 F3600 X88.011 Y26.157
G1 F1500 X88.011 Y235.256 E1271.2035
G0 F3600 X96.012 Y235.256
G1 F1500 X96.012 Y22.346 E1281.82562
G0 F3600 X98.45 Y21.336
G1 F1500 X181.551 Y21.336 E1285.97155
G0 F3600 X181.356 Y21.257
G1 F1500 X181.356 Y235.256 E1296.648
G0 F3600 X178.689 Y235.256
G1 F1500 X178.689 Y20.197 E1307.37734
G0 F3600 X176.022 Y19.277
G1 F1500 X176.022 Y235.256 E1318.15257
G0 F3600 X173.355 Y235.256
G1 F1500 X173.355 Y18.356 E1328.97376
G0 F3600 X174.266 Y18.669
G1 F1500 X105.735 Y18.669 E1332.39278
G0 F3600 X106.68 Y18.343
G1 F1500 X106.68 Y235.256 E1343.21462
G0 F3600 X104.013 Y235.256
G1 F1500 X104.013 Y19.264 E1353.9905
G0 F3600 X101.346 Y20.184
G1 F1500 X101.346 Y235.256 E1364.72049
G0 F3600 X98.679 Y235.256
G1 F1500 X98.679 Y21.241 E1375.39774
G0 F3600 X109.347 Y17.581
G1 F1500 X109.347 Y235.256 E1386.25759
G0 F3600 X112.014 Y235.256
G1 F1500 X112.014 Y16.837 E1397.15456
G0 F3600 X114.681 Y16.174
G1 F1500 X114.681 Y235.256 E1408.0846
G0 F3600 X117.348 Y235.256
G1 F1500 X117.348 Y15.603 E1419.04313
G0 F3600 X115.483 Y16.002
G1 F1500 X164.518 Y16.002 E1421.4895
G0 F3600 X165.354 Y16.183
G1 F1500 X165.354 Y235.256 E1432.4191
G0 F3600 X162.687 Y235.256
G1 F1500 X162.687 Y15.611 E1443.37723
G0 F3600 X160.02 Y15.04
G1 F1500 X160.02 Y235.256 E1454.36385
G0 F3600 X157.353 Y235.256
G1 F1500 X157.353 Y14.632 E1465.37083
G0 F3600 X154.686 Y14.226
G1 F1500 X154.686 Y235.256 E1476.39806
G0 F3600 X152.019 Y235.256
G1 F1500 X152.019 Y13.902 E1487.44145
G0 F3600 X149.352 Y13.659
G1 F1500 X149.352 Y235.256 E1498.49697
G0 F3600 X146.685 Y235.256
G1 F1500 X146.685 Y13.419 E1509.56447
G0 F3600 X144.018 Y13.339
G1 F1500 X144.018 Y235.256 E1520.63595
G0 F3600 X141.351 Y235.256
G1 F1500 X141.351 Y13.258 E1531.71148
G0 F3600 X143.943 Y13.335
G1 F1500 X136.058 Y13.335 E1532.10486
G0 F3600 X136.017 Y13.337
G1 F1500 X136.017 Y235.256 E1543.17644
G0 F3600 X133.35 Y235.256
G1 F1500 X133.35 Y13.417 E1554.24404
G0 F3600 X130.683 Y13.655
G1 F1500 X130.683 Y235.256 E1565.29975
G0 F3600 X128.016 Y235.256
G1 F1500 X128.016 Y13.897 E1576.3434
G0 F3600 X125.349 Y14.219
G1 F1500 X125.349 Y235.256 E1587.37098
G0 F3600 X122.682 Y235.256
G1 F1500 X122.682 Y14.626 E1598.37826
G0 F3600 X120.015 Y15.032
G1 F1500 X120.015 Y235.256 E1609.36528
G0 F3600 X138.684 Y235.256
G1 F1500 X138.684 Y13.256 E1620.4409
G0 F3600 X168.021 Y16.848
G1 F1500 X168.021 Y235.256 E1631.33732
G0 F3600 X170.688 Y235.256
G1 F1500 X170.688 Y17.592 E1642.19662
G0 F3600 X184.023 Y22.362
G1 F1500 X184.023 Y235.256 E1652.81795
G0 F3600 X186.69 Y235.256
G1 F1500 X186.69 Y23.548 E1663.3801
G0 F3600 X194.691 Y27.681
G1 F1500 X194.691 Y235.256 E1673.73606
G0 F3600 X197.358 Y235.256
G1 F1500 X197.358 Y29.184 E1684.01703
G0 F3600 X53.34 Y54.89
G1 F1500 X53.34 Y235.256 E1693.01553
G1 F3000 E1690.01553
;MESH:dispenser_bottom.stl
G0 F3600 X53.34 Y236.836
G0 X27.33 Y236.906
G0 X27.4 Y236.836
;TYPE:WALL-INNER
G1 F3000 E1693.01553
G1 F1500 X252.6 Y236.836 E1704.2508
G1 X252.6 Y124.198 E1709.87034
G1 X252.393 Y117.41 E1710.20915
G1 X251.776 Y110.637 E1710.54845
G1 X250.752 Y103.914 E1710.88773
G1 X249.323 Y97.265 E1711.22703
G1 X247.495 Y90.714 E1711.56635
G1 X245.275 Y84.286 E1711.90563
G1 X242.671 Y78.004 E1712.2449
G1 X239.693 Y71.89 E1712.58418
G1 X236.351 Y65.967 E1712.92348
G1 X232.658 Y60.257 E1713.26274
G1 X228.626 Y54.78 E1713.60205
G1 X224.273 Y49.557 E1713.94126
G1 X219.61 Y44.605 E1714.28061
G1 X214.658 Y39.944 E1714.61989
G1 X209.433 Y35.591 E1714.95917
G1 X203.955 Y31.561 E1715.29846
G1 X198.243 Y27.869 E1715.63778
G1 X192.32 Y24.53 E1715.977
G1 X186.205 Y21.553 E1716.31631
G1 X179.923 Y18.951 E1716.65554
G1 X173.494 Y16.733 E1716.99484
G1 X166.943 Y14.906 E1717.33414
G1 X160.293 Y13.479 E1717.67346
G1 X153.57 Y12.456 E1718.01273
G1 X146.797 Y11.841 E1718.35203
G1 X140 Y11.636 E1718.69129
G1 X133.203 Y11.841 E1719.03055
G1 X126.43 Y12.456 E1719.36984
G1 X119.707 Y13.479 E1719.70912
G1 X113.057 Y14.906 E1720.04844
G1 X106.506 Y16.733 E1720.38774
G1 X100.077 Y18.951 E1720.72704
G1 X93.795 Y21.553 E1721.06627
G1 X87.68 Y24.53 E1721.40558
G1 X81.757 Y27.869 E1721.7448
G1 X76.045 Y31.561 E1722.08412
G1 X70.567 Y35.591 E1722.42341
G1 X65.342 Y39.944 E1722.76269
G1 X60.39 Y44.605 E1723.10197
G1 X55.727 Y49.557 E1723.44132
G1 X51.374 Y54.78 E1723.78053
G1 X47.342 Y60.257 E1724.11984
G1 X43.649 Y65.967 E1724.4591
G1 X40.307 Y71.89 E1724.79839
G1 X37.329 Y78.004 E1725.13768
G1 X34.725 Y84.286 E1725.47695
G1 X32.505 Y90.714 E1725.81623
G1 X30.677 Y97.265 E1726.15555
G1 X29.248 Y103.914 E1726.49484
G1 X28.224 Y110.637 E1726.83412
G1 X27.607 Y117.41 E1727.17343
G1 X27.4 Y124.198 E1727.51224
G1 X27.4 Y236.836 E1733.13177
G0 F3600 X27.8 Y236.436
;TYPE:WALL-OUTER
G1 F1500 X252.2 Y236.436 E1744.32714
G1 X252.2 Y124.204 E1749.92641
G1 X251.994 Y117.434 E1750.26433
G1 X251.379 Y110.685 E1750.60243
G1 X250.358 Y103.986 E1750.9405
G1 X248.934 Y97.361 E1751.27858
G1 X247.113 Y90.833 E1751.61669
G1 X244.901 Y84.428 E1751.95476
G1 X242.306 Y78.168 E1752.29284
G1 X239.339 Y72.076 E1752.6309
G1 X236.009 Y66.174 E1752.96899
G1 X232.329 Y60.484 E1753.30706
G1 X228.311 Y55.027 E1753.64515
G1 X223.973 Y49.822 E1753.98319
G1 X219.327 Y44.888 E1754.32131
G1 X214.393 Y40.244 E1754.65935
G1 X209.186 Y35.906 E1754.99747
G1 X203.728 Y31.89 E1755.33554
G1 X198.036 Y28.212 E1755.67364
G1 X192.134 Y24.884 E1756.01168
G1 X186.041 Y21.918 E1756.34976
G1 X179.781 Y19.325 E1756.68781
G1 X173.375 Y17.115 E1757.02589
G1 X166.847 Y15.295 E1757.36399
G1 X160.221 Y13.873 E1757.70209
G1 X153.522 Y12.853 E1758.04016
G1 X146.773 Y12.24 E1758.37825
G1 X140 Y12.036 E1758.71631
