;FLAVOR:Marlin
;TIME:17423
;Filament used: 6.72646m
;Layer height: 0.1
;MINX:94.814
;MINY:98.91
;MINZ:0.3
;MAXX:185.632
;MAXY:161.003
;MAXZ:12
;Generated with Cura_SteamEngine 4.8.0
M140 S60
M105
M190 S60
M104 S200
M105
M109 S200
M82 ;absolute extrusion mode
M201 X500.00 Y500.00 Z100.00 E5000.00 ;Setup machine max acceleration
M203 X500.00 Y500.00 Z10.00 E50.00 ;Setup machine max feedrate
M204 P500.00 R1000.00 T500.00 ;Setup Print/Retract/Travel acceleration
M205 X8.00 Y8.00 Z0.40 E5.00 ;Setup Jerk
M220 S100 ;Reset Feedrate
M221 S100 ;Reset Flowrate

G28 ;Home

G92 E0 ;Reset Extruder
G1 Z2.0 F3000 ;Move Z Axis up
G1 X10.1 Y20 Z0.28 F5000.0 ;Move to start position
G1 X10.1 Y200.0 Z0.28 F1500.0 E15 ;Draw the first line
G1 X10.4 Y200.0 Z0.28 F5000.0 ;Move to side a little
G1 X10.4 Y20 Z0.28 F1500.0 E30 ;Draw the second line
G92 E0 ;Reset Extruder
G1 Z2.0 F3000 ;Move Z Axis up

G92 E0
G92 E0
G1 F3000 E-3
;LAYER_COUNT:118
;LAYER:0
M107
G0 F3600 X96.658 Y100.819 Z0.3
;TYPE:SKIRT
G1 F3000 E0
G1 F1200 X97.083 Y100.471 E0.0274
G1 X97.635 Y100.093 E0.06078
G1 X98.073 Y99.841 E0.08599
G1 X98.669 Y99.613 E0.11783
G1 X98.978 Y99.513 E0.13403
G1 X99.514 Y99.391 E0.16146
G1 X100.134 Y99.312 E0.19264
G1 X100.402 Y99.296 E0.20603
G1 X101.48 Y99.276 E0.25982
G1 X167.208 Y99.277 E3.53901
G1 X170.005 Y99.237 E3.67856
G1 X172.731 Y99.122 E3.81469
G1 X175.739 Y98.911 E3.96512
G1 X176.177 Y98.91 E3.98698
G1 X176.908 Y99.053 E4.02414
G1 X177.41 Y99.214 E4.05044
G1 X179.147 Y99.805 E4.14198
G1 X181.743 Y100.605 E4.2775
G1 X182.701 Y100.877 E4.32719
G1 X183.193 Y101.045 E4.35312
G1 X183.352 Y101.111 E4.36171
G1 X183.802 Y101.341 E4.38693
G1 X184.21 Y101.639 E4.41213
G1 X184.567 Y101.997 E4.43736
G1 X184.902 Y102.447 E4.46534
G1 X185.164 Y102.88 E4.49059
G1 X185.354 Y103.348 E4.51579
G1 X185.469 Y103.841 E4.54105
G1 X185.503 Y104.596 E4.57875
G1 X185.53 Y106.131 E4.65535
G1 X185.518 Y106.326 E4.6651
G1 X185.532 Y107.808 E4.73904
G1 X185.596 Y110.527 E4.87472
G1 X185.62 Y111.102 E4.90344
G1 X185.629 Y111.605 E4.92854
G1 X185.625 Y111.844 E4.94046
G1 X185.464 Y114.686 E5.08248
G1 X185.376 Y118.781 E5.28682
G1 X185.375 Y141.066 E6.39863
G1 X185.415 Y143.863 E6.53818
G1 X185.53 Y146.576 E6.67366
G1 X185.554 Y146.903 E6.69002
G1 X185.632 Y148.268 E6.75823
G1 X185.624 Y149.068 E6.79814
G1 X185.515 Y152.191 E6.95404
G1 X185.502 Y154.074 E7.04799
G1 X185.479 Y155.001 E7.09425
G1 X185.442 Y155.919 E7.14009
G1 X185.382 Y156.421 E7.16531
G1 X185.244 Y156.907 E7.19052
G1 X184.898 Y157.579 E7.22822
G1 X184.838 Y157.668 E7.23358
G1 X184.524 Y158.063 E7.25875
G1 X184.15 Y158.404 E7.284
G1 X183.532 Y158.794 E7.32046
G1 X182.844 Y159.085 E7.35773
G1 X181.727 Y159.409 E7.41576
G1 X181.395 Y159.501 E7.43294
G1 X178.287 Y160.462 E7.59525
G1 X177.129 Y160.84 E7.65602
G1 X176.638 Y160.958 E7.68121
G1 X176.046 Y161.003 E7.71083
G1 X175.41 Y160.998 E7.74256
G1 X174.924 Y160.968 E7.76686
G1 X172.164 Y160.812 E7.90477
G1 X169.4 Y160.734 E8.04272
G1 X168.028 Y160.724 E8.11118
G1 X101.22 Y160.723 E11.44424
G1 X100.517 Y160.713 E11.47932
G1 X99.998 Y160.677 E11.50527
G1 X99.633 Y160.633 E11.52361
G1 X98.996 Y160.489 E11.5562
G1 X98.422 Y160.296 E11.58641
G1 X97.834 Y160.029 E11.61863
G1 X97.26 Y159.674 E11.6523
G1 X96.756 Y159.272 E11.68446
G1 X96.377 Y158.901 E11.71092
G1 X95.944 Y158.377 E11.74483
G1 X95.639 Y157.915 E11.77245
G1 X95.309 Y157.263 E11.80891
G1 X95.084 Y156.655 E11.84125
G1 X94.922 Y156.031 E11.87342
G1 X94.843 Y155.382 E11.90604
G1 X94.826 Y155.097 E11.92028
G1 X94.814 Y154.26 E11.96204
G1 X94.815 Y105.619 E14.38875
G1 X94.824 Y104.983 E14.42048
G1 X94.884 Y104.283 E14.45554
G1 X94.935 Y103.927 E14.47348
G1 X95.063 Y103.398 E14.50063
G1 X95.274 Y102.8 E14.53227
G1 X95.505 Y102.311 E14.55925
G1 X95.86 Y101.731 E14.59318
G1 X96.253 Y101.23 E14.62494
G1 X96.658 Y100.819 E14.65373
G0 F3600 X99.061 Y103.211
;TYPE:SUPPORT
G1 F1200 X99.535 Y102.901 E14.68199
G1 X100.005 Y102.744 E14.70671
G1 X100.561 Y102.676 E14.73465
G1 X173.48 Y102.677 E18.3726
G1 X174.154 Y102.62 E18.40634
G1 X175.897 Y102.3 E18.49476
G1 X176.549 Y102.679 E18.53238
G1 X176.507 Y102.79 E18.5383
G1 X176.655 Y103.301 E18.56484
G1 X178.751 Y104.887 E18.69598
G1 X179.2 Y104.889 E18.71838
G1 X179.049 Y105.237 E18.7373
G1 X178.97 Y105.936 E18.7724
G1 X178.97 Y106.058 E18.77849
G1 X179.052 Y106.787 E18.81508
G1 X179.458 Y107.618 E18.86123
G1 X180.135 Y107.966 E18.8992
G1 X181.047 Y107.976 E18.94471
G1 X181.8 Y107.971 E18.98227
G1 X180.844 Y108.792 E19.04514
G1 X180.765 Y109.335 E19.07252
G1 X182.235 Y111.603 E19.20736
G1 X182.086 Y112.257 E19.24082
G1 X181.976 Y112.865 E19.27165
G1 X181.975 Y147.082 E20.97874
G1 X182.078 Y147.728 E21.01138
G1 X182.232 Y148.43 E21.04723
G1 X181.964 Y148.739 E21.06764
G1 X179.92 Y149.875 E21.18431
G1 X179.868 Y150.484 E21.2148
G1 X181.787 Y152.03 E21.33774
G1 X181.059 Y152.026 E21.37406
G1 X180.103 Y152.036 E21.42176
G1 X179.441 Y152.435 E21.46032
G1 X179.121 Y153.026 E21.49385
G1 X178.986 Y153.658 E21.5261
G1 X178.987 Y154.418 E21.56401
G1 X179.139 Y155.046 E21.59625
G1 X179.492 Y155.587 E21.62848
G1 X179.111 Y155.381 E21.65008
G1 X178.614 Y155.373 E21.67488
G1 X176.63 Y156.368 E21.78562
G1 X176.395 Y156.849 E21.81232
G1 X176.472 Y157.221 E21.83128
G1 X176.06 Y157.608 E21.85948
G1 X175.469 Y157.608 E21.88896
G1 X173.899 Y157.347 E21.96837
G1 X173.485 Y157.324 E21.98905
G1 X100.571 Y157.323 E25.62675
G1 X100.005 Y157.263 E25.65514
G1 X99.53 Y157.093 E25.68031
G1 X99.063 Y156.802 E25.70776
G1 X98.727 Y156.458 E25.73175
G1 X98.461 Y156.037 E25.7566
G1 X98.439 Y155.984 E25.75946
G1 X98.272 Y155.506 E25.78472
G1 X98.214 Y155.007 E25.80979
G1 X98.215 Y105.004 E28.30445
G1 X98.277 Y104.481 E28.33072
G1 X98.282 Y104.457 E28.33194
G1 X98.443 Y104.005 E28.35588
G1 X98.462 Y103.969 E28.35791
G1 X98.713 Y103.563 E28.38173
G1 X99.061 Y103.211 E28.40642
G0 F3600 X180.304 Y155.977
G1 F1200 X180.488 Y155.978 E28.4156
G1 X180.478 Y155.983 E28.41616
G1 X180.337 Y155.983 E28.42319
G1 X180.304 Y155.977 E28.42487
G0 F3600 X178 Y155.591
G1 F1200 X178 Y104.42 E30.9778
G0 F3600 X177.448 Y104
G1 F1200 X98.537 Y104 E34.91468
G0 F3600 X100 Y102.83
G1 F1200 X100 Y157.176 E37.62602
G0 F3600 X98.531 Y156
G1 F1200 X177.185 Y156 E41.55008
G0 F3600 X176 Y157.528
G1 F1200 X176 Y102.453 E44.29778
G0 F3600 X174 Y102.712
G1 F1200 X174 Y157.282 E47.02029
G0 F3600 X172 Y157.243
G1 F1200 X172 Y102.757 E49.73861
G0 F3600 X170 Y102.757
G1 F1200 X170 Y157.243 E52.45693
G0 F3600 X168 Y157.243
G1 F1200 X168 Y102.757 E55.17525
G0 F3600 X166 Y102.757
G1 F1200 X166 Y157.243 E57.89356
G0 F3600 X164 Y157.243
G1 F1200 X164 Y102.757 E60.61188
G0 F3600 X162 Y102.757
G1 F1200 X162 Y157.243 E63.3302
G0 F3600 X160 Y157.243
G1 F1200 X160 Y102.757 E66.04852
G0 F3600 X158 Y102.757
G1 F1200 X158 Y157.243 E68.76683
G0 F3600 X156 Y157.243
G1 F1200 X156 Y102.757 E71.48515
G0 F3600 X154 Y102.757
G1 F1200 X154 Y157.243 E74.20347
G0 F3600 X152 Y157.243
G1 F1200 X152 Y102.757 E76.92179
G0 F3600 X150 Y102.757
G1 F1200 X150 Y157.243 E79.6401
G0 F3600 X148 Y157.243
G1 F1200 X148 Y102.757 E82.35842
G0 F3600 X146 Y102.757
G1 F1200 X146 Y157.243 E85.07674
G0 F3600 X144 Y157.243
G1 F1200 X144 Y102.757 E87.79506
G0 F3600 X142 Y102.757
G1 F1200 X142 Y157.243 E90.51337
G0 F3600 X140 Y157.243
G1 F1200 X140 Y102.757 E93.23169
G0 F3600 X138 Y102.757
G1 F1200 X138 Y157.243 E95.95001
G0 F3600 X136 Y157.243
G1 F1200 X136 Y102.757 E98.66833
G0 F3600 X134 Y102.757
G1 F1200 X134 Y157.243 E101.38664
G0 F3600 X132 Y157.243
G1 F1200 X132 Y102.757 E104.10496
G0 F3600 X130 Y102.757
G1 F1200 X130 Y157.243 E106.82328
G0 F3600 X128 Y157.243
G1 F1200 X128 Y102.757 E109.5416
G0 F3600 X126 Y102.757
G1 F1200 X126 Y157.243 E112.25991
G0 F3600 X124 Y157.243
G1 F1200 X124 Y102.757 E114.97823
G0 F3600 X122 Y102.757
G1 F1200 X122 Y157.243 E117.69655
G0 F3600 X120 Y157.243
G1 F1200 X120 Y102.757 E120.41487
G0 F3600 X118 Y102.757
G1 F1200 X118 Y157.243 E123.13318
G0 F3600 X116 Y157.243
G1 F1200 X116 Y102.757 E125.8515
G0 F3600 X114 Y102.757
G1 F1200 X114 Y157.243 E128.56982
G0 F3600 X112 Y157.243
G1 F1200 X112 Y102.757 E131.28814
G0 F3600 X110 Y102.757
G1 F1200 X110 Y157.243 E134.00646
G0 F3600 X108 Y157.243
G1 F1200 X108 Y102.757 E136.72477
G0 F3600 X106 Y102.757
G1 F1200 X106 Y157.243 E139.44309
G0 F3600 X104 Y157.243
G1 F1200 X104 Y102.757 E142.16141
G0 F3600 X102 Y102.757
G1 F1200 X102 Y157.243 E144.87973
G0 F3600 X98.294 Y154
G1 F1200 X178.907 Y154 E148.90152
G1 F3000 E145.90152
G0 F3600 X180 Y152.006
G1 F3000 E148.90152
G1 F1200 X180 Y150.695 E148.96693
G0 F3600 X179.829 Y150
G1 F1200 X98.294 Y150 E153.03473
G0 F3600 X98.294 Y148
G1 F1200 X182.056 Y148 E157.21363
G0 F3600 X182 Y147.746
G1 F1200 X182 Y148.576 E157.25504
G0 F3600 X180 Y149.74
G1 F1200 X180 Y107.986 E159.33816
G0 F3600 X180.031 Y108
G1 F1200 X98.295 Y108 E163.41598
G0 F3600 X98.295 Y106
G1 F1200 X178.89 Y106 E167.43688
G1 F3000 E164.43688
G0 F3600 X181.101 Y110
G1 F3000 E167.43688
G1 F1200 X98.295 Y110 E171.56809
G0 F3600 X98.295 Y112
G1 F1200 X182.062 Y112 E175.74724
G0 F3600 X182 Y112.283
G1 F1200 X182 Y111.389 E175.79184
G0 F3600 X181.895 Y114
G1 F1200 X98.295 Y114 E179.96267
G0 F3600 X98.295 Y116
G1 F1200 X181.895 Y116 E184.13349
G0 F3600 X181.895 Y118
G1 F1200 X98.295 Y118 E188.30431
G0 F3600 X98.294 Y120
G1 F1200 X181.895 Y120 E192.47518
G0 F3600 X181.895 Y122
G1 F1200 X98.294 Y122 E196.64605
G0 F3600 X98.294 Y124
G1 F1200 X181.895 Y124 E200.81692
G0 F3600 X181.895 Y126
G1 F1200 X98.294 Y126 E204.98779
G0 F3600 X98.294 Y128
G1 F1200 X181.895 Y128 E209.15866
G0 F3600 X181.895 Y130
G1 F1200 X98.294 Y130 E213.32953
G0 F3600 X98.294 Y132
G1 F1200 X181.895 Y132 E217.5004
G0 F3600 X181.895 Y134
G1 F1200 X98.294 Y134 E221.67127
G0 F3600 X98.294 Y136
G1 F1200 X181.895 Y136 E225.84214
G0 F3600 X181.895 Y138
G1 F1200 X98.294 Y138 E230.01302
G0 F3600 X98.294 Y140
G1 F1200 X181.895 Y140 E234.18389
G0 F3600 X181.895 Y142
G1 F1200 X98.294 Y142 E238.35476
G0 F3600 X98.294 Y144
G1 F1200 X181.895 Y144 E242.52563
G0 F3600 X181.895 Y146
G1 F1200 X98.294 Y146 E246.6965
G0 F3600 X98.294 Y152
G1 F1200 X180.008 Y152 E250.77323
G1 F3000 E247.77323
;MESH:dispenser_pi_mount.stl
G0 F3600 X180.402 Y153.347
G0 X181.305 Y154.084
;TYPE:WALL-INNER
G1 F3000 E250.77323
G1 F1200 X180.887 Y154.081 E250.79408
G1 X180.886 Y153.928 E250.80171
G1 X181.296 Y153.928 E250.8097
G1 X181.305 Y154.084 E250.81749
G0 F3600 X181.661 Y154.485
G1 F1200 X181.389 Y154.485 E250.83106
G1 X180.556 Y154.478 E250.87262
G1 X180.487 Y154.248 E250.8846
G1 X180.486 Y153.802 E250.90685
G1 X180.549 Y153.531 E250.92073
G1 X181.062 Y153.526 E250.94633
G1 X181.661 Y153.53 E250.97621
G1 X181.71 Y154.061 E251.00282
G1 X181.661 Y154.485 E251.02411
G0 F3600 X181.912 Y154.885
;TYPE:WALL-OUTER
G1 F1200 X181.386 Y154.885 E251.05035
G1 X180.413 Y154.877 E251.0989
G1 X180.309 Y154.827 E251.10466
G1 X180.167 Y154.618 E251.11726
G1 X180.087 Y154.297 E251.13377
G1 X180.086 Y153.762 E251.16046
G1 X180.159 Y153.418 E251.178
G1 X180.251 Y153.229 E251.18849
G1 X180.39 Y153.133 E251.19692
G1 X181.06 Y153.126 E251.23035
G1 X181.902 Y153.131 E251.27235
G1 X181.965 Y153.172 E251.2761
G1 X182.086 Y153.541 E251.29548
G1 X182.111 Y154.064 E251.3216
G1 X182.069 Y154.527 E251.3448
G1 X181.961 Y154.84 E251.36131
G1 X181.912 Y154.885 E251.36463
G0 F3600 X181.635 Y154.436
G0 X181.468 Y154.285
G1 F3000 E248.36463
G0 F3600 X181.062 Y153.346
G0 X181.051 Y152.262
G0 X181.06 Y107.74
G0 X181.05 Y106.456
G0 X181.305 Y105.913
;TYPE:WALL-INNER
G1 F3000 E251.36463
G1 F1200 X181.305 Y106.074 E251.37267
G1 X180.892 Y106.074 E251.39327
G1 X180.892 Y105.915 E251.4012
G1 X181.305 Y105.913 E251.40944
G0 F3600 X181.658 Y105.514
G1 F1200 X181.706 Y105.775 E251.42268
G1 X181.706 Y105.842 E251.42602
G1 X181.704 Y106.195 E251.44363
G1 X181.658 Y106.471 E251.45759
G1 X181.05 Y106.476 E251.48793
G1 X180.555 Y106.471 E251.51262
G1 X180.472 Y105.997 E251.53663
G1 X180.552 Y105.517 E251.56091
G1 X181.326 Y105.513 E251.59953
G1 X181.591 Y105.514 E251.61275
G1 X181.658 Y105.514 E251.61609
G0 F3600 X181.918 Y105.115
;TYPE:WALL-OUTER
G1 F1200 X182.022 Y105.286 E251.62607
G1 X182.106 Y105.742 E251.64921
G1 X182.104 Y106.226 E251.67335
G1 X182.02 Y106.725 E251.6986
G1 X181.975 Y106.821 E251.70389
G1 X181.902 Y106.869 E251.70825
G1 X181.049 Y106.876 E251.75081
G1 X180.385 Y106.869 E251.78393
G1 X180.264 Y106.798 E251.79093
G1 X180.126 Y106.493 E251.80764
G1 X180.07 Y105.997 E251.83254
G1 X180.125 Y105.508 E251.85709
G1 X180.233 Y105.239 E251.87155
G1 X180.404 Y105.118 E251.882
G1 X181.325 Y105.113 E251.92795
G1 X181.918 Y105.115 E251.95754
G0 F3600 X181.306 Y105.82
G1 F3000 E248.95754
;MESH:NONMESH
G0 F600 X181.306 Y105.82 Z0.4
G0 F3600 X180.492 Y105.997
G0 X179.216 Y105.853
G0 X100 Y102.745
;TIME_ELAPSED:272.456546
;LAYER:1
M106 S255
;TYPE:SUPPORT
G1 F3000 E251.95754
G1 F1800 X99.535 Y102.901 E251.96569
G1 X99.058 Y103.213 E251.97517
G1 X98.728 Y103.546 E251.98297
G1 X98.717 Y103.557 E251.98323
G1 X98.46 Y103.974 E251.99137
G1 X98.44 Y104.011 E251.99207
G1 X98.282 Y104.452 E251.99986
G1 X98.277 Y104.475 E252.00025
G1 X98.215 Y105.002 E252.00908
G1 X98.214 Y155.002 E252.84058
G1 X98.273 Y155.509 E252.84907
G1 X98.442 Y155.991 E252.85756
G1 X98.46 Y156.035 E252.85835
G1 X98.727 Y156.458 E252.86667
G1 X99.063 Y156.802 E252.87467
G1 X99.531 Y157.094 E252.88384
G1 X100 Y157.261 E252.89212
G1 X100 Y102.745 E253.79873
G0 F5400 X100.001 Y102.745
G1 F1800 X100.564 Y102.676 E253.80816
G1 X102 Y102.677 E253.83204
G1 X102 Y157.323 E254.74081
G1 X104 Y157.323 E254.77407
G1 X104 Y102.677 E255.68283
G1 X106 Y102.677 E255.71609
G1 X106 Y157.323 E256.62486
G1 X108 Y157.323 E256.65812
G1 X108 Y102.677 E257.56689
G1 X110 Y102.677 E257.60015
G1 X110 Y157.323 E258.50891
G1 X112 Y157.323 E258.54217
G1 X112 Y102.677 E259.45094
G1 X114 Y102.677 E259.4842
G1 X114 Y157.323 E260.39297
G1 X116 Y157.323 E260.42623
G1 X116 Y102.677 E261.33499
G1 X118 Y102.677 E261.36825
G1 X118 Y157.323 E262.27702
G1 X120 Y157.323 E262.31028
G1 X120 Y102.677 E263.21905
G1 X122 Y102.677 E263.25231
G1 X122 Y157.323 E264.16108
G1 X124 Y157.323 E264.19434
G1 X124 Y102.677 E265.1031
G1 X126 Y102.677 E265.13636
G1 X126 Y157.323 E266.04513
G1 X128 Y157.323 E266.07839
G1 X128 Y102.677 E266.98716
G1 X130 Y102.677 E267.02042
G1 X130 Y157.323 E267.92918
G1 X132 Y157.323 E267.96244
G1 X132 Y102.677 E268.87121
G1 X134 Y102.677 E268.90447
G1 X134 Y157.323 E269.81324
G1 X136 Y157.323 E269.8465
G1 X136 Y102.677 E270.75526
G1 X138 Y102.677 E270.78852
G1 X138 Y157.323 E271.69729
G1 X140 Y157.323 E271.73055
G1 X140 Y102.677 E272.63932
G1 X142 Y102.677 E272.67258
G1 X142 Y157.323 E273.58134
G1 X144 Y157.323 E273.6146
G1 X144 Y102.677 E274.52337
G1 X146 Y102.677 E274.55663
G1 X146 Y157.323 E275.4654
G1 X148 Y157.323 E275.49866
G1 X148 Y102.677 E276.40742
G1 X150 Y102.677 E276.44068
G1 X150 Y157.323 E277.34945
G1 X152 Y157.323 E277.38271
G1 X152 Y102.677 E278.29148
G1 X154 Y102.677 E278.32474
G1 X154 Y157.323 E279.2335
G1 X156 Y157.323 E279.26676
G1 X156 Y102.677 E280.17553
G1 X158 Y102.677 E280.20879
G1 X158 Y157.323 E281.11756
G1 X160 Y157.323 E281.15082
G1 X160 Y102.677 E282.05958
G1 X162 Y102.677 E282.09284
G1 X162 Y157.323 E283.00161
G1 X164 Y157.323 E283.03487
G1 X164 Y102.677 E283.94364
G1 X166 Y102.677 E283.9769
G1 X166 Y157.323 E284.88566
G1 X168 Y157.323 E284.91893
G1 X168 Y102.677 E285.82769
G1 X170 Y102.677 E285.86095
G1 X170 Y157.323 E286.76972
G1 X172 Y157.323 E286.80298
G1 X172 Y102.677 E287.71175
G1 X173.48 Y102.677 E287.73636
G1 X174 Y102.633 E287.74504
G1 X174 Y157.363 E288.6552
G1 X175.469 Y157.608 E288.67997
G1 X176 Y157.608 E288.6888
G1 X176 Y102.36 E289.60758
G1 X176.55 Y102.68 E289.61816
G1 X176.506 Y102.796 E289.62022
G1 X176.653 Y103.305 E289.62903
G1 X178 Y104.322 E289.6571
G1 X178 Y155.67 E290.51102
G1 X178.864 Y155.187 E290.52748
G1 X179.389 Y155.25 E290.53627
G1 X179.457 Y155.314 E290.53783
G1 X179.375 Y155.128 E290.54121
G1 X179.247 Y154.391 E290.55365
G1 X179.246 Y153.566 E290.56737
G1 X179.348 Y152.984 E290.57719
G1 X179.542 Y152.489 E290.58604
G1 X179.89 Y152.098 E290.59474
G1 X179.994 Y152.065 E290.59656
