;FLAVOR:Marlin
;TIME:11509
;Filament used: 14.8582m
;Layer height: 0.3
;MINX:22.522
;MINY:12.519
;MINZ:0.3
;MAXX:257.482
;MAXY:247.483
;MAXZ:9.9
;Generated with Cura_SteamEngine 4.8.0
M140 S60
M105
M190 S60
M104 S200
M105
M109 S200
M82 ;absolute extrusion mode
M201 X500.00 Y500.00 Z100.00 E5000.00 ;Setup machine max acceleration
M203 X500.00 Y500.00 Z10.00 E50.00 ;Setup machine max feedrate
M204 P500.00 R1000.00 T500.00 ;Setup Print/Retract/Travel acceleration
M205 X8.00 Y8.00 Z0.40 E5.00 ;Setup Jerk
M220 S100 ;Reset Feedrate
M221 S100 ;Reset Flowrate

G28 ;Home

G92 E0 ;Reset Extruder
G1 Z2.0 F3000 ;Move Z Axis up
G1 X10.1 Y20 Z0.28 F5000.0 ;Move to start position
G1 X10.1 Y200.0 Z0.28 F1500.0 E15 ;Draw the first line
G1 X10.4 Y200.0 Z0.28 F5000.0 ;Move to side a little
G1 X10.4 Y20 Z0.28 F1500.0 E30 ;Draw the second line
G92 E0 ;Reset Extruder
G1 Z2.0 F3000 ;Move Z Axis up

G92 E0
G92 E0
G1 F3000 E-3
;LAYER_COUNT:33
;LAYER:0
M107
G0 F3600 X55.602 Y48.276 Z0.3
;TYPE:SKIRT
G1 F3000 E0
G1 F1500 X56.098 Y47.755 E0.03589
G1 X56.749 Y47.112 E0.08154
G1 X60.61 Y43.403 E0.34864
G1 X61.174 Y42.877 E0.38712
G1 X61.8 Y42.327 E0.42869
G1 X65.922 Y38.816 E0.69883
G1 X66.476 Y38.359 E0.73466
G1 X67.222 Y37.778 E0.78183
G1 X71.467 Y34.577 E1.04708
G1 X72.089 Y34.123 E1.0855
G1 X72.816 Y33.624 E1.12949
G1 X77.284 Y30.656 E1.3971
G1 X77.932 Y30.239 E1.43554
G1 X78.664 Y29.799 E1.47815
G1 X83.324 Y27.088 E1.74712
G1 X83.97 Y26.727 E1.78404
G1 X84.76 Y26.313 E1.82854
G1 X89.588 Y23.879 E2.09829
G1 X90.229 Y23.568 E2.13383
G1 X91.013 Y23.215 E2.17673
G1 X96.006 Y21.06 E2.44804
G1 X96.558 Y20.831 E2.47786
G1 X97.486 Y20.477 E2.52741
G1 X102.553 Y18.639 E2.79632
G1 X103.219 Y18.41 E2.83146
G1 X104.141 Y18.121 E2.87966
G1 X109.233 Y16.612 E3.14462
G1 X109.961 Y16.409 E3.18233
G1 X110.851 Y16.187 E3.22809
G1 X116.063 Y14.974 E3.49507
G1 X116.66 Y14.844 E3.52555
G1 X117.675 Y14.654 E3.57707
G1 X122.956 Y13.753 E3.84435
G1 X123.692 Y13.64 E3.8815
G1 X124.583 Y13.528 E3.9263
G1 X129.888 Y12.945 E4.19256
G1 X130.55 Y12.882 E4.22574
G1 X131.594 Y12.813 E4.27793
G1 X136.923 Y12.548 E4.54413
G1 X137.55 Y12.525 E4.57543
G1 X138.487 Y12.519 E4.62218
G1 X143.931 Y12.573 E4.89379
G1 X144.568 Y12.588 E4.92558
G1 X145.474 Y12.636 E4.97085
G1 X150.923 Y13.016 E5.24336
G1 X151.647 Y13.077 E5.27961
G1 X152.517 Y13.177 E5.3233
G1 X157.905 Y13.877 E5.59437
G1 X158.578 Y13.976 E5.6283
G1 X159.483 Y14.135 E5.67414
G1 X164.75 Y15.142 E5.94168
G1 X165.471 Y15.292 E5.97842
G1 X166.357 Y15.501 E6.02383
G1 X171.537 Y16.817 E6.29047
G1 X172.193 Y16.994 E6.32437
G1 X173.107 Y17.269 E6.37199
G1 X178.236 Y18.901 E6.64052
G1 X178.946 Y19.14 E6.67789
G1 X179.785 Y19.448 E6.72248
G1 X184.814 Y21.385 E6.99135
G1 X185.472 Y21.651 E7.02676
G1 X186.316 Y22.022 E7.07275
G1 X191.202 Y24.247 E7.3406
G1 X191.855 Y24.558 E7.37669
G1 X192.648 Y24.961 E7.42107
G1 X197.449 Y27.506 E7.69216
G1 X198.037 Y27.829 E7.72563
G1 X198.814 Y28.286 E7.7706
G1 X203.457 Y31.112 E8.04178
G1 X203.924 Y31.405 E8.06928
G1 X204.751 Y31.957 E8.11889
G1 X209.234 Y35.068 E8.39112
G1 X209.763 Y35.447 E8.42359
G1 X210.53 Y36.031 E8.47169
G1 X214.75 Y39.347 E8.73944
G1 X215.289 Y39.784 E8.77406
G1 X215.986 Y40.384 E8.81995
G1 X219.983 Y43.929 E9.08649
G1 X220.53 Y44.43 E9.12349
G1 X221.213 Y45.091 E9.17091
G1 X224.964 Y48.843 E9.4356
G1 X225.501 Y49.398 E9.47413
G1 X226.123 Y50.075 E9.52
G1 X229.658 Y54.061 E9.7858
G1 X230.155 Y54.64 E9.82387
G1 X230.725 Y55.343 E9.86902
G1 X234.038 Y59.555 E10.13637
G1 X234.426 Y60.064 E10.1683
G1 X235.009 Y60.875 E10.21813
G1 X238.085 Y65.31 E10.48741
G1 X238.474 Y65.89 E10.52225
G1 X238.957 Y66.657 E10.56747
G1 X241.727 Y71.207 E10.83323
G1 X242.085 Y71.814 E10.86839
G1 X242.537 Y72.634 E10.9151
G1 X245.066 Y77.405 E11.1845
G1 X245.396 Y78.051 E11.22069
G1 X245.809 Y78.921 E11.26874
G1 X248.013 Y83.756 E11.53383
G1 X248.279 Y84.364 E11.56694
G1 X248.632 Y85.238 E11.61397
G1 X250.59 Y90.311 E11.88526
G1 X250.828 Y90.962 E11.91984
G1 X251.131 Y91.864 E11.96731
G1 X252.741 Y96.92 E12.23204
G1 X252.968 Y97.674 E12.27132
G1 X253.196 Y98.514 E12.31475
G1 X254.515 Y103.713 E12.58234
G1 X254.692 Y104.455 E12.6204
G1 X254.871 Y105.319 E12.66442
G1 X255.884 Y110.614 E12.93338
G1 X255.994 Y111.239 E12.96504
G1 X256.135 Y112.198 E13.0134
G1 X256.829 Y117.536 E13.28196
G1 X256.916 Y118.294 E13.32002
G1 X256.988 Y119.138 E13.36228
G1 X257.365 Y124.52 E13.63145
G1 X257.405 Y125.264 E13.66862
G1 X257.428 Y126.17 E13.71384
G1 X257.482 Y131.568 E13.98316
G1 X257.48 Y132.151 E14.01224
G1 X257.448 Y133.126 E14.06091
G1 X257.178 Y138.581 E14.3334
G1 X257.134 Y139.25 E14.36684
G1 X257.049 Y140.152 E14.41204
G1 X256.458 Y145.548 E14.68286
G1 X256.375 Y146.208 E14.71605
G1 X256.234 Y147.122 E14.76219
G1 X255.328 Y152.435 E15.03108
G1 X255.198 Y153.132 E15.06645
G1 X255.009 Y154.009 E15.11121
G1 X253.782 Y159.282 E15.38131
G1 X253.616 Y159.949 E15.4156
G1 X253.366 Y160.836 E15.46158
G1 X251.85 Y165.958 E15.72808
G1 X251.646 Y166.612 E15.76225
G1 X251.338 Y167.509 E15.80957
G1 X249.495 Y172.594 E16.07941
G1 X249.242 Y173.259 E16.11491
G1 X248.892 Y174.103 E16.16049
G1 X246.758 Y179.049 E16.42924
G1 X246.463 Y179.704 E16.46508
G1 X246.077 Y180.498 E16.50912
G1 X243.638 Y185.336 E16.77943
G1 X243.322 Y185.938 E16.81335
G1 X242.86 Y186.763 E16.86052
G1 X240.199 Y191.339 E17.12461
G1 X239.828 Y191.958 E17.16062
G1 X239.338 Y192.723 E17.20594
G1 X236.329 Y197.254 E17.4773
G1 X235.917 Y197.853 E17.51357
G1 X235.388 Y198.578 E17.55835
G1 X232.142 Y202.885 E17.82742
G1 X231.72 Y203.427 E17.86169
G1 X231.102 Y204.176 E17.91013
G1 X227.65 Y208.226 E18.17562
G1 X227.156 Y208.789 E18.21299
G1 X226.56 Y209.429 E18.25662
G1 X222.814 Y213.329 E18.52641
G1 X222.388 Y213.761 E18.55668
G1 X221.674 Y214.441 E18.60587
G1 X217.732 Y218.085 E18.87369
G1 X217.159 Y218.599 E18.9121
G1 X216.466 Y219.184 E18.95734
G1 X212.341 Y222.564 E19.2234
G1 X211.737 Y223.043 E19.26186
G1 X211.028 Y223.573 E19.30603
G1 X206.686 Y226.716 E19.57345
G1 X206.155 Y227.089 E19.60582
G1 X205.288 Y227.661 E19.65764
G1 X200.77 Y230.538 E19.92487
G1 X200.151 Y230.919 E19.96113
G1 X199.42 Y231.338 E20.00316
G1 X194.675 Y233.978 E20.27407
G1 X194.032 Y234.322 E20.31045
G1 X193.27 Y234.702 E20.35293
G1 X188.331 Y237.074 E20.62628
G1 X187.737 Y237.347 E20.6589
G1 X186.921 Y237.695 E20.70315
G1 X181.93 Y239.736 E20.97217
G1 X181.242 Y240.005 E21.00903
G1 X180.393 Y240.31 E21.05403
G1 X175.323 Y242.038 E21.32127
G1 X174.716 Y242.235 E21.3531
G1 X173.693 Y242.535 E21.40629
G1 X168.557 Y243.949 E21.67206
G1 X167.84 Y244.134 E21.709
G1 X167.026 Y244.319 E21.75065
G1 X161.681 Y245.455 E22.02327
G1 X161.118 Y245.566 E22.0519
G1 X160.11 Y245.735 E22.10289
G1 X154.775 Y246.539 E22.37206
G1 X154.077 Y246.632 E22.40719
G1 X153.197 Y246.725 E22.45134
G1 X147.813 Y247.211 E22.72104
G1 X147.111 Y247.263 E22.75616
G1 X146.188 Y247.305 E22.80225
G1 X140.833 Y247.467 E23.06954
G1 X139.883 Y247.483 E23.11694
G1 X139.413 Y247.475 E23.14039
G1 X133.899 Y247.311 E23.41561
G1 X133.101 Y247.274 E23.45546
G1 X132.306 Y247.216 E23.49523
G1 X127.043 Y246.753 E23.75882
G1 X126.347 Y246.68 E23.79373
G1 X125.455 Y246.563 E23.83862
G1 X120.282 Y245.803 E24.09947
G1 X119.565 Y245.685 E24.13572
G1 X118.731 Y245.525 E24.17809
G1 X113.622 Y244.468 E24.43837
G1 X112.868 Y244.3 E24.47691
G1 X112.034 Y244.088 E24.51985
G1 X107 Y242.737 E24.77988
G1 X106.251 Y242.523 E24.81874
G1 X105.508 Y242.289 E24.85761
G1 X100.498 Y240.626 E25.12097
G1 X99.774 Y240.373 E25.15923
G1 X99.006 Y240.08 E25.20024
G1 X94.138 Y238.143 E25.46162
G1 X93.436 Y237.851 E25.49956
G1 X92.686 Y237.515 E25.54056
G1 X87.923 Y235.291 E25.80281
G1 X87.245 Y234.962 E25.84041
G1 X86.509 Y234.579 E25.8818
G1 X81.897 Y232.09 E26.14327
G1 X81.292 Y231.752 E26.17784
G1 X80.529 Y231.298 E26.22214
G1 X76.068 Y228.544 E26.48369
G1 X75.408 Y228.122 E26.52277
G1 X74.747 Y227.673 E26.56264
G1 X70.434 Y224.651 E26.82538
G1 X69.844 Y224.223 E26.86174
G1 X69.131 Y223.677 E26.90655
G1 X65.056 Y220.452 E27.16581
G1 X64.476 Y219.979 E27.20315
G1 X63.812 Y219.404 E27.24698
G1 X59.96 Y215.974 E27.5043
G1 X59.414 Y215.475 E27.5412
G1 X58.788 Y214.868 E27.5847
G1 X55.026 Y211.104 E27.8502
G1 X54.547 Y210.608 E27.8846
G1 X53.987 Y209.998 E27.92592
G1 X50.455 Y206.027 E28.19106
G1 X50.01 Y205.51 E28.22509
G1 X49.468 Y204.846 E28.26785
G1 X46.22 Y200.736 E28.5292
G1 X45.814 Y200.208 E28.56243
G1 X45.278 Y199.468 E28.60802
G1 X42.269 Y195.168 E28.86985
G1 X41.848 Y194.547 E28.90728
G1 X41.377 Y193.807 E28.95105
G1 X38.642 Y189.371 E29.21104
G1 X38.239 Y188.691 E29.25048
G1 X37.863 Y188.016 E29.28903
G1 X35.36 Y183.375 E29.55209
G1 X35.014 Y182.708 E29.58958
G1 X34.65 Y181.955 E29.63131
G1 X32.463 Y177.265 E29.88948
G1 X32.114 Y176.485 E29.93211
G1 X31.815 Y175.763 E29.9711
G1 X29.861 Y170.844 E30.23516
G1 X29.613 Y170.188 E30.27015
G1 X29.328 Y169.37 E30.31337
G1 X27.676 Y164.383 E30.57547
G1 X27.487 Y163.786 E30.60671
G1 X27.229 Y162.878 E30.6538
G1 X25.88 Y157.845 E30.91376
G1 X25.693 Y157.097 E30.95223
G1 X25.5 Y156.232 E30.99645
G1 X24.453 Y151.16 E31.25482
G1 X24.306 Y150.385 E31.29418
G1 X24.175 Y149.571 E31.33531
G1 X23.416 Y144.395 E31.5963
G1 X23.33 Y143.742 E31.62916
G1 X23.227 Y142.749 E31.67897
G1 X22.779 Y137.625 E31.93558
G1 X22.722 Y136.837 E31.975
G1 X22.683 Y135.942 E32.01969
G1 X22.531 Y130.746 E32.27903
G1 X22.522 Y130.025 E32.31501
G1 X22.535 Y129.144 E32.35897
G1 X22.698 Y123.727 E32.62934
G1 X22.726 Y123.075 E32.6619
G1 X22.795 Y122.128 E32.70927
G1 X23.282 Y116.717 E32.98032
G1 X23.348 Y116.085 E33.01202
G1 X23.478 Y115.118 E33.0607
G1 X24.276 Y109.81 E33.32849
G1 X24.397 Y109.086 E33.36511
G1 X24.577 Y108.169 E33.41174
G1 X25.69 Y102.922 E33.67934
G1 X25.822 Y102.336 E33.7093
G1 X26.07 Y101.376 E33.75877
G1 X27.513 Y96.135 E34.02997
G1 X27.706 Y95.477 E34.06419
G1 X27.991 Y94.595 E34.11043
G1 X29.729 Y89.495 E34.37924
G1 X29.965 Y88.838 E34.41407
G1 X30.292 Y88.001 E34.4589
G1 X32.329 Y83.018 E34.72747
G1 X32.621 Y82.335 E34.76453
G1 X32.985 Y81.546 E34.80788
G1 X35.327 Y76.668 E35.07784
G1 X35.646 Y76.031 E35.11338
G1 X36.063 Y75.253 E35.15742
G1 X38.686 Y70.532 E35.42686
G1 X39.049 Y69.903 E35.4631
G1 X39.509 Y69.155 E35.50691
G1 X42.391 Y64.628 E35.77464
G1 X42.746 Y64.086 E35.80697
G1 X43.34 Y63.236 E35.8587
G1 X46.5 Y58.873 E36.12747
G1 X46.917 Y58.315 E36.16222
G1 X47.46 Y57.631 E36.20579
G1 X50.862 Y53.477 E36.47367
G1 X51.304 Y52.953 E36.50787
G1 X51.954 Y52.225 E36.55656
G1 X55.602 Y48.276 E36.82477
G1 F3000 E33.82477
;MESH:dispenser_cover.stl
G0 F3600 X65.58 Y66.608
G0 X64.609 Y65.798
G0 X60.619 Y70.738
G0 X56.986 Y75.946
G0 X53.694 Y81.377
G0 X50.756 Y87.006
G0 X48.186 Y92.813
G0 X45.993 Y98.773
G0 X44.186 Y104.861
G0 X42.773 Y111.053
G0 X41.76 Y117.32
G0 X41.15 Y123.642
G0 X40.946 Y129.989
G0 X41.15 Y136.336
G0 X41.76 Y142.657
G0 X42.773 Y148.925
G0 X44.186 Y155.118
G0 X45.993 Y161.204
G0 X48.186 Y167.164
G0 X50.756 Y172.972
G0 X53.694 Y178.601
G0 X56.986 Y184.031
G0 X60.619 Y189.24
G0 X64.579 Y194.205
G0 X68.848 Y198.905
G0 X73.41 Y203.324
G0 X78.245 Y207.44
G0 X83.335 Y211.238
G0 X88.657 Y214.703
G0 X94.19 Y217.819
G0 X99.911 Y220.575
G0 X105.798 Y222.958
G0 X111.824 Y224.96
G0 X117.967 Y226.569
G0 X124.2 Y227.784
G0 X129.87 Y228.513
G0 X136.834 Y229.062
G0 X136.837 Y228.963
;TYPE:WALL-INNER
G1 F3000 E36.82477
G1 F1500 X143.185 Y228.963 E37.14148
G1 X149.519 Y228.556 E37.45813
G1 X155.816 Y227.745 E37.77489
G1 X162.047 Y226.531 E38.0916
G1 X168.187 Y224.922 E38.40827
G1 X174.211 Y222.921 E38.72495
G1 X180.095 Y220.539 E39.04165
G1 X185.814 Y217.784 E39.35835
G1 X191.345 Y214.669 E39.67505
G1 X196.665 Y211.206 E39.99174
G1 X201.753 Y207.409 E40.30847
G1 X206.586 Y203.295 E40.62512
G1 X211.146 Y198.878 E40.94185
G1 X215.413 Y194.18 E41.25848
G1 X219.371 Y189.217 E41.57518
G1 X223.003 Y184.01 E41.89191
G1 X226.294 Y178.582 E42.2086
G1 X229.23 Y172.955 E42.52525
G1 X231.799 Y167.149 E42.842
G1 X233.992 Y161.192 E43.1587
G1 X235.798 Y155.108 E43.47532
G1 X237.21 Y148.918 E43.79207
G1 X238.223 Y142.652 E44.10875
G1 X238.833 Y136.334 E44.42542
G1 X239.036 Y129.989 E44.74213
G1 X238.833 Y123.644 E45.05885
G1 X238.223 Y117.325 E45.37557
G1 X237.21 Y111.06 E45.69219
G1 X235.798 Y104.871 E46.0089
G1 X233.992 Y98.785 E46.32561
G1 X231.799 Y92.828 E46.64231
G1 X229.23 Y87.023 E46.95902
G1 X226.294 Y81.396 E47.27566
G1 X223.003 Y75.967 E47.5924
G1 X219.371 Y70.761 E47.90909
G1 X215.413 Y65.798 E48.22579
G1 X211.146 Y61.099 E48.54246
G1 X206.586 Y56.683 E48.85915
G1 X201.753 Y52.568 E49.17583
G1 X196.665 Y48.771 E49.49256
G1 X191.345 Y45.308 E49.80926
G1 X185.814 Y42.193 E50.12595
G1 X180.095 Y39.439 E50.44263
G1 X174.211 Y37.056 E50.75935
G1 X168.187 Y35.056 E51.07602
G1 X162.047 Y33.446 E51.3927
G1 X155.816 Y32.232 E51.70941
G1 X149.519 Y31.422 E52.02616
G1 X143.185 Y31.014 E52.34282
G1 X136.837 Y31.014 E52.65952
G1 X130.503 Y31.422 E52.97618
G1 X124.206 Y32.232 E53.29293
G1 X117.975 Y33.446 E53.60964
G1 X111.835 Y35.056 E53.92632
G1 X105.811 Y37.056 E54.24299
G1 X99.927 Y39.439 E54.5597
G1 X94.208 Y42.193 E54.87639
G1 X88.677 Y45.308 E55.19308
G1 X83.357 Y48.771 E55.50977
G1 X78.269 Y52.568 E55.82651
G1 X73.436 Y56.683 E56.14319
G1 X68.876 Y61.099 E56.45988
G1 X64.609 Y65.798 E56.77655
G1 X60.651 Y70.761 E57.09325
G1 X57.019 Y75.967 E57.40994
G1 X53.728 Y81.396 E57.72667
G1 X50.792 Y87.023 E58.04332
G1 X48.223 Y92.828 E58.36003
G1 X46.03 Y98.785 E58.67672
G1 X44.224 Y104.871 E58.99344
G1 X42.812 Y111.06 E59.31015
G1 X41.799 Y117.325 E59.62677
G1 X41.189 Y123.644 E59.94349
G1 X40.986 Y129.989 E60.26021
G1 X41.189 Y136.334 E60.57692
G1 X41.799 Y142.652 E60.89359
G1 X42.812 Y148.918 E61.21026
G1 X44.224 Y155.108 E61.52702
G1 X46.03 Y161.192 E61.84364
G1 X48.223 Y167.149 E62.16033
G1 X50.792 Y172.955 E62.47709
G1 X53.728 Y178.582 E62.79373
G1 X57.019 Y184.01 E63.11042
G1 X60.651 Y189.217 E63.42716
G1 X64.609 Y194.18 E63.74386
G1 X68.876 Y198.878 E64.06049
G1 X73.436 Y203.295 E64.37722
G1 X78.269 Y207.409 E64.69386
G1 X83.357 Y211.206 E65.0106
G1 X88.677 Y214.669 E65.32729
G1 X94.208 Y217.784 E65.64399
G1 X99.927 Y220.539 E65.96069
G1 X105.811 Y222.921 E66.27739
G1 X111.835 Y224.922 E66.59407
G1 X117.975 Y226.531 E66.91074
G1 X124.206 Y227.745 E67.22745
G1 X130.503 Y228.556 E67.5442
G1 X136.837 Y228.963 E67.86086
G0 F3600 X136.85 Y228.563
;TYPE:WALL-OUTER
G1 F1500 X143.172 Y228.563 E68.17627
G1 X149.481 Y228.158 E68.49167
G1 X155.752 Y227.35 E68.80712
G1 X161.958 Y226.141 E69.12256
G1 X168.073 Y224.538 E69.43795
G1 X174.073 Y222.545 E69.75337
G1 X179.933 Y220.173 E70.06877
G1 X185.629 Y217.429 E70.3842
G1 X191.138 Y214.327 E70.69962
G1 X196.436 Y210.878 E71.01501
G1 X201.503 Y207.096 E71.33046
G1 X206.317 Y202.999 E71.64583
G1 X210.859 Y198.6 E71.96129
G1 X215.108 Y193.921 E72.27662
G1 X219.05 Y188.978 E72.59204
G1 X222.668 Y183.792 E72.90751
G1 X225.945 Y178.386 E73.2229
G1 X228.869 Y172.781 E73.5383
G1 X231.428 Y166.999 E73.85376
G1 X233.612 Y161.066 E74.16917
G1 X235.411 Y155.006 E74.48455
G1 X236.817 Y148.842 E74.79997
G1 X237.826 Y142.601 E75.11538
G1 X238.434 Y136.308 E75.4308
G1 X238.636 Y129.989 E75.74622
G1 X238.434 Y123.67 E76.06163
G1 X237.826 Y117.376 E76.3771
G1 X236.817 Y111.136 E76.69246
G1 X235.411 Y104.972 E77.00788
G1 X233.612 Y98.911 E77.32331
G1 X231.428 Y92.978 E77.63872
G1 X228.869 Y87.197 E77.95413
G1 X225.945 Y81.592 E78.26953
G1 X222.668 Y76.185 E78.58496
G1 X219.05 Y71 E78.9004
G1 X215.108 Y66.057 E79.21582
G1 X210.859 Y61.377 E79.53118
G1 X206.317 Y56.979 E79.84661
G1 X201.503 Y52.881 E80.16201
G1 X196.436 Y49.099 E80.47746
G1 X191.138 Y45.65 E80.79285
G1 X185.629 Y42.548 E81.10827
G1 X179.933 Y39.805 E81.42368
G1 X174.073 Y37.432 E81.7391
G1 X168.073 Y35.44 E82.05451
G1 X161.958 Y33.836 E82.36991
G1 X155.752 Y32.627 E82.68535
G1 X149.481 Y31.82 E83.00079
G1 X143.172 Y31.414 E83.3162
G1 X136.85 Y31.414 E83.6316
G1 X130.541 Y31.82 E83.94701
G1 X124.27 Y32.627 E84.26245
G1 X118.064 Y33.836 E84.57789
G1 X111.949 Y35.44 E84.89329
G1 X105.949 Y37.432 E85.2087
G1 X100.089 Y39.805 E85.52412
G1 X94.393 Y42.548 E85.83952
G1 X88.884 Y45.65 E86.15495
