;FLAVOR:Marlin
;TIME:20122
;Filament used: 14.6572m
;Layer height: 0.15
;MINX:21.792
;MINY:11.855
;MINZ:0.3
;MAXX:256.755
;MAXY:246.815
;MAXZ:10.05
;Generated with Cura_SteamEngine 4.8.0
M140 S60
M105
M190 S60
M104 S200
M105
M109 S200
M82 ;absolute extrusion mode
M201 X500.00 Y500.00 Z100.00 E5000.00 ;Setup machine max acceleration
M203 X500.00 Y500.00 Z10.00 E50.00 ;Setup machine max feedrate
M204 P500.00 R1000.00 T500.00 ;Setup Print/Retract/Travel acceleration
M205 X8.00 Y8.00 Z0.40 E5.00 ;Setup Jerk
M220 S100 ;Reset Feedrate
M221 S100 ;Reset Flowrate

G28 ;Home

G92 E0 ;Reset Extruder
G1 Z2.0 F3000 ;Move Z Axis up
G1 X10.1 Y20 Z0.28 F5000.0 ;Move to start position
G1 X10.1 Y200.0 Z0.28 F1500.0 E15 ;Draw the first line
G1 X10.4 Y200.0 Z0.28 F5000.0 ;Move to side a little
G1 X10.4 Y20 Z0.28 F1500.0 E30 ;Draw the second line
G92 E0 ;Reset Extruder
G1 Z2.0 F3000 ;Move Z Axis up

G92 E0
G92 E0
G1 F3000 E-3
;LAYER_COUNT:66
;LAYER:0
M107
G0 F3600 X53.701 Y48.809 Z0.3
;TYPE:SKIRT
G1 F3000 E0
G1 F1500 X54.379 Y48.111 E0.04855
G1 X58.117 Y44.372 E0.31232
G1 X58.667 Y43.84 E0.35049
G1 X59.361 Y43.204 E0.39746
G1 X63.348 Y39.664 E0.66346
G1 X63.911 Y39.182 E0.70044
G1 X64.607 Y38.617 E0.74516
G1 X68.834 Y35.295 E1.01338
G1 X69.412 Y34.855 E1.04962
G1 X70.149 Y34.328 E1.09482
G1 X74.584 Y31.252 E1.3641
G1 X75.16 Y30.865 E1.39872
G1 X75.933 Y30.378 E1.4443
G1 X80.49 Y27.603 E1.71048
G1 X81.077 Y27.257 E1.74448
G1 X81.918 Y26.793 E1.7924
G1 X86.678 Y24.27 E2.06117
G1 X87.241 Y23.982 E2.09272
G1 X88.193 Y23.528 E2.14534
G1 X93.027 Y21.325 E2.41037
G1 X93.719 Y21.023 E2.44804
G1 X94.554 Y20.686 E2.49297
G1 X99.589 Y18.746 E2.76216
G1 X100.166 Y18.533 E2.79285
G1 X101.088 Y18.222 E2.8414
G1 X106.254 Y16.576 E3.11189
G1 X106.897 Y16.383 E3.14539
G1 X107.835 Y16.129 E3.19387
G1 X112.987 Y14.822 E3.45905
G1 X113.712 Y14.649 E3.49623
G1 X114.628 Y14.459 E3.5429
G1 X119.872 Y13.456 E3.80927
G1 X120.598 Y13.33 E3.84603
G1 X121.495 Y13.199 E3.89126
G1 X126.81 Y12.507 E4.15866
G1 X127.463 Y12.431 E4.19146
G1 X128.425 Y12.348 E4.23963
G1 X133.795 Y11.972 E4.5082
G1 X134.536 Y11.932 E4.54522
G1 X135.441 Y11.909 E4.59039
G1 X140.843 Y11.855 E4.85991
G1 X141.426 Y11.857 E4.889
G1 X142.396 Y11.889 E4.93741
G1 X147.84 Y12.158 E5.20935
G1 X148.442 Y12.196 E5.23944
G1 X149.358 Y12.281 E5.28534
G1 X154.805 Y12.877 E5.55871
G1 X155.498 Y12.964 E5.59356
G1 X156.376 Y13.1 E5.63788
G1 X161.706 Y14.009 E5.90764
G1 X162.409 Y14.14 E5.94331
G1 X163.28 Y14.329 E5.98778
G1 X168.564 Y15.556 E6.25841
G1 X169.137 Y15.699 E6.28788
G1 X170.088 Y15.964 E6.33713
G1 X175.23 Y17.487 E6.60468
G1 X175.976 Y17.721 E6.64369
G1 X176.779 Y17.998 E6.68607
G1 X181.866 Y19.842 E6.95602
G1 X182.531 Y20.095 E6.99151
G1 X183.376 Y20.445 E7.03714
G1 X188.318 Y22.578 E7.30569
G1 X188.975 Y22.873 E7.34162
G1 X189.771 Y23.26 E7.38577
G1 X194.57 Y25.68 E7.65392
G1 X195.234 Y26.027 E7.69129
G1 X196.022 Y26.47 E7.73639
G1 X200.661 Y29.168 E8.00413
G1 X201.196 Y29.488 E8.03523
G1 X202.05 Y30.035 E8.08583
G1 X206.526 Y33.008 E8.35391
G1 X207.125 Y33.42 E8.39018
G1 X207.85 Y33.949 E8.43496
G1 X212.157 Y37.195 E8.70402
G1 X212.701 Y37.619 E8.73843
G1 X213.448 Y38.236 E8.78677
G1 X217.498 Y41.687 E9.05223
G1 X218.062 Y42.182 E9.08967
G1 X218.693 Y42.771 E9.13273
G1 X222.604 Y46.525 E9.40319
G1 X223.036 Y46.952 E9.4335
G1 X223.734 Y47.684 E9.48396
G1 X227.356 Y51.604 E9.75023
G1 X227.869 Y52.176 E9.78856
G1 X228.456 Y52.871 E9.83395
G1 X231.835 Y56.994 E10.0999
G1 X232.315 Y57.6 E10.13847
G1 X232.842 Y58.305 E10.18238
G1 X235.99 Y62.654 E10.45023
G1 X236.429 Y63.282 E10.48846
G1 X236.895 Y63.988 E10.53066
G1 X239.835 Y68.605 E10.80374
G1 X240.174 Y69.158 E10.8361
G1 X240.622 Y69.934 E10.88081
G1 X243.251 Y74.663 E11.15075
G1 X243.546 Y75.213 E11.18188
G1 X243.983 Y76.085 E11.23054
G1 X246.347 Y81.007 E11.50296
G1 X246.618 Y81.597 E11.53535
G1 X246.968 Y82.416 E11.57979
G1 X249.006 Y87.403 E11.84856
G1 X249.278 Y88.097 E11.88575
G1 X249.581 Y88.942 E11.93054
G1 X251.311 Y94.016 E12.19799
G1 X251.519 Y94.659 E12.2317
G1 X251.784 Y95.563 E12.2787
G1 X253.222 Y100.781 E12.54873
G1 X253.38 Y101.386 E12.57993
G1 X253.587 Y102.285 E12.62595
G1 X254.728 Y107.661 E12.90014
G1 X254.842 Y108.235 E12.92934
G1 X254.993 Y109.14 E12.97511
G1 X255.81 Y114.558 E13.24847
G1 X255.906 Y115.268 E13.28422
G1 X255.996 Y116.12 E13.32696
G1 X256.485 Y121.538 E13.59836
G1 X256.53 Y122.122 E13.62758
G1 X256.575 Y123.085 E13.67568
G1 X256.739 Y128.481 E13.94501
G1 X256.755 Y129.471 E13.99441
G1 X256.754 Y129.616 E14.00164
G1 X256.583 Y135.468 E14.29373
G1 X256.549 Y136.204 E14.33049
G1 X256.487 Y137.059 E14.37325
G1 X256.022 Y142.319 E14.6367
G1 X255.95 Y143.017 E14.67171
G1 X255.845 Y143.814 E14.71181
G1 X255.075 Y149.052 E14.97595
G1 X254.957 Y149.777 E15.01259
G1 X254.798 Y150.604 E15.05461
G1 X253.743 Y155.7 E15.31424
G1 X253.57 Y156.48 E15.3541
G1 X253.366 Y157.286 E15.39558
G1 X252.02 Y162.298 E15.65449
G1 X251.821 Y163 E15.69089
G1 X251.551 Y163.858 E15.73577
G1 X249.899 Y168.836 E15.99744
G1 X249.681 Y169.465 E16.03065
G1 X249.353 Y170.33 E16.0768
G1 X247.415 Y175.202 E16.33839
G1 X247.154 Y175.83 E16.37232
G1 X246.794 Y176.636 E16.41636
G1 X244.562 Y181.42 E16.67974
G1 X244.277 Y182.009 E16.71238
G1 X243.861 Y182.811 E16.75746
G1 X241.335 Y187.491 E17.02278
G1 X241.044 Y188.012 E17.05255
G1 X240.574 Y188.802 E17.09841
G1 X237.818 Y193.264 E17.36006
G1 X237.385 Y193.942 E17.4002
G1 X236.966 Y194.56 E17.43745
G1 X233.923 Y198.903 E17.70202
G1 X233.477 Y199.518 E17.73992
G1 X232.993 Y200.151 E17.77967
G1 X229.727 Y204.279 E18.04228
G1 X229.265 Y204.844 E18.07869
G1 X228.68 Y205.522 E18.12337
G1 X225.199 Y209.43 E18.38447
G1 X224.714 Y209.958 E18.42024
G1 X224.119 Y210.57 E18.46283
G1 X220.38 Y214.307 E18.72656
G1 X219.884 Y214.787 E18.761
G1 X219.257 Y215.361 E18.80341
G1 X215.324 Y218.862 E19.0661
G1 X214.847 Y219.274 E19.09755
G1 X214.116 Y219.87 E19.1446
G1 X210.002 Y223.122 E19.40623
G1 X209.412 Y223.572 E19.44325
G1 X208.719 Y224.072 E19.48589
G1 X204.442 Y227.066 E19.74635
G1 X203.791 Y227.508 E19.78561
G1 X203.127 Y227.93 E19.82486
G1 X198.69 Y230.666 E20.08493
G1 X198.053 Y231.047 E20.12196
G1 X197.282 Y231.479 E20.16605
G1 X192.649 Y233.976 E20.42862
G1 X191.992 Y234.317 E20.46555
G1 X191.21 Y234.695 E20.50889
G1 X186.524 Y236.88 E20.76684
G1 X185.758 Y237.223 E20.80871
G1 X185.042 Y237.519 E20.84736
G1 X180.129 Y239.47 E21.11109
G1 X179.456 Y239.726 E21.14702
G1 X178.652 Y240.006 E21.18949
G1 X173.65 Y241.663 E21.45238
G1 X173.033 Y241.857 E21.48465
G1 X172.195 Y242.096 E21.52812
G1 X167.107 Y243.46 E21.79093
G1 X166.438 Y243.629 E21.82535
G1 X165.534 Y243.831 E21.87156
G1 X160.461 Y244.878 E22.12999
G1 X159.646 Y245.033 E22.17138
G1 X158.852 Y245.161 E22.2115
G1 X153.667 Y245.921 E22.47295
G1 X152.882 Y246.023 E22.51244
G1 X152.128 Y246.101 E22.55026
G1 X146.809 Y246.566 E22.81664
G1 X146.116 Y246.616 E22.8513
G1 X145.273 Y246.653 E22.8934
G1 X140.019 Y246.806 E23.15563
G1 X139.298 Y246.815 E23.19161
G1 X138.415 Y246.802 E23.23567
G1 X133.018 Y246.64 E23.50504
G1 X132.371 Y246.612 E23.53735
G1 X131.355 Y246.538 E23.58818
G1 X126.028 Y246.059 E23.85501
G1 X125.376 Y245.991 E23.88772
G1 X124.406 Y245.861 E23.93655
G1 X119.084 Y245.061 E24.20504
G1 X118.339 Y244.937 E24.24272
G1 X117.481 Y244.768 E24.28635
G1 X112.173 Y243.642 E24.55706
G1 X111.502 Y243.488 E24.59141
G1 X110.637 Y243.264 E24.63599
G1 X105.441 Y241.833 E24.90487
G1 X104.84 Y241.659 E24.93608
G1 X103.877 Y241.349 E24.98656
G1 X98.792 Y239.616 E25.25458
G1 X98.218 Y239.412 E25.28497
G1 X97.286 Y239.049 E25.33487
G1 X92.309 Y237.017 E25.60307
G1 X91.705 Y236.76 E25.63582
G1 X90.798 Y236.342 E25.68564
G1 X85.946 Y234.012 E25.95417
G1 X85.326 Y233.703 E25.98873
G1 X84.482 Y233.25 E26.03652
G1 X79.841 Y230.671 E26.30141
G1 X79.176 Y230.288 E26.3397
G1 X78.396 Y229.808 E26.38539
G1 X73.902 Y226.946 E26.6512
G1 X73.267 Y226.529 E26.6891
G1 X72.525 Y226.009 E26.73431
G1 X68.175 Y222.858 E27.00228
G1 X67.672 Y222.484 E27.03356
G1 X66.887 Y221.863 E27.08349
G1 X62.747 Y218.474 E27.35042
G1 X62.239 Y218.045 E27.38359
G1 X61.488 Y217.375 E27.4338
G1 X57.536 Y213.723 E27.70226
G1 X57.032 Y213.242 E27.73702
G1 X56.379 Y212.583 E27.7833
G1 X52.69 Y208.742 E28.049
G1 X52.236 Y208.257 E28.08214
G1 X51.587 Y207.521 E28.1311
G1 X48.057 Y203.377 E28.40268
G1 X47.626 Y202.856 E28.43642
G1 X47.082 Y202.156 E28.48065
G1 X43.848 Y197.868 E28.7486
G1 X43.451 Y197.326 E28.78212
G1 X42.925 Y196.563 E28.82835
G1 X39.929 Y192.052 E29.09852
G1 X39.517 Y191.412 E29.1365
G1 X39.07 Y190.669 E29.17975
G1 X36.349 Y185.989 E29.44984
G1 X35.993 Y185.355 E29.48611
G1 X35.602 Y184.608 E29.52818
G1 X33.135 Y179.718 E29.80143
G1 X32.901 Y179.237 E29.82811
G1 X32.484 Y178.315 E29.8786
G1 X30.334 Y173.335 E30.14922
G1 X30.106 Y172.788 E30.17878
G1 X29.743 Y171.833 E30.22975
G1 X27.924 Y166.817 E30.49595
G1 X27.667 Y166.072 E30.53527
G1 X27.413 Y165.262 E30.57762
G1 X25.883 Y160.103 E30.84608
G1 X25.706 Y159.473 E30.87873
G1 X25.457 Y158.476 E30.93
G1 X24.248 Y153.279 E31.1962
G1 X24.117 Y152.681 E31.22674
G1 X23.926 Y151.662 E31.27847
G1 X23.025 Y146.381 E31.54575
G1 X22.912 Y145.646 E31.58285
G1 X22.8 Y144.754 E31.6277
G1 X22.217 Y139.449 E31.89396
G1 X22.154 Y138.788 E31.92708
G1 X22.086 Y137.751 E31.97893
G1 X21.82 Y132.386 E32.24692
G1 X21.797 Y131.698 E32.28127
G1 X21.792 Y130.8 E32.32607
G1 X21.846 Y125.403 E32.59534
G1 X21.861 Y124.785 E32.62618
G1 X21.915 Y123.774 E32.67669
G1 X22.289 Y118.391 E32.9459
G1 X22.336 Y117.827 E32.97413
G1 X22.457 Y116.76 E33.02771
G1 X23.146 Y111.46 E33.29435
G1 X23.234 Y110.847 E33.32525
G1 X23.4 Y109.895 E33.37346
G1 X24.411 Y104.606 E33.6421
G1 X24.566 Y103.859 E33.68017
G1 X24.776 Y102.975 E33.7255
G1 X26.09 Y97.798 E33.99197
G1 X26.291 Y97.058 E34.03022
G1 X26.542 Y96.225 E34.07363
G1 X28.172 Y91.102 E34.34184
G1 X28.384 Y90.468 E34.37519
G1 X28.713 Y89.572 E34.42281
G1 X30.648 Y84.55 E34.69132
G1 X30.927 Y83.86 E34.72845
G1 X31.303 Y83.002 E34.77518
G1 X33.5 Y78.178 E35.03964
G1 X33.795 Y77.552 E35.07416
G1 X34.228 Y76.701 E35.1218
G1 X36.778 Y71.888 E35.39354
G1 X37.091 Y71.319 E35.42594
G1 X37.587 Y70.477 E35.4747
G1 X40.362 Y65.917 E35.74101
G1 X40.744 Y65.309 E35.77683
G1 X41.25 Y64.557 E35.82205
G1 X44.34 Y60.103 E36.0925
G1 X44.719 Y59.574 E36.12497
G1 X45.303 Y58.807 E36.17306
G1 X48.617 Y54.59 E36.44064
G1 X49 Y54.116 E36.47105
G1 X49.662 Y53.343 E36.52182
G1 X53.219 Y49.336 E36.78913
G1 X53.701 Y48.809 E36.82476
G1 F3000 E33.82476
;MESH:dispenser_cover.stl
G0 F3600 X66.885 Y63.608
G0 X65.955 Y62.751
G0 X61.809 Y67.56
G0 X58.012 Y72.65
G0 X54.547 Y77.972
G0 X51.431 Y83.505
G0 X48.675 Y89.226
G0 X46.291 Y95.113
G0 X44.29 Y101.139
G0 X42.681 Y107.282
G0 X41.466 Y113.515
G0 X40.655 Y119.815
G0 X40.248 Y126.151
G0 X40.248 Y132.501
G0 X40.655 Y138.837
G0 X41.466 Y145.137
G0 X42.681 Y151.37
G0 X44.29 Y157.513
G0 X46.291 Y163.538
G0 X48.675 Y169.426
G0 X51.431 Y175.147
G0 X54.547 Y180.68
G0 X58.012 Y186.002
G0 X61.809 Y191.092
G0 X65.926 Y195.927
G0 X70.345 Y200.488
G0 X75.045 Y204.758
G0 X80.01 Y208.718
G0 X85.219 Y212.351
G0 X90.649 Y215.642
G0 X96.278 Y218.581
G0 X102.085 Y221.151
G0 X108.046 Y223.344
G0 X114.132 Y225.151
G0 X120.325 Y226.564
G0 X126.593 Y227.577
G0 X132.281 Y228.126
G0 X139.261 Y228.451
G0 X139.261 Y228.351
;TYPE:WALL-INNER
G1 F3000 E36.82476
G1 F1500 X145.606 Y228.148 E37.14148
G1 X151.924 Y227.538 E37.45815
G1 X158.19 Y226.525 E37.77482
G1 X164.379 Y225.113 E38.09153
G1 X170.465 Y223.307 E38.40825
G1 X176.422 Y221.114 E38.72494
G1 X182.227 Y218.545 E39.04165
G1 X187.854 Y215.608 E39.35832
G1 X193.282 Y212.318 E39.67498
G1 X198.489 Y208.686 E39.99171
G1 X203.452 Y204.728 E40.30842
G1 X208.151 Y200.46 E40.62512
G1 X212.567 Y195.901 E40.94177
G1 X216.682 Y191.068 E41.25845
G1 X220.479 Y185.98 E41.57519
G1 X223.942 Y180.66 E41.89188
G1 X227.057 Y175.129 E42.20858
G1 X229.811 Y169.41 E42.52526
G1 X232.194 Y163.525 E42.84202
G1 X234.194 Y157.502 E43.15864
G1 X235.803 Y151.362 E43.47531
G1 X237.017 Y145.131 E43.79202
G1 X237.828 Y138.834 E44.10877
G1 X238.236 Y132.5 E44.42543
G1 X238.236 Y126.152 E44.74214
G1 X237.828 Y119.818 E45.0588
G1 X237.017 Y113.521 E45.37555
G1 X235.803 Y107.29 E45.69226
G1 X234.194 Y101.15 E46.00893
G1 X232.194 Y95.126 E46.3256
G1 X229.811 Y89.242 E46.64231
G1 X227.057 Y83.523 E46.959
G1 X223.942 Y77.992 E47.27569
G1 X220.479 Y72.672 E47.59238
G1 X216.682 Y67.584 E47.90912
G1 X212.567 Y62.751 E48.2258
G1 X208.151 Y58.191 E48.54249
G1 X203.452 Y53.924 E48.85916
G1 X198.489 Y49.966 E49.17586
G1 X193.282 Y46.334 E49.49259
G1 X187.854 Y43.043 E49.80928
G1 X182.227 Y40.107 E50.12593
G1 X176.422 Y37.538 E50.44264
G1 X170.465 Y35.345 E50.75933
G1 X164.379 Y33.539 E51.07605
G1 X158.19 Y32.127 E51.39275
G1 X151.924 Y31.114 E51.70943
G1 X145.606 Y30.504 E52.0261
G1 X139.261 Y30.301 E52.34281
G1 X132.916 Y30.504 E52.65953
G1 X126.598 Y31.114 E52.9762
G1 X120.332 Y32.127 E53.29287
G1 X114.142 Y33.539 E53.60962
G1 X108.058 Y35.345 E53.92625
G1 X102.1 Y37.538 E54.24299
G1 X96.295 Y40.107 E54.55969
G1 X90.668 Y43.043 E54.87634
G1 X85.24 Y46.334 E55.19303
G1 X80.033 Y49.966 E55.50976
G1 X75.07 Y53.924 E55.82647
G1 X70.372 Y58.191 E56.1431
G1 X65.955 Y62.751 E56.45983
G1 X61.84 Y67.584 E56.77651
G1 X58.044 Y72.672 E57.09321
G1 X54.581 Y77.992 E57.4099
G1 X51.466 Y83.523 E57.7266
G1 X48.711 Y89.242 E58.0433
G1 X46.328 Y95.126 E58.36002
G1 X44.328 Y101.15 E58.67669
G1 X42.719 Y107.29 E58.99335
G1 X41.505 Y113.521 E59.31007
G1 X40.694 Y119.818 E59.62682
G1 X40.287 Y126.152 E59.94348
G1 X40.287 Y132.5 E60.26018
G1 X40.694 Y138.834 E60.57683
G1 X41.505 Y145.131 E60.89359
G1 X42.719 Y151.362 E61.2103
G1 X44.328 Y157.502 E61.52697
G1 X46.328 Y163.525 E61.84359
G1 X48.711 Y169.41 E62.16035
G1 X51.466 Y175.129 E62.47705
G1 X54.581 Y180.66 E62.79375
G1 X58.044 Y185.98 E63.11044
G1 X61.84 Y191.068 E63.42715
G1 X65.955 Y195.901 E63.74383
G1 X70.372 Y200.46 E64.06052
G1 X75.07 Y204.728 E64.37718
G1 X80.033 Y208.686 E64.69389
G1 X85.24 Y212.318 E65.01062
G1 X90.668 Y215.608 E65.32728
G1 X96.295 Y218.545 E65.64395
G1 X102.1 Y221.114 E65.96066
G1 X108.058 Y223.307 E66.2774
G1 X114.142 Y225.113 E66.59402
G1 X120.332 Y226.525 E66.91078
G1 X126.598 Y227.538 E67.22745
G1 X132.916 Y228.148 E67.54412
G1 X139.261 Y228.351 E67.86083
G0 F3600 X139.261 Y227.951
;TYPE:WALL-OUTER
G1 F1500 X145.58 Y227.749 E68.17625
G1 X151.873 Y227.141 E68.49167
G1 X158.114 Y226.132 E68.80708
G1 X164.278 Y224.726 E69.1225
G1 X170.339 Y222.927 E69.43793
G1 X176.272 Y220.743 E69.75334
G1 X182.053 Y218.184 E70.06875
G1 X187.658 Y215.259 E70.38417
G1 X193.064 Y211.983 E70.69954
G1 X198.25 Y208.365 E71.01501
G1 X203.193 Y204.423 E71.33043
G1 X207.873 Y200.173 E71.64583
G1 X212.271 Y195.632 E71.96122
G1 X216.369 Y190.818 E72.27662
G1 X220.151 Y185.751 E72.59207
G1 X223.6 Y180.453 E72.90746
G1 X226.702 Y174.944 E73.22288
G1 X229.445 Y169.248 E73.53829
G1 X231.818 Y163.387 E73.85376
G1 X233.81 Y157.388 E74.16912
G1 X235.413 Y151.273 E74.4845
G1 X236.622 Y145.067 E74.79994
G1 X237.43 Y138.796 E75.11539
G1 X237.836 Y132.487 E75.4308
G1 X237.836 Y126.165 E75.74621
G1 X237.43 Y119.856 E76.06161
G1 X236.622 Y113.585 E76.37706
G1 X235.413 Y107.379 E76.6925
G1 X233.81 Y101.264 E77.00789
G1 X231.818 Y95.264 E77.32329
G1 X229.445 Y89.404 E77.63871
G1 X226.702 Y83.708 E77.95412
G1 X223.6 Y78.199 E78.26954
G1 X220.151 Y72.901 E78.58494
G1 X216.369 Y67.834 E78.90038
G1 X212.271 Y63.02 E79.21579
G1 X207.873 Y58.478 E79.53121
G1 X203.193 Y54.229 E79.84657
G1 X198.25 Y50.287 E80.162
G1 X193.064 Y46.669 E80.47747
G1 X187.658 Y43.392 E80.79286
G1 X182.053 Y40.468 E81.10826
G1 X176.272 Y37.909 E81.42367
G1 X170.339 Y35.725 E81.73909
G1 X164.278 Y33.926 E82.05451
G1 X158.114 Y32.52 E82.36993
G1 X151.873 Y31.511 E82.68534
G1 X145.58 Y30.903 E83.00076
G1 X139.261 Y30.701 E83.31618
G1 X132.942 Y30.903 E83.63159
G1 X126.649 Y31.511 E83.94701
G1 X120.408 Y32.52 E84.26242
G1 X114.244 Y33.926 E84.57784
G1 X108.184 Y35.725 E84.89322
G1 X102.25 Y37.909 E85.20868
G1 X96.469 Y40.468 E85.52409
G1 X90.864 Y43.392 E85.83949
G1 X85.458 Y46.669 E86.15488
