;FLAVOR:Marlin
;TIME:13677
;Filament used: 18.6712m
;Layer height: 0.3
;MINX:121.399
;MINY:91.288
;MINZ:0.3
;MAXX:158.601
;MAXY:168.918
;MAXZ:94.8
;Generated with Cura_SteamEngine 4.8.0
M140 S60
M105
M190 S60
M104 S200
M105
M109 S200
M82 ;absolute extrusion mode
M201 X500.00 Y500.00 Z100.00 E5000.00 ;Setup machine max acceleration
M203 X500.00 Y500.00 Z10.00 E50.00 ;Setup machine max feedrate
M204 P500.00 R1000.00 T500.00 ;Setup Print/Retract/Travel acceleration
M205 X8.00 Y8.00 Z0.40 E5.00 ;Setup Jerk
M220 S100 ;Reset Feedrate
M221 S100 ;Reset Flowrate

G28 ;Home

G92 E0 ;Reset Extruder
G1 Z2.0 F3000 ;Move Z Axis up
G1 X10.1 Y20 Z0.28 F5000.0 ;Move to start position
G1 X10.1 Y200.0 Z0.28 F1500.0 E15 ;Draw the first line
G1 X10.4 Y200.0 Z0.28 F5000.0 ;Move to side a little
G1 X10.4 Y20 Z0.28 F1500.0 E30 ;Draw the second line
G92 E0 ;Reset Extruder
G1 Z2.0 F3000 ;Move Z Axis up

G92 E0
G92 E0
G1 F3000 E-3
;LAYER_COUNT:316
;LAYER:0
M107
G0 F3600 X122.062 Y92.944 Z0.3
;TYPE:SKIRT
G1 F3000 E0
G1 F1500 X122.464 Y92.464 E0.03124
G1 X122.576 Y92.352 E0.03914
G1 X122.983 Y92.003 E0.06589
G1 X123.437 Y91.717 E0.09266
G1 X123.928 Y91.502 E0.1194
G1 X124.446 Y91.362 E0.14617
G1 X125 Y91.3 E0.17398
G1 X125.635 Y91.288 E0.20567
G1 X154.227 Y91.288 E1.63213
G1 X154.929 Y91.298 E1.66715
G1 X155.463 Y91.346 E1.6939
G1 X155.985 Y91.472 E1.72069
G1 X156.481 Y91.675 E1.74743
G1 X156.942 Y91.949 E1.77419
G1 X157.424 Y92.352 E1.80553
G1 X157.536 Y92.464 E1.81343
G1 X157.885 Y92.871 E1.84018
G1 X158.171 Y93.325 E1.86695
G1 X158.386 Y93.816 E1.89369
G1 X158.526 Y94.334 E1.92046
G1 X158.588 Y94.879 E1.94783
G1 X158.601 Y95.583 E1.98296
G1 X158.6 Y164.326 E5.41256
G1 X158.59 Y165.053 E5.44883
G1 X158.542 Y165.587 E5.47558
G1 X158.416 Y166.108 E5.50232
G1 X158.214 Y166.605 E5.52909
G1 X157.94 Y167.066 E5.55584
G1 X157.601 Y167.481 E5.58258
G1 X157.204 Y167.842 E5.60935
G1 X156.758 Y168.139 E5.63608
G1 X156.272 Y168.367 E5.66286
G1 X155.758 Y168.52 E5.68962
G1 X155.196 Y168.597 E5.71792
G1 X154.134 Y168.658 E5.77099
G1 X153.379 Y168.691 E5.80869
G1 X151.837 Y168.802 E5.88582
G1 X151.745 Y168.802 E5.89041
G1 X150.44 Y168.896 E5.95569
G1 X150.237 Y168.905 E5.96583
G1 X149.42 Y168.918 E6.00659
G1 X148.621 Y168.908 E6.04646
G1 X148.419 Y168.899 E6.05655
G1 X147.464 Y168.831 E6.10431
G1 X146.403 Y168.741 E6.15743
G1 X143.698 Y168.588 E6.2926
G1 X139.585 Y168.501 E6.49785
G1 X132.129 Y168.501 E6.86983
G1 X128.537 Y168.568 E7.04907
G1 X127.451 Y168.607 E7.10328
G1 X127.018 Y168.612 E7.12489
G1 X125.655 Y168.612 E7.19289
G1 X124.957 Y168.602 E7.22771
G1 X124.423 Y168.554 E7.25446
G1 X123.902 Y168.428 E7.2812
G1 X123.405 Y168.225 E7.30799
G1 X122.944 Y167.951 E7.33474
G1 X122.529 Y167.612 E7.36148
G1 X122.169 Y167.214 E7.38825
G1 X121.872 Y166.768 E7.41498
G1 X121.644 Y166.282 E7.44177
G1 X121.492 Y165.768 E7.46851
G1 X121.41 Y165.1 E7.50208
G1 X121.4 Y164.67 E7.52354
G1 X121.399 Y95.694 E10.96477
G1 X121.41 Y94.956 E11.00159
G1 X121.458 Y94.422 E11.02834
G1 X121.585 Y93.901 E11.0551
G1 X121.788 Y93.405 E11.08183
G1 X122.062 Y92.944 E11.10859
G0 F3600 X122.458 Y93.08
G1 F1500 X122.859 Y92.635 E11.13847
G1 X123.244 Y92.307 E11.16371
G1 X123.675 Y92.044 E11.1889
G1 X124.143 Y91.851 E11.21415
G1 X124.635 Y91.735 E11.23937
G1 X125.162 Y91.695 E11.26574
G1 X125.64 Y91.688 E11.28959
G1 X154.222 Y91.688 E12.71555
G1 X154.924 Y91.698 E12.75058
G1 X155.427 Y91.745 E12.77578
G1 X155.917 Y91.871 E12.80102
G1 X156.38 Y92.073 E12.82623
G1 X156.807 Y92.344 E12.85146
G1 X157.253 Y92.747 E12.88145
G1 X157.581 Y93.132 E12.90668
G1 X157.844 Y93.563 E12.93187
G1 X158.037 Y94.031 E12.95713
G1 X158.153 Y94.523 E12.98234
G1 X158.193 Y95.03 E13.00772
G1 X158.201 Y95.628 E13.03755
G1 X158.2 Y164.32 E16.46461
G1 X158.19 Y165.047 E16.50089
G1 X158.143 Y165.55 E16.52609
G1 X158.017 Y166.04 E16.55133
G1 X157.816 Y166.504 E16.57656
G1 X157.544 Y166.93 E16.60178
G1 X157.209 Y167.309 E16.62701
G1 X156.818 Y167.629 E16.65222
G1 X156.382 Y167.884 E16.67742
G1 X155.911 Y168.068 E16.70265
G1 X155.173 Y168.198 E16.74003
G1 X154.117 Y168.258 E16.7928
G1 X153.367 Y168.291 E16.83025
G1 X151.808 Y168.403 E16.90823
G1 X151.721 Y168.402 E16.91257
G1 X150.411 Y168.497 E16.9781
G1 X150.231 Y168.505 E16.98709
G1 X149.317 Y168.518 E17.0327
G1 X148.627 Y168.508 E17.06712
G1 X148.447 Y168.5 E17.07611
G1 X147.497 Y168.433 E17.12363
G1 X146.421 Y168.342 E17.1775
G1 X143.701 Y168.188 E17.31342
G1 X139.594 Y168.101 E17.51836
G1 X132.121 Y168.101 E17.89119
G1 X128.522 Y168.168 E18.07078
G1 X127.446 Y168.207 E18.1245
G1 X127.013 Y168.212 E18.1461
G1 X125.661 Y168.212 E18.21355
G1 X124.963 Y168.202 E18.24838
G1 X124.46 Y168.155 E18.27358
G1 X123.97 Y168.029 E18.29882
G1 X123.506 Y167.827 E18.32407
G1 X123.08 Y167.555 E18.34929
G1 X122.702 Y167.22 E18.37449
G1 X122.382 Y166.829 E18.39969
G1 X122.127 Y166.392 E18.42494
G1 X121.944 Y165.921 E18.45014
G1 X121.837 Y165.427 E18.47536
G1 X121.801 Y164.757 E18.50884
G1 X121.799 Y95.7 E21.9541
G1 X121.81 Y94.962 E21.99093
G1 X121.858 Y94.459 E22.01614
G1 X121.984 Y93.969 E22.04138
G1 X122.186 Y93.506 E22.06658
G1 X122.458 Y93.08 E22.0918
G0 F3600 X125.2 Y95.088
;TYPE:SUPPORT
G1 F1500 X154.8 Y95.088 E23.56855
G1 X154.8 Y95.112 E23.56974
G1 X125.2 Y95.112 E25.04649
G1 X125.2 Y95.088 E25.04769
G1 F3000 E22.04769
G0 F3600 X124.339 Y95.855
G0 X124.339 Y165.169
G0 X127.584 Y165.676
G0 X128.636 Y165.592
G0 X129.493 Y165.388
G0 X132.543 Y164.245
G1 F3000 E25.04769
G1 F1500 X132.886 Y164.345 E25.06552
G1 X133.252 Y164.297 E25.08393
G1 X133.486 Y164.366 E25.0961
G1 X133.907 Y164.289 E25.11745
G1 X134.269 Y164.363 E25.13589
G1 X134.638 Y164.294 E25.15462
G1 X134.989 Y164.395 E25.17284
G1 X135.399 Y164.291 E25.19394
G1 X135.807 Y164.38 E25.21478
G1 X136.221 Y164.284 E25.23598
G1 X137.116 Y164.494 E25.28184
G1 X137.476 Y164.282 E25.30269
G1 X138.435 Y164.396 E25.35087
G1 X138.807 Y164.415 E25.36945
G1 X141.425 Y164.398 E25.50007
G1 X141.734 Y164.367 E25.51556
G1 X142.555 Y164.291 E25.55669
G1 X142.924 Y164.41 E25.57604
G1 X143.704 Y164.287 E25.61543
G1 X144.088 Y164.418 E25.63568
G1 X144.653 Y164.285 E25.66463
G1 X145.028 Y164.358 E25.68369
G1 X145.388 Y164.282 E25.70205
G1 X145.764 Y164.367 E25.72128
G1 X146.084 Y164.289 E25.73771
G1 X146.485 Y164.355 E25.75799
G1 X146.776 Y164.294 E25.77282
G1 X147.166 Y164.341 E25.79242
G1 X147.493 Y164.251 E25.80934
G1 X147.801 Y164.28 E25.82478
G1 X147.997 Y164.41 E25.83651
G1 X148.02 Y164.46 E25.83926
G1 X148.152 Y164.513 E25.84635
G1 X148.265 Y164.587 E25.85309
G1 X149.134 Y165.112 E25.90374
G1 X149.148 Y165.118 E25.9045
G1 X148.832 Y165.118 E25.92027
G1 X148.82 Y165.052 E25.92362
G1 X148.403 Y164.701 E25.95081
G1 X131.845 Y164.701 E26.77689
G1 X131.659 Y164.632 E26.78679
G1 X131.741 Y164.583 E26.79155
G1 X132.167 Y164.302 E26.81701
G1 X132.543 Y164.245 E26.83599
G1 F3000 E23.83599
;MESH:dispenser_pellet_exhaust.stl
G0 F3600 X149.155 Y164.85
G0 X149.817 Y163.75
G0 X154.33 Y164.342
G0 X154.4 Y164.412
;TYPE:WALL-INNER
G1 F3000 E26.83599
G1 F1500 X152.466 Y164.412 E26.93247
G1 X151.541 Y164.338 E26.97877
G1 X150.642 Y164.116 E27.02497
G1 X149.808 Y163.767 E27.07007
G1 X149.063 Y163.317 E27.1135
G1 X148.072 Y162.664 E27.17271
G1 X147.012 Y162.076 E27.23318
G1 X145.91 Y161.575 E27.29357
G1 X144.77 Y161.159 E27.35412
G1 X143.603 Y160.833 E27.41457
G1 X142.414 Y160.601 E27.47501
G1 X141.211 Y160.459 E27.53544
G1 X140 Y160.413 E27.5959
G1 X138.79 Y160.459 E27.65631
G1 X137.586 Y160.6 E27.71679
G1 X136.398 Y160.834 E27.7772
G1 X135.23 Y161.159 E27.83769
G1 X134.091 Y161.575 E27.89818
G1 X132.988 Y162.076 E27.95862
G1 X131.928 Y162.664 E28.0191
G1 X130.95 Y163.308 E28.07752
G1 X130.149 Y163.79 E28.12416
G1 X129.318 Y164.128 E28.16891
G1 X128.445 Y164.338 E28.21371
G1 X127.526 Y164.412 E28.25971
G1 X125.6 Y164.412 E28.3558
G1 X125.6 Y96.612 E31.73835
G1 X154.4 Y96.612 E33.17519
G1 X154.4 Y164.412 E36.55775
G0 F3600 X154.8 Y164.812
;TYPE:WALL-OUTER
G1 F1500 X152.449 Y164.812 E36.67504
G1 X151.947 Y164.791 E36.7001
G1 X151.471 Y164.732 E36.72403
G1 X150.515 Y164.496 E36.77316
G1 X149.627 Y164.125 E36.82117
G1 X148.854 Y163.658 E36.86623
G1 X147.865 Y163.006 E36.92533
G1 X146.832 Y162.434 E36.98424
G1 X145.758 Y161.945 E37.04311
G1 X144.648 Y161.54 E37.10206
G1 X143.511 Y161.223 E37.16095
G1 X142.352 Y160.996 E37.21987
G1 X141.18 Y160.858 E37.27875
G1 X140 Y160.813 E37.33766
G1 X138.821 Y160.858 E37.39653
G1 X137.648 Y160.995 E37.45544
G1 X136.49 Y161.223 E37.51433
G1 X135.352 Y161.54 E37.57326
G1 X134.243 Y161.945 E37.63217
G1 X133.168 Y162.434 E37.69109
G1 X132.135 Y163.006 E37.75
G1 X131.156 Y163.651 E37.80849
G1 X130.331 Y164.147 E37.85651
G1 X129.437 Y164.511 E37.90467
G1 X128.508 Y164.735 E37.95234
G1 X127.546 Y164.812 E38.00049
G1 X125.2 Y164.812 E38.11753
G1 X125.2 Y96.212 E41.54
G1 X154.8 Y96.212 E43.01675
G1 X154.8 Y164.812 E46.43922
G0 F3600 X154.33 Y164.342
G0 X154.01 Y164.022
;TYPE:SKIN
G1 F1500 X152.472 Y164.022 E46.51595
G1 X151.603 Y163.952 E46.55945
G1 X150.763 Y163.745 E46.60261
G1 X149.99 Y163.421 E46.64442
G1 X149.278 Y162.991 E46.68592
G1 X148.275 Y162.33 E46.74585
G1 X147.188 Y161.727 E46.80787
G1 X146.058 Y161.214 E46.86978
G1 X144.889 Y160.787 E46.93187
G1 X143.693 Y160.453 E46.99382
G1 X142.474 Y160.215 E47.05579
G1 X141.242 Y160.069 E47.11768
G1 X140 Y160.023 E47.17969
G1 X138.76 Y160.069 E47.24159
G1 X137.526 Y160.214 E47.30358
G1 X136.308 Y160.454 E47.36552
G1 X135.111 Y160.787 E47.4275
G1 X133.943 Y161.214 E47.48955
G1 X132.813 Y161.727 E47.55146
G1 X131.726 Y162.33 E47.61348
G1 X130.742 Y162.978 E47.67226
G1 X129.973 Y163.441 E47.71704
G1 X129.199 Y163.755 E47.75871
G1 X128.38 Y163.953 E47.80075
G1 X127.519 Y164.022 E47.84384
G1 X125.99 Y164.022 E47.92012
G1 X125.99 Y97.002 E51.26377
G1 X154.01 Y97.002 E52.66169
G1 X154.01 Y164.022 E56.00533
G0 F3600 X143.612 Y160.795
G0 X142.42 Y160.562
G0 X141.214 Y160.42
G0 X140 Y160.373
G0 X138.787 Y160.42
G0 X137.58 Y160.561
G0 X136.389 Y160.796
G0 X126.526 Y163.861
G1 F1500 X126.149 Y163.484 E56.03193
G0 F3600 X126.149 Y162.918
G1 F1500 X127.091 Y163.861 E56.09843
G0 F3600 X127.646 Y163.85
G1 F1500 X126.149 Y162.353 E56.20405
G0 F3600 X126.149 Y161.787
G1 F1500 X128.17 Y163.808 E56.34664
G0 F3600 X128.649 Y163.722
G1 F1500 X126.149 Y161.221 E56.52307
G0 F3600 X126.149 Y160.656
G1 F1500 X129.104 Y163.611 E56.73156
G0 F3600 X129.512 Y163.454
G1 F1500 X126.149 Y160.09 E56.96887
G0 F3600 X126.149 Y159.524
G1 F1500 X129.913 Y163.289 E57.23448
G0 F3600 X130.266 Y163.076
G1 F1500 X126.149 Y158.959 E57.52495
G0 F3600 X126.149 Y158.393
G1 F1500 X130.619 Y162.863 E57.84033
G0 F3600 X130.961 Y162.64
G1 F1500 X126.149 Y157.827 E58.17988
G0 F3600 X126.149 Y157.261
G1 F1500 X131.302 Y162.415 E58.54349
G0 F3600 X131.644 Y162.191
G1 F1500 X126.149 Y156.696 E58.93119
G0 F3600 X126.149 Y156.13
G1 F1500 X132.007 Y161.988 E59.34451
G0 F3600 X132.371 Y161.787
G1 F1500 X126.149 Y155.564 E59.78354
G0 F3600 X126.149 Y154.999
G1 F1500 X132.735 Y161.585 E60.24821
G0 F3600 X133.124 Y161.408
G1 F1500 X126.149 Y154.433 E60.74034
G0 F3600 X126.149 Y153.867
G1 F1500 X133.513 Y161.231 E61.25991
G0 F3600 X133.904 Y161.057
G1 F1500 X126.149 Y153.302 E61.80707
G0 F3600 X126.149 Y152.736
G1 F1500 X134.318 Y160.905 E62.38343
G0 F3600 X134.732 Y160.753
G1 F1500 X126.149 Y152.17 E62.98901
G0 F3600 X126.149 Y151.605
G1 F1500 X135.152 Y160.607 E63.62418
G0 F3600 X135.595 Y160.485
G1 F1500 X126.149 Y151.039 E64.29065
G0 F3600 X126.149 Y150.473
G1 F1500 X136.038 Y160.362 E64.98837
G0 F3600 X136.493 Y160.252
G1 F1500 X126.149 Y149.908 E65.7182
G0 F3600 X126.149 Y149.342
G1 F1500 X136.966 Y160.159 E66.4814
G0 F3600 X137.438 Y160.066
G1 F1500 X126.149 Y148.776 E67.27793
G0 F3600 X126.149 Y148.21
G1 F1500 X137.94 Y160.002 E68.10989
G0 F3600 X138.447 Y159.943
G1 F1500 X126.149 Y147.645 E68.97758
G0 F3600 X126.149 Y147.079
G1 F1500 X138.969 Y159.899 E69.8821
G0 F3600 X139.514 Y159.879
G1 F1500 X126.149 Y146.513 E70.8251
G0 F3600 X126.149 Y145.948
G1 F1500 X140.065 Y159.864 E71.80695
G0 F3600 X140.652 Y159.886
G1 F1500 X126.149 Y145.382 E72.83025
G0 F3600 X126.149 Y144.816
G1 F1500 X141.239 Y159.907 E73.89497
G0 F3600 X141.88 Y159.982
G1 F1500 X126.149 Y144.251 E75.00488
G0 F3600 X126.149 Y143.685
G1 F1500 X142.524 Y160.06 E76.16022
G0 F3600 X143.227 Y160.197
G1 F1500 X126.149 Y143.119 E77.36517
G0 F3600 X126.149 Y142.554
G1 F1500 X143.954 Y160.359 E78.62141
G0 F3600 X144.739 Y160.578
G1 F1500 X126.149 Y141.988 E79.93303
G0 F3600 X126.149 Y141.422
G1 F1500 X145.603 Y160.877 E81.30565
G0 F3600 X146.554 Y161.262
G1 F1500 X126.149 Y140.857 E82.74533
G0 F3600 X126.149 Y140.291
G1 F1500 X147.665 Y161.807 E84.2634
G0 F3600 X149.113 Y162.69
G1 F1500 X126.149 Y139.725 E85.88367
G0 F3600 X126.149 Y139.16
G1 F1500 X150.414 Y163.425 E87.5957
G0 F3600 X151.255 Y163.7
G1 F1500 X126.149 Y138.594 E89.36706
G0 F3600 X126.149 Y138.028
G1 F1500 X151.938 Y163.818 E91.18665
G0 F3600 X152.547 Y163.861
G1 F1500 X126.149 Y137.462 E93.04921
G0 F3600 X126.149 Y136.897
G1 F1500 X153.113 Y163.861 E94.95166
G0 F3600 X153.679 Y163.861
G1 F1500 X126.149 Y136.331 E96.89405
G0 F3600 X126.149 Y135.765
G1 F1500 X153.85 Y163.466 E98.84851
G0 F3600 X153.85 Y162.901
G1 F1500 X126.149 Y135.2 E100.80296
G0 F3600 X126.149 Y134.634
G1 F1500 X153.85 Y162.335 E102.75742
G0 F3600 X153.85 Y161.769
G1 F1500 X126.149 Y134.068 E104.71188
G0 F3600 X126.149 Y133.503
G1 F1500 X153.85 Y161.204 E106.66633
G0 F3600 X153.85 Y160.638
G1 F1500 X126.149 Y132.937 E108.62079
G0 F3600 X126.149 Y132.371
G1 F1500 X153.85 Y160.072 E110.57524
G0 F3600 X153.85 Y159.507
G1 F1500 X126.149 Y131.806 E112.5297
G0 F3600 X126.149 Y131.24
G1 F1500 X153.85 Y158.941 E114.48415
G0 F3600 X153.85 Y158.375
G1 F1500 X126.149 Y130.674 E116.43861
G0 F3600 X126.149 Y130.109
G1 F1500 X153.85 Y157.809 E118.39303
G0 F3600 X153.85 Y157.244
G1 F1500 X126.149 Y129.543 E120.34748
G0 F3600 X126.149 Y128.977
G1 F1500 X153.85 Y156.678 E122.30194
G0 F3600 X153.85 Y156.112
G1 F1500 X126.149 Y128.412 E124.25636
G0 F3600 X126.149 Y127.846
G1 F1500 X153.85 Y155.547 E126.21081
G0 F3600 X153.85 Y154.981
G1 F1500 X126.149 Y127.28 E128.16527
G0 F3600 X126.149 Y126.714
G1 F1500 X153.85 Y154.415 E130.11972
G0 F3600 X153.85 Y153.85
G1 F1500 X126.149 Y126.149 E132.07418
G0 F3600 X126.149 Y125.583
G1 F1500 X153.85 Y153.284 E134.02863
G0 F3600 X153.85 Y152.718
G1 F1500 X126.149 Y125.017 E135.98309
G0 F3600 X126.149 Y124.452
G1 F1500 X153.85 Y152.153 E137.93754
G0 F3600 X153.85 Y151.587
G1 F1500 X126.149 Y123.886 E139.892
G0 F3600 X126.149 Y123.32
G1 F1500 X153.85 Y151.021 E141.84645
G0 F3600 X153.85 Y150.456
G1 F1500 X126.149 Y122.755 E143.80091
G0 F3600 X126.149 Y122.189
G1 F1500 X153.85 Y149.89 E145.75536
G0 F3600 X153.85 Y149.324
G1 F1500 X126.149 Y121.623 E147.70982
G0 F3600 X126.149 Y121.058
G1 F1500 X153.85 Y148.759 E149.66427
G0 F3600 X153.85 Y148.193
G1 F1500 X126.149 Y120.492 E151.61873
G0 F3600 X126.149 Y119.926
G1 F1500 X153.85 Y147.627 E153.57318
G0 F3600 X153.85 Y147.061
G1 F1500 X126.149 Y119.361 E155.5276
G0 F3600 X126.149 Y118.795
G1 F1500 X153.85 Y146.496 E157.48206
G0 F3600 X153.85 Y145.93
G1 F1500 X126.149 Y118.229 E159.43651
G0 F3600 X126.149 Y117.663
G1 F1500 X153.85 Y145.364 E161.39097
G0 F3600 X153.85 Y144.799
G1 F1500 X126.149 Y117.098 E163.34542
G0 F3600 X126.149 Y116.532
G1 F1500 X153.85 Y144.233 E165.29988
G0 F3600 X153.85 Y143.667
G1 F1500 X126.149 Y115.966 E167.25433
G0 F3600 X126.149 Y115.401
G1 F1500 X153.85 Y143.102 E169.20879
G0 F3600 X153.85 Y142.536
G1 F1500 X126.149 Y114.835 E171.16325
G0 F3600 X126.149 Y114.269
G1 F1500 X153.85 Y141.97 E173.1177
G0 F3600 X153.85 Y141.405
G1 F1500 X126.149 Y113.704 E175.07216
G0 F3600 X126.149 Y113.138
G1 F1500 X153.85 Y140.839 E177.02661
G0 F3600 X153.85 Y140.273
G1 F1500 X126.149 Y112.572 E178.98107
G0 F3600 X126.149 Y112.007
G1 F1500 X153.85 Y139.708 E180.93552
G0 F3600 X153.85 Y139.142
G1 F1500 X126.149 Y111.441 E182.88998
G0 F3600 X126.149 Y110.875
G1 F1500 X153.85 Y138.576 E184.84443
G0 F3600 X153.85 Y138.01
G1 F1500 X126.149 Y110.31 E186.79885
G0 F3600 X126.149 Y109.744
G1 F1500 X153.85 Y137.445 E188.75331
G0 F3600 X153.85 Y136.879
