;FLAVOR:Marlin
;TIME:11476
;Filament used: 4.91939m
;Layer height: 0.1
;MINX:94.38
;MINY:98.849
;MINZ:0.3
;MAXX:187.134
;MAXY:161.162
;MAXZ:12
;Generated with Cura_SteamEngine 4.8.0
M140 S60
M105
M190 S60
M104 S200
M105
M109 S200
M82 ;absolute extrusion mode
M201 X500.00 Y500.00 Z100.00 E5000.00 ;Setup machine max acceleration
M203 X500.00 Y500.00 Z10.00 E50.00 ;Setup machine max feedrate
M204 P500.00 R1000.00 T500.00 ;Setup Print/Retract/Travel acceleration
M205 X8.00 Y8.00 Z0.40 E5.00 ;Setup Jerk
M220 S100 ;Reset Feedrate
M221 S100 ;Reset Flowrate

G28 ;Home

G92 E0 ;Reset Extruder
G1 Z2.0 F3000 ;Move Z Axis up
G1 X10.1 Y20 Z0.28 F5000.0 ;Move to start position
G1 X10.1 Y200.0 Z0.28 F1500.0 E15 ;Draw the first line
G1 X10.4 Y200.0 Z0.28 F5000.0 ;Move to side a little
G1 X10.4 Y20 Z0.28 F1500.0 E30 ;Draw the second line
G92 E0 ;Reset Extruder
G1 Z2.0 F3000 ;Move Z Axis up

G92 E0
G92 E0
G1 F3000 E-3
;LAYER_COUNT:118
;LAYER:0
M107
G0 F3600 X96.635 Y100.64 Z0.3
;TYPE:SKIRT
G1 F3000 E0
G1 F1500 X97.087 Y100.265 E0.0293
G1 X97.81 Y99.792 E0.0724
G1 X98.305 Y99.537 E0.10018
G1 X98.66 Y99.395 E0.11926
G1 X99.15 Y99.22 E0.14522
G1 X99.739 Y99.071 E0.17553
G1 X100.557 Y98.959 E0.21672
G1 X101.231 Y98.922 E0.2504
G1 X103.877 Y98.851 E0.38245
G1 X104.185 Y98.858 E0.39782
G1 X104.884 Y98.906 E0.43278
G1 X107.65 Y99.059 E0.57099
G1 X111.644 Y99.141 E0.77029
G1 X148.377 Y99.141 E2.60291
G1 X151.174 Y99.101 E2.74246
G1 X153.917 Y98.985 E2.87944
G1 X155.471 Y98.884 E2.95713
G1 X156.113 Y98.849 E2.98921
G1 X156.485 Y98.854 E3.00777
G1 X158.615 Y98.91 E3.11407
G1 X160.611 Y98.906 E3.21365
G1 X160.668 Y98.91 E3.2165
G1 X162.021 Y98.9 E3.284
G1 X162.203 Y98.904 E3.29309
G1 X162.957 Y98.941 E3.33075
G1 X164.294 Y99.025 E3.39758
G1 X167.018 Y99.12 E3.53357
G1 X169.062 Y99.141 E3.63555
G1 X177.478 Y99.14 E4.05542
G1 X180.291 Y99.1 E4.19578
G1 X180.865 Y99.077 E4.22444
G1 X181.763 Y99.054 E4.26926
G1 X182.268 Y99.081 E4.29449
G1 X182.927 Y99.242 E4.32833
G1 X183.414 Y99.445 E4.35465
G1 X183.637 Y99.557 E4.3671
G1 X184.549 Y100.06 E4.41906
G1 X185.459 Y100.557 E4.47079
G1 X185.882 Y100.833 E4.49599
G1 X186.256 Y101.173 E4.52121
G1 X186.572 Y101.568 E4.54645
G1 X186.823 Y102.007 E4.57168
G1 X187 Y102.48 E4.59687
G1 X187.101 Y102.976 E4.62213
G1 X187.133 Y103.599 E4.65325
G1 X187.134 Y107.979 E4.87177
G1 X187.124 Y108.683 E4.90689
G1 X187.07 Y109.224 E4.93402
G1 X186.956 Y109.836 E4.96508
G1 X186.491 Y112.545 E5.10221
G1 X186.104 Y115.26 E5.23903
G1 X185.796 Y117.964 E5.3748
G1 X185.566 Y120.673 E5.51044
G1 X185.41 Y123.419 E5.64766
G1 X185.331 Y126.186 E5.78576
G1 X185.321 Y127.592 E5.85591
G1 X185.322 Y132.415 E6.09653
G1 X185.363 Y135.215 E6.23624
G1 X185.478 Y137.928 E6.37171
G1 X185.674 Y140.676 E6.50916
G1 X185.943 Y143.384 E6.64493
G1 X186.291 Y146.106 E6.78183
G1 X186.713 Y148.792 E6.91748
G1 X186.928 Y149.944 E6.97595
G1 X187.078 Y150.815 E7.02004
G1 X187.133 Y151.592 E7.0589
G1 X187.134 Y155.95 E7.27632
G1 X187.124 Y156.68 E7.31275
G1 X187.077 Y157.183 E7.33795
G1 X186.951 Y157.673 E7.36319
G1 X186.75 Y158.137 E7.38842
G1 X186.479 Y158.563 E7.41361
G1 X186.143 Y158.941 E7.43884
G1 X185.564 Y159.384 E7.47521
G1 X184.817 Y159.83 E7.51862
G1 X183.962 Y160.349 E7.56852
G1 X183.432 Y160.638 E7.59864
G1 X182.97 Y160.842 E7.62383
G1 X182.48 Y160.97 E7.6491
G1 X181.767 Y161.016 E7.68474
G1 X180.741 Y160.968 E7.73599
G1 X177.977 Y160.877 E7.87396
G1 X176.12 Y160.859 E7.96661
G1 X169.827 Y160.859 E8.28057
G1 X167.03 Y160.899 E8.42013
G1 X164.304 Y161.014 E8.55625
G1 X162.493 Y161.134 E8.6468
G1 X161.849 Y161.162 E8.67896
G1 X161.568 Y161.151 E8.69299
G1 X158.837 Y161.087 E8.82927
G1 X156.601 Y161.093 E8.94083
G1 X156.065 Y161.1 E8.96757
G1 X155.688 Y161.089 E8.98639
G1 X153.197 Y160.947 E9.11087
G1 X150.435 Y160.869 E9.24872
G1 X149.057 Y160.859 E9.31747
G1 X111.621 Y160.859 E11.18516
G1 X108.85 Y160.898 E11.32342
G1 X105.219 Y161.068 E11.50477
G1 X104.247 Y161.131 E11.55336
G1 X103.974 Y161.137 E11.56699
G1 X103.347 Y161.124 E11.59827
G1 X101.244 Y161.057 E11.70325
G1 X100.93 Y161.051 E11.71891
G1 X100.43 Y161.029 E11.74388
G1 X99.862 Y160.953 E11.77247
G1 X99.006 Y160.734 E11.81656
G1 X98.457 Y160.529 E11.84579
G1 X97.713 Y160.151 E11.88743
G1 X97.24 Y159.846 E11.91551
G1 X96.553 Y159.283 E11.95982
G1 X96.147 Y158.87 E11.98871
G1 X95.615 Y158.185 E12.03198
G1 X95.314 Y157.701 E12.06042
G1 X94.942 Y156.915 E12.1038
G1 X94.753 Y156.375 E12.13235
G1 X94.565 Y155.552 E12.17446
G1 X94.485 Y154.807 E12.21184
G1 X94.442 Y153.544 E12.27489
G1 X94.433 Y153.03 E12.30054
G1 X94.38 Y151.718 E12.36605
G1 X94.385 Y151.34 E12.38491
G1 X94.472 Y149.987 E12.45255
G1 X94.607 Y147.365 E12.58354
G1 X94.679 Y143.662 E12.76831
G1 X94.679 Y116.179 E14.13945
G1 X94.639 Y113.381 E14.27905
G1 X94.525 Y110.678 E14.41403
G1 X94.473 Y109.953 E14.45029
G1 X94.39 Y108.569 E14.51946
G1 X94.385 Y108.3 E14.53289
G1 X94.405 Y107.471 E14.57426
G1 X94.46 Y106.013 E14.64705
G1 X94.475 Y105.395 E14.67789
G1 X94.518 Y104.841 E14.70561
G1 X94.583 Y104.346 E14.73052
G1 X94.694 Y103.832 E14.75675
G1 X94.806 Y103.477 E14.77533
G1 X94.982 Y102.987 E14.8013
G1 X95.221 Y102.472 E14.82963
G1 X95.682 Y101.718 E14.87372
G1 X96.039 Y101.255 E14.90289
G1 X96.635 Y100.64 E14.94561
G0 F3600 X100.271 Y105.244
;TYPE:SUPPORT
G1 F1500 X100.631 Y105.392 E14.96503
G1 X101.142 Y105.074 E14.99506
G1 X101.169 Y104.697 E15.01392
G1 X101.177 Y104.698 E15.01432
G1 X101.418 Y104.778 E15.02699
G1 X101.573 Y104.887 E15.03644
G1 X101.741 Y105.092 E15.04966
G1 X101.833 Y105.32 E15.06193
G1 X101.851 Y105.561 E15.07399
G1 X101.808 Y105.762 E15.08424
G1 X101.687 Y105.989 E15.09707
G1 X101.508 Y106.166 E15.10963
G1 X101.337 Y106.257 E15.1193
G1 X101.081 Y106.312 E15.13236
G1 X100.838 Y106.29 E15.14453
G1 X100.608 Y106.193 E15.15699
G1 X100.452 Y106.067 E15.16699
G1 X100.307 Y105.859 E15.17964
G1 X100.232 Y105.617 E15.19228
G1 X100.228 Y105.387 E15.20376
G1 X100.242 Y105.31 E15.20766
G1 X100.271 Y105.244 E15.21126
G0 F3600 X101.346 Y104.843
G1 F1500 X101.346 Y106.162 E15.27706
G0 F3600 X103.114 Y109.236
G1 F1500 X103.221 Y109.177 E15.28316
G1 X103.88 Y108.692 E15.32398
G1 X103.971 Y108.611 E15.33006
G1 X104.509 Y107.991 E15.37101
G1 X104.58 Y107.894 E15.37701
G1 X104.981 Y107.154 E15.419
G1 X105.024 Y107.039 E15.42513
G1 X105.241 Y106.274 E15.4648
G1 X105.263 Y106.155 E15.47084
G1 X105.308 Y105.326 E15.51226
G1 X105.302 Y105.206 E15.51825
G1 X105.168 Y104.394 E15.55931
G1 X105.134 Y104.277 E15.56539
G1 X104.829 Y103.525 E15.60587
G1 X104.772 Y103.417 E15.61197
G1 X104.299 Y102.735 E15.65337
G1 X104.218 Y102.643 E15.65949
G1 X103.953 Y102.4 E15.67743
G1 X104.056 Y102.26 E15.6861
G1 X104.957 Y102.436 E15.7319
G1 X105.723 Y102.541 E15.77047
G1 X154.266 Y102.541 E18.19229
G1 X154.968 Y102.467 E18.22751
G1 X155.982 Y102.261 E18.27913
G1 X156.095 Y102.423 E18.28899
G1 X155.713 Y102.817 E18.31636
G1 X155.636 Y102.91 E18.32239
G1 X155.204 Y103.614 E18.3636
G1 X155.15 Y103.723 E18.36967
G1 X154.867 Y104.548 E18.41318
G1 X154.762 Y105.433 E18.45764
G1 X154.79 Y106.002 E18.48606
G1 X154.976 Y106.833 E18.52855
G1 X155.016 Y106.947 E18.53458
G1 X155.361 Y107.675 E18.57477
G1 X155.421 Y107.779 E18.58076
G1 X155.938 Y108.444 E18.62278
G1 X156.023 Y108.529 E18.62878
G1 X156.655 Y109.048 E18.66958
G1 X156.757 Y109.113 E18.67561
G1 X157.477 Y109.479 E18.71591
G1 X157.591 Y109.523 E18.722
G1 X158.391 Y109.726 E18.76318
G1 X158.514 Y109.743 E18.76938
G1 X159.338 Y109.763 E18.8105
G1 X159.457 Y109.752 E18.81646
G1 X160.243 Y109.599 E18.85641
G1 X160.36 Y109.566 E18.86247
G1 X161.114 Y109.236 E18.90354
G1 X161.221 Y109.177 E18.90963
G1 X161.88 Y108.692 E18.95045
G1 X161.971 Y108.611 E18.95653
G1 X162.509 Y107.991 E18.99749
G1 X162.58 Y107.894 E19.00348
G1 X162.981 Y107.154 E19.04547
G1 X163.024 Y107.039 E19.0516
G1 X163.241 Y106.274 E19.09127
G1 X163.263 Y106.155 E19.09731
G1 X163.308 Y105.326 E19.13873
G1 X163.302 Y105.206 E19.14472
G1 X163.168 Y104.394 E19.18578
G1 X163.134 Y104.277 E19.19186
G1 X162.829 Y103.525 E19.23235
G1 X162.772 Y103.417 E19.23844
G1 X162.299 Y102.735 E19.27985
G1 X162.218 Y102.643 E19.28596
G1 X162.012 Y102.455 E19.29988
G1 X162.131 Y102.306 E19.30939
G1 X163.471 Y102.52 E19.37709
G1 X163.803 Y102.541 E19.39369
G1 X181.81 Y102.54 E20.29206
G1 X181.895 Y102.466 E20.29768
G1 X181.936 Y102.48 E20.29984
G1 X182.331 Y103.286 E20.34462
G1 X182.766 Y103.558 E20.37022
G1 X183.734 Y103.558 E20.41851
G1 X183.734 Y108.441 E20.66213
G1 X182.32 Y108.441 E20.73267
G1 X181.921 Y108.84 E20.76082
G1 X181.922 Y151.16 E22.87218
G1 X182.321 Y151.559 E22.90033
G1 X183.734 Y151.559 E22.97082
G1 X183.734 Y156.441 E23.21439
G1 X183.041 Y156.441 E23.24896
G1 X182.601 Y156.679 E23.27392
G1 X182.024 Y157.564 E23.32663
G1 X182.003 Y157.582 E23.32801
G1 X181.933 Y157.615 E23.33187
G1 X181.597 Y157.46 E23.35033
G1 X179.281 Y157.461 E23.46587
G1 X178.183 Y157.459 E23.52065
G1 X163.792 Y157.459 E24.23862
G1 X163.271 Y157.503 E24.26471
G1 X162.058 Y157.752 E24.32649
G1 X161.962 Y157.619 E24.33467
G1 X161.971 Y157.611 E24.33527
G1 X162.509 Y156.991 E24.37623
G1 X162.58 Y156.894 E24.38222
G1 X162.981 Y156.154 E24.42421
G1 X163.024 Y156.039 E24.43034
G1 X163.241 Y155.274 E24.47001
G1 X163.263 Y155.155 E24.47605
G1 X163.308 Y154.326 E24.51747
G1 X163.302 Y154.206 E24.52346
G1 X163.168 Y153.394 E24.56452
G1 X163.134 Y153.277 E24.5706
G1 X162.829 Y152.525 E24.61109
G1 X162.772 Y152.417 E24.61718
G1 X162.299 Y151.735 E24.65859
G1 X162.218 Y151.643 E24.6647
G1 X161.625 Y151.099 E24.70485
G1 X161.53 Y151.026 E24.71083
G1 X160.81 Y150.609 E24.75234
G1 X160.696 Y150.56 E24.75853
G1 X159.911 Y150.317 E24.79952
G1 X159.794 Y150.295 E24.80546
G1 X158.994 Y150.227 E24.84552
G1 X158.873 Y150.227 E24.85156
G1 X158.039 Y150.343 E24.89357
G1 X157.921 Y150.374 E24.89965
G1 X157.154 Y150.663 E24.94054
G1 X157.047 Y150.719 E24.94657
G1 X156.368 Y151.162 E24.98702
G1 X156.273 Y151.239 E24.99312
G1 X155.713 Y151.817 E25.03327
G1 X155.636 Y151.91 E25.03929
G1 X155.204 Y152.614 E25.0805
G1 X155.15 Y152.723 E25.08657
G1 X154.867 Y153.548 E25.13008
G1 X154.762 Y154.433 E25.17455
G1 X154.79 Y155.002 E25.20297
G1 X154.976 Y155.833 E25.24545
G1 X155.016 Y155.947 E25.25148
G1 X155.361 Y156.675 E25.29167
G1 X155.421 Y156.779 E25.29766
G1 X155.938 Y157.444 E25.33969
G1 X156.023 Y157.529 E25.34568
G1 X156.046 Y157.548 E25.34717
G1 X155.931 Y157.694 E25.35644
G1 X154.639 Y157.484 E25.42175
G1 X154.277 Y157.459 E25.43985
G1 X105.701 Y157.459 E27.86332
G1 X105.326 Y157.494 E27.88211
G1 X104.117 Y157.729 E27.94355
G1 X103.995 Y157.584 E27.95301
G1 X104.509 Y156.991 E27.99216
G1 X104.58 Y156.894 E27.99816
G1 X104.981 Y156.154 E28.04015
G1 X105.024 Y156.039 E28.04627
G1 X105.241 Y155.274 E28.08595
G1 X105.263 Y155.155 E28.09198
G1 X105.308 Y154.326 E28.1334
G1 X105.302 Y154.206 E28.1394
G1 X105.168 Y153.394 E28.18046
G1 X105.134 Y153.277 E28.18653
G1 X104.829 Y152.525 E28.22702
G1 X104.772 Y152.417 E28.23311
G1 X104.299 Y151.735 E28.27452
G1 X104.218 Y151.643 E28.28064
G1 X103.625 Y151.099 E28.32078
G1 X103.53 Y151.026 E28.32676
G1 X102.81 Y150.609 E28.36827
G1 X102.696 Y150.56 E28.37446
G1 X101.911 Y150.317 E28.41546
G1 X101.794 Y150.295 E28.4214
G1 X100.994 Y150.227 E28.46145
G1 X100.873 Y150.227 E28.46749
G1 X100.039 Y150.343 E28.5095
G1 X99.921 Y150.374 E28.51559
G1 X99.154 Y150.663 E28.55648
G1 X99.047 Y150.719 E28.5625
G1 X98.368 Y151.162 E28.60295
G1 X98.274 Y151.239 E28.60901
G1 X97.943 Y151.58 E28.63272
G1 X97.789 Y151.468 E28.64222
G1 X98.011 Y150.398 E28.69674
G1 X98.072 Y149.923 E28.72064
G1 X98.079 Y149.685 E28.73251
G1 X98.079 Y110.223 E30.70128
G1 X98.027 Y109.693 E30.72785
G1 X97.793 Y108.459 E30.79051
G1 X97.889 Y108.381 E30.79668
G1 X97.938 Y108.444 E30.80066
G1 X98.023 Y108.529 E30.80666
G1 X98.655 Y109.048 E30.84746
G1 X98.757 Y109.113 E30.8535
G1 X99.477 Y109.479 E30.89379
G1 X99.591 Y109.523 E30.89989
G1 X100.391 Y109.726 E30.94107
G1 X100.514 Y109.743 E30.94726
G1 X101.338 Y109.763 E30.98838
G1 X101.457 Y109.752 E30.99434
G1 X102.243 Y109.599 E31.03429
G1 X102.36 Y109.566 E31.04036
G1 X103.114 Y109.236 E31.08142
G0 F3600 X103.061 Y109.347
G1 F1500 X157.043 Y109.347 E33.77459
G0 F3600 X157.353 Y109.507
G1 F1500 X157.353 Y150.503 E35.81989
G0 F3600 X155.475 Y152.019
G1 F1500 X104.591 Y152.019 E38.35851
G0 F3600 X104.013 Y151.346
G1 F1500 X104.013 Y108.681 E40.48707
G0 F3600 X105.21 Y106.68
G1 F1500 X154.86 Y106.68 E42.96412
G0 F3600 X154.686 Y105.526
G1 F1500 X154.686 Y154.387 E45.4018
G0 F3600 X154.686 Y154.526
G1 F1500 X154.686 Y157.41 E45.54569
G0 F3600 X155.766 Y157.353
G1 F1500 X104.3 Y157.353 E48.11334
G0 F3600 X106.68 Y157.379
G1 F1500 X106.68 Y102.621 E50.84523
G0 F3600 X105.113 Y104.013
G1 F1500 X154.966 Y104.013 E53.3324
G0 F3600 X154.686 Y105.387
G1 F1500 X154.686 Y102.577 E53.47259
G0 F3600 X152.019 Y102.621
G1 F1500 X152.019 Y157.379 E56.20448
G0 F3600 X149.352 Y157.379
G1 F1500 X149.352 Y102.621 E58.93637
G0 F3600 X146.685 Y102.621
G1 F1500 X146.685 Y157.379 E61.66826
G0 F3600 X144.018 Y157.379
G1 F1500 X144.018 Y102.621 E64.40014
G0 F3600 X141.351 Y102.621
G1 F1500 X141.351 Y157.379 E67.13203
G0 F3600 X138.684 Y157.379
G1 F1500 X138.684 Y102.621 E69.86392
G0 F3600 X136.017 Y102.621
G1 F1500 X136.017 Y157.379 E72.59581
G0 F3600 X133.35 Y157.379
G1 F1500 X133.35 Y102.621 E75.32769
G0 F3600 X130.683 Y102.621
G1 F1500 X130.683 Y157.379 E78.05958
G0 F3600 X128.016 Y157.379
G1 F1500 X128.016 Y102.621 E80.79147
G0 F3600 X125.349 Y102.621
G1 F1500 X125.349 Y157.379 E83.52336
G0 F3600 X122.682 Y157.379
G1 F1500 X122.682 Y102.621 E86.25525
G0 F3600 X120.015 Y102.621
G1 F1500 X120.015 Y157.379 E88.98713
G0 F3600 X117.348 Y157.379
G1 F1500 X117.348 Y102.621 E91.71902
G0 F3600 X114.681 Y102.621
G1 F1500 X114.681 Y157.379 E94.45091
G0 F3600 X112.014 Y157.379
G1 F1500 X112.014 Y102.621 E97.1828
G0 F3600 X109.347 Y102.621
G1 F1500 X109.347 Y157.379 E99.91468
G0 F3600 X105.368 Y154.686
G1 F1500 X154.695 Y154.686 E102.37562
G1 F3000 E99.37562
G0 F3600 X155.411 Y152.728
G0 X155.889 Y151.975
G0 X156.508 Y151.352
G0 X157.25 Y150.879
G0 X160.02 Y150.267
G1 F3000 E102.37562
G1 F1500 X160.02 Y109.723 E104.39837
G0 F3600 X161.059 Y109.347
G1 F1500 X181.842 Y109.347 E105.43523
G0 F3600 X181.842 Y112.014
G1 F1500 X98.159 Y112.014 E109.6102
G0 F3600 X98.159 Y114.681
G1 F1500 X181.842 Y114.681 E113.78516
G0 F3600 X181.842 Y117.348
G1 F1500 X98.159 Y117.348 E117.96012
G0 F3600 X98.158 Y120.015
G1 F1500 X181.842 Y120.015 E122.13513
G0 F3600 X181.842 Y122.682
G1 F1500 X98.158 Y122.682 E126.31014
G0 F3600 X98.158 Y125.349
G1 F1500 X181.842 Y125.349 E130.48515
G0 F3600 X181.842 Y128.016
G1 F1500 X98.158 Y128.016 E134.66017
G0 F3600 X98.158 Y130.683
G1 F1500 X181.842 Y130.683 E138.83518
G0 F3600 X181.842 Y133.35
G1 F1500 X98.158 Y133.35 E143.01019
G0 F3600 X98.158 Y136.017
G1 F1500 X181.842 Y136.017 E147.1852
G0 F3600 X181.842 Y138.684
G1 F1500 X98.158 Y138.684 E151.36021
G0 F3600 X98.158 Y141.351
G1 F1500 X181.842 Y141.351 E155.53523
G0 F3600 X181.842 Y144.018
G1 F1500 X98.158 Y144.018 E159.71024
G0 F3600 X98.158 Y146.685
G1 F1500 X181.842 Y146.685 E163.88525
G0 F3600 X181.842 Y149.352
G1 F1500 X98.158 Y149.352 E168.06026
G0 F3600 X98.679 Y150.865
G1 F1500 X98.679 Y109.159 E170.14098
G0 F3600 X99.041 Y109.347
G1 F1500 X98.042 Y109.347 E170.19082
G0 F3600 X101.346 Y109.842
G1 F1500 X101.346 Y150.177 E172.20314
G1 F3000 E169.20314
G0 F3600 X158.984 Y150.463
G0 X159.854 Y150.546
G0 X160.704 Y150.82
G0 X162.592 Y152.019
G1 F3000 E172.20314
G1 F1500 X183.654 Y152.019 E173.25393
G0 F3600 X183.654 Y154.686
G1 F1500 X163.369 Y154.686 E174.26595
G0 F3600 X162.687 Y156.863
G1 F1500 X162.687 Y157.542 E174.29983
G0 F3600 X162.301 Y157.353
G1 F1500 X182.065 Y157.353 E175.28586
G0 F3600 X181.356 Y157.381
G1 F1500 X181.356 Y102.62 E178.0179
G0 F3600 X178.689 Y102.62
G1 F1500 X178.689 Y157.379 E180.74983
G0 F3600 X176.022 Y157.379
G1 F1500 X176.022 Y102.62 E183.48177
G0 F3600 X173.355 Y102.62
G1 F1500 X173.355 Y157.379 E186.21371
G0 F3600 X170.688 Y157.379
G1 F1500 X170.688 Y102.62 E188.94565
G0 F3600 X168.021 Y102.62
G1 F1500 X168.021 Y157.379 E191.67758
