;FLAVOR:Marlin
;TIME:17951
;Filament used: 17.7769m
;Layer height: 0.3
;MINX:22.5
;MINY:79.3
;MINZ:0.3
;MAXX:257.5
;MAXY:180.6
;MAXZ:3
;Generated with Cura_SteamEngine 4.8.0
M140 S60
M105
M190 S60
M104 S200
M105
M109 S200
M82 ;absolute extrusion mode
M201 X500.00 Y500.00 Z100.00 E5000.00 ;Setup machine max acceleration
M203 X500.00 Y500.00 Z10.00 E50.00 ;Setup machine max feedrate
M204 P500.00 R1000.00 T500.00 ;Setup Print/Retract/Travel acceleration
M205 X8.00 Y8.00 Z0.40 E5.00 ;Setup Jerk
M220 S100 ;Reset Feedrate
M221 S100 ;Reset Flowrate

G28 ;Home

G92 E0 ;Reset Extruder
G1 Z2.0 F3000 ;Move Z Axis up
G1 X10.1 Y20 Z0.28 F5000.0 ;Move to start position
G1 X10.1 Y200.0 Z0.28 F1500.0 E15 ;Draw the first line
G1 X10.4 Y200.0 Z0.28 F5000.0 ;Move to side a little
G1 X10.4 Y20 Z0.28 F1500.0 E30 ;Draw the second line
G92 E0 ;Reset Extruder
G1 Z2.0 F3000 ;Move Z Axis up

G92 E0
G92 E0
G1 F3000 E-3
;LAYER_COUNT:10
;LAYER:0
M107
G0 F3600 X24.788 Y79.444 Z0.3
;TYPE:SKIRT
G1 F3000 E0
G1 F1200 X25.282 Y79.338 E0.02521
G1 X25.94 Y79.301 E0.05809
G1 X253.639 Y79.3 E11.41804
G1 X254.337 Y79.31 E11.45286
G1 X254.84 Y79.357 E11.47807
G1 X255.33 Y79.483 E11.50331
G1 X255.794 Y79.685 E11.52856
G1 X256.22 Y79.957 E11.55377
G1 X256.598 Y80.292 E11.57897
G1 X256.918 Y80.683 E11.60418
G1 X257.173 Y81.12 E11.62942
G1 X257.356 Y81.591 E11.65463
G1 X257.463 Y82.085 E11.67985
G1 X257.499 Y82.74 E11.71257
G1 X257.5 Y158.004 E15.46751
G1 X257.491 Y158.731 E15.50378
G1 X257.445 Y159.234 E15.52898
G1 X257.32 Y159.724 E15.55421
G1 X257.119 Y160.188 E15.57944
G1 X256.848 Y160.615 E15.60467
G1 X256.513 Y160.994 E15.62991
G1 X256.123 Y161.315 E15.65511
G1 X255.687 Y161.571 E15.68033
G1 X255.216 Y161.754 E15.70554
G1 X254.722 Y161.862 E15.73077
G1 X254.06 Y161.899 E15.76385
G1 X219.601 Y161.9 E17.48301
G1 X216.804 Y161.94 E17.62257
G1 X214.087 Y162.055 E17.75824
G1 X211.341 Y162.25 E17.89559
G1 X208.635 Y162.518 E18.03125
G1 X205.912 Y162.866 E18.16821
G1 X203.211 Y163.291 E18.30462
G1 X200.503 Y163.794 E18.44203
G1 X197.846 Y164.366 E18.57763
G1 X195.199 Y165.014 E18.71359
G1 X192.559 Y165.741 E18.8502
G1 X189.912 Y166.551 E18.9883
G1 X187.317 Y167.426 E19.12493
G1 X184.781 Y168.362 E19.25979
G1 X182.206 Y169.396 E19.39823
G1 X179.696 Y170.488 E19.53479
G1 X177.239 Y171.64 E19.67018
G1 X174.796 Y172.87 E19.80664
G1 X172.363 Y174.185 E19.94462
G1 X170.016 Y175.538 E20.07977
G1 X167.89 Y176.847 E20.20433
G1 X167.701 Y176.96 E20.21532
G1 X167.13 Y177.228 E20.24679
G1 X165.959 Y177.644 E20.30878
G1 X165.49 Y177.803 E20.33349
G1 X162.944 Y178.747 E20.46896
G1 X160.377 Y179.783 E20.60707
G1 X160.194 Y179.862 E20.61701
G1 X159.048 Y180.341 E20.67898
G1 X158.499 Y180.515 E20.70771
G1 X157.896 Y180.59 E20.73803
G1 X157.487 Y180.6 E20.75844
G1 X122.845 Y180.6 E22.48673
G1 X122.144 Y180.59 E22.52171
G1 X121.641 Y180.543 E22.54691
G1 X120.955 Y180.342 E22.58258
G1 X118.25 Y179.21 E22.72887
G1 X115.64 Y178.201 E22.86848
G1 X112.884 Y177.233 E23.01421
G1 X112.267 Y176.94 E23.04829
G1 X111.147 Y176.251 E23.11389
G1 X108.796 Y174.85 E23.25043
G1 X106.4 Y173.512 E23.38734
G1 X103.97 Y172.245 E23.52406
G1 X101.529 Y171.059 E23.65946
G1 X99.033 Y169.931 E23.79611
G1 X96.472 Y168.861 E23.93458
G1 X93.921 Y167.879 E24.07096
G1 X91.338 Y166.968 E24.2076
G1 X88.772 Y166.143 E24.34208
G1 X86.115 Y165.371 E24.48012
G1 X83.468 Y164.682 E24.61658
G1 X80.803 Y164.068 E24.75302
G1 X78.116 Y163.528 E24.88975
G1 X75.407 Y163.067 E25.02685
G1 X72.728 Y162.685 E25.16185
G1 X69.96 Y162.371 E25.30084
G1 X67.279 Y162.142 E25.43508
G1 X64.53 Y161.988 E25.57244
G1 X60.408 Y161.9 E25.77814
G1 X26.361 Y161.9 E27.47675
G1 X25.663 Y161.89 E27.51157
G1 X25.16 Y161.843 E27.53678
G1 X24.67 Y161.717 E27.56202
G1 X24.206 Y161.515 E27.58727
G1 X23.78 Y161.243 E27.61248
G1 X23.402 Y160.908 E27.63768
G1 X23.082 Y160.517 E27.66289
G1 X22.827 Y160.08 E27.68813
G1 X22.644 Y159.609 E27.71334
G1 X22.537 Y159.115 E27.73856
G1 X22.501 Y158.445 E27.77203
G1 X22.5 Y83.131 E31.52946
G1 X22.509 Y82.466 E31.56264
G1 X22.556 Y81.962 E31.5879
G1 X22.682 Y81.473 E31.61309
G1 X22.883 Y81.009 E31.63832
G1 X23.154 Y80.582 E31.66355
G1 X23.489 Y80.204 E31.68875
G1 X23.88 Y79.883 E31.71399
G1 X24.317 Y79.628 E31.73923
G1 X24.788 Y79.444 E31.76446
G1 F3000 E28.76446
;MESH:dispenser_interface.stl
G0 F3600 X26.314 Y81.835
G0 X26.314 Y83.114
G0 X47.573 Y136.225
G0 X48.346 Y137.987
G0 X49.397 Y139.595
G0 X50.699 Y141.011
G0 X52.217 Y142.192
G0 X53.907 Y143.108
G0 X55.728 Y143.731
G0 X57.623 Y144.047
G0 X59.545 Y144.047
G0 X61.44 Y143.731
G0 X63.078 Y143.171
G0 X64.984 Y142.242
G0 X64.93 Y142.159
;TYPE:WALL-INNER
G1 F3000 E31.76446
G1 F1200 X66.442 Y140.982 E31.86005
G1 X67.74 Y139.571 E31.9557
G1 X68.787 Y137.968 E32.05123
G1 X69.558 Y136.213 E32.14686
G1 X70.028 Y134.356 E32.24243
G1 X70.186 Y132.446 E32.33804
G1 X70.028 Y130.537 E32.43361
G1 X69.558 Y128.679 E32.52922
G1 X68.787 Y126.924 E32.62486
G1 X67.74 Y125.321 E32.72038
G1 X66.442 Y123.91 E32.81603
G1 X64.93 Y122.733 E32.91162
G1 X63.245 Y121.821 E33.00721
G1 X61.431 Y121.199 E33.10289
G1 X59.542 Y120.884 E33.19843
G1 X57.626 Y120.884 E33.29402
G1 X55.737 Y121.199 E33.38956
G1 X53.923 Y121.821 E33.48524
G1 X52.238 Y122.733 E33.58083
G1 X50.726 Y123.91 E33.67642
G1 X49.428 Y125.321 E33.77207
G1 X48.381 Y126.924 E33.86759
G1 X47.61 Y128.679 E33.96323
G1 X47.14 Y130.537 E34.05884
G1 X46.982 Y132.446 E34.15441
G1 X47.14 Y134.356 E34.25002
G1 X47.61 Y136.213 E34.34559
G1 X48.381 Y137.968 E34.44123
G1 X49.428 Y139.571 E34.53675
G1 X50.726 Y140.982 E34.6324
G1 X52.238 Y142.159 E34.72799
G1 X53.923 Y143.072 E34.8236
G1 X55.737 Y143.693 E34.91926
G1 X57.626 Y144.008 E35.01481
G1 X59.542 Y144.008 E35.1104
G1 X61.431 Y143.693 E35.20594
G1 X63.245 Y143.072 E35.3016
G1 X64.93 Y142.159 E35.39721
G0 F3600 X64.71 Y141.823
;TYPE:WALL-OUTER
G1 F1200 X66.17 Y140.687 E35.4895
G1 X67.423 Y139.325 E35.58183
G1 X68.434 Y137.777 E35.67407
G1 X69.178 Y136.083 E35.76638
G1 X69.632 Y134.29 E35.85866
G1 X69.785 Y132.446 E35.95097
G1 X69.632 Y130.603 E36.04323
G1 X69.178 Y128.809 E36.13556
G1 X68.434 Y127.115 E36.22786
G1 X67.423 Y125.567 E36.32011
G1 X66.17 Y124.205 E36.41244
G1 X64.71 Y123.069 E36.50473
G1 X63.084 Y122.189 E36.59697
G1 X61.333 Y121.588 E36.68933
G1 X59.509 Y121.284 E36.78158
G1 X57.659 Y121.284 E36.87388
G1 X55.835 Y121.588 E36.96614
G1 X54.084 Y122.189 E37.0585
G1 X52.458 Y123.069 E37.15074
G1 X50.998 Y124.205 E37.24303
G1 X49.745 Y125.567 E37.33536
G1 X48.734 Y127.115 E37.4276
G1 X47.99 Y128.809 E37.51991
G1 X47.536 Y130.603 E37.61223
G1 X47.383 Y132.446 E37.70449
G1 X47.536 Y134.29 E37.79681
G1 X47.99 Y136.083 E37.88908
G1 X48.734 Y137.777 E37.98139
G1 X49.745 Y139.325 E38.07363
G1 X50.998 Y140.687 E38.16596
G1 X52.458 Y141.823 E38.25825
G1 X54.084 Y142.704 E38.35052
G1 X55.835 Y143.304 E38.44286
G1 X57.659 Y143.608 E38.53512
G1 X59.509 Y143.608 E38.62741
G1 X61.333 Y143.304 E38.71967
G1 X63.084 Y142.704 E38.81201
G1 X64.71 Y141.823 E38.90428
G0 F3600 X64.95 Y142.191
G0 X64.984 Y142.242
G0 X99.711 Y140.576
G0 X99.641 Y140.506
;TYPE:WALL-INNER
G1 F1200 X99.641 Y127.806 E39.53788
G1 X74.441 Y127.806 E40.79512
G1 X74.441 Y140.506 E41.42872
G1 X99.641 Y140.506 E42.68595
G0 F3600 X99.241 Y140.106
;TYPE:WALL-OUTER
G1 F1200 X99.241 Y128.206 E43.27965
G1 X74.841 Y128.206 E44.49697
G1 X74.841 Y140.106 E45.09066
G1 X99.241 Y140.106 E46.30798
G0 F3600 X99.741 Y140.106
G0 X109.316 Y121.509
G0 X116.75 Y115.637
G0 X116.723 Y115.541
;TYPE:WALL-INNER
G1 F1200 X117.345 Y115.273 E46.34177
G1 X117.879 Y114.854 E46.37564
G1 X118.286 Y114.309 E46.40957
G1 X118.538 Y113.68 E46.44338
G1 X118.619 Y113.005 E46.47729
G1 X118.522 Y112.33 E46.51132
G1 X118.254 Y111.708 E46.54511
G1 X117.835 Y111.174 E46.57897
G1 X117.29 Y110.767 E46.61291
G1 X116.661 Y110.515 E46.64671
G1 X115.986 Y110.434 E46.68063
G1 X115.311 Y110.531 E46.71465
G1 X114.689 Y110.799 E46.74844
G1 X114.155 Y111.218 E46.7823
G1 X113.748 Y111.763 E46.81624
G1 X113.496 Y112.392 E46.85004
G1 X113.415 Y113.067 E46.88396
G1 X113.512 Y113.742 E46.91798
G1 X113.78 Y114.364 E46.95177
G1 X114.199 Y114.898 E46.98564
G1 X114.744 Y115.305 E47.01957
G1 X115.373 Y115.557 E47.05338
G1 X116.048 Y115.638 E47.0873
G1 X116.723 Y115.541 E47.12132
G0 F3600 X116.613 Y115.153
;TYPE:WALL-OUTER
G1 F1200 X117.139 Y114.926 E47.1499
G1 X117.59 Y114.572 E47.1785
G1 X117.934 Y114.112 E47.20716
G1 X118.147 Y113.58 E47.23575
G1 X118.216 Y113.01 E47.26439
G1 X118.134 Y112.44 E47.29313
G1 X117.907 Y111.914 E47.32171
G1 X117.553 Y111.463 E47.35031
G1 X117.093 Y111.119 E47.37897
G1 X116.561 Y110.906 E47.40756
G1 X115.991 Y110.837 E47.4362
G1 X115.421 Y110.919 E47.46493
G1 X114.895 Y111.146 E47.49351
G1 X114.444 Y111.5 E47.52212
G1 X114.1 Y111.96 E47.55078
G1 X113.887 Y112.492 E47.57937
G1 X113.818 Y113.062 E47.60801
G1 X113.9 Y113.632 E47.63674
G1 X114.127 Y114.158 E47.66532
G1 X114.481 Y114.609 E47.69393
G1 X114.941 Y114.953 E47.72258
G1 X115.473 Y115.166 E47.75117
G1 X116.043 Y115.235 E47.77982
G1 X116.613 Y115.153 E47.80855
G0 F3600 X116.732 Y115.576
G0 X116.75 Y115.637
G0 X163.375 Y115.653
G0 X163.399 Y115.557
;TYPE:WALL-INNER
G1 F1200 X164.074 Y115.638 E47.84247
G1 X164.749 Y115.541 E47.87649
G1 X165.371 Y115.273 E47.91028
G1 X165.905 Y114.854 E47.94414
G1 X166.312 Y114.309 E47.97808
G1 X166.564 Y113.68 E48.01188
G1 X166.645 Y113.005 E48.0458
G1 X166.548 Y112.33 E48.07982
G1 X166.28 Y111.708 E48.11361
G1 X165.861 Y111.174 E48.14747
G1 X165.316 Y110.767 E48.18141
G1 X164.687 Y110.515 E48.21522
G1 X164.012 Y110.434 E48.24913
G1 X163.337 Y110.531 E48.28315
G1 X162.715 Y110.799 E48.31694
G1 X162.181 Y111.218 E48.35081
G1 X161.774 Y111.763 E48.38474
G1 X161.522 Y112.392 E48.41855
G1 X161.441 Y113.067 E48.45247
G1 X161.538 Y113.742 E48.48649
G1 X161.806 Y114.364 E48.52028
G1 X162.225 Y114.898 E48.55414
G1 X162.77 Y115.305 E48.58808
G1 X163.399 Y115.557 E48.62188
G0 F3600 X163.499 Y115.166
;TYPE:WALL-OUTER
G1 F1200 X164.069 Y115.235 E48.65053
G1 X164.639 Y115.153 E48.67926
G1 X165.165 Y114.926 E48.70784
G1 X165.616 Y114.572 E48.73644
G1 X165.96 Y114.112 E48.7651
G1 X166.173 Y113.58 E48.79369
G1 X166.242 Y113.01 E48.82234
G1 X166.16 Y112.44 E48.85107
G1 X165.933 Y111.914 E48.87965
G1 X165.579 Y111.463 E48.90825
G1 X165.119 Y111.119 E48.93691
G1 X164.587 Y110.906 E48.9655
G1 X164.017 Y110.837 E48.99414
G1 X163.447 Y110.919 E49.02287
G1 X162.921 Y111.146 E49.05145
G1 X162.47 Y111.5 E49.08006
G1 X162.126 Y111.96 E49.10872
G1 X161.913 Y112.492 E49.13731
G1 X161.844 Y113.062 E49.16595
G1 X161.926 Y113.632 E49.19468
G1 X162.153 Y114.158 E49.22326
G1 X162.507 Y114.609 E49.25187
G1 X162.967 Y114.953 E49.28052
G1 X163.499 Y115.166 E49.30911
G0 F3600 X163.39 Y115.592
G0 X163.375 Y115.653
G0 X170.572 Y121.509
G0 X185.479 Y137.581
G0 X186.629 Y138.361
G0 X188.176 Y139.078
G0 X188.202 Y138.982
;TYPE:WALL-INNER
G1 F1200 X189.718 Y139.23 E49.38575
G1 X191.253 Y139.147 E49.46245
G1 X192.732 Y138.736 E49.53903
G1 X194.09 Y138.017 E49.61569
G1 X195.26 Y137.022 E49.69232
G1 X196.19 Y135.8 E49.76893
G1 X196.835 Y134.404 E49.84565
G1 X197.165 Y132.904 E49.92227
G1 X197.165 Y131.369 E49.99886
G1 X196.835 Y129.869 E50.07548
G1 X196.19 Y128.474 E50.15216
G1 X195.26 Y127.252 E50.22877
G1 X194.09 Y126.258 E50.30536
G1 X192.733 Y125.537 E50.38203
G1 X191.253 Y125.126 E50.45866
G1 X189.718 Y125.043 E50.53535
G1 X188.202 Y125.292 E50.612
G1 X186.775 Y125.861 E50.68864
G1 X185.505 Y126.723 E50.76522
G1 X184.448 Y127.837 E50.84183
G1 X183.656 Y129.154 E50.91851
G1 X183.166 Y130.61 E50.99515
G1 X183 Y132.137 E51.07178
G1 X183.166 Y133.663 E51.14836
G1 X183.656 Y135.119 E51.22501
G1 X184.448 Y136.436 E51.30168
G1 X185.504 Y137.551 E51.37829
G1 X186.775 Y138.413 E51.45491
G1 X188.202 Y138.982 E51.53156
G0 F3600 X188.31 Y138.594
;TYPE:WALL-OUTER
G1 F1200 X189.74 Y138.828 E51.60385
G1 X191.188 Y138.75 E51.67619
G1 X192.583 Y138.362 E51.74843
G1 X193.864 Y137.684 E51.82074
G1 X194.968 Y136.745 E51.89305
G1 X195.845 Y135.592 E51.96532
G1 X196.454 Y134.276 E52.03767
G1 X196.765 Y132.861 E52.10994
G1 X196.765 Y131.412 E52.18224
G1 X196.454 Y129.997 E52.25452
G1 X195.845 Y128.682 E52.32681
G1 X194.968 Y127.529 E52.39909
G1 X193.864 Y126.591 E52.47136
G1 X192.584 Y125.911 E52.54367
G1 X191.188 Y125.523 E52.61596
G1 X189.74 Y125.445 E52.68831
G1 X188.31 Y125.68 E52.76061
G1 X186.964 Y126.216 E52.83289
G1 X185.765 Y127.03 E52.90519
G1 X184.768 Y128.081 E52.97746
G1 X184.021 Y129.323 E53.04977
G1 X183.559 Y130.696 E53.12204
G1 X183.402 Y132.137 E53.19436
G1 X183.559 Y133.577 E53.26663
G1 X184.021 Y134.95 E53.3389
G1 X184.768 Y136.192 E53.41121
G1 X185.765 Y137.244 E53.48352
G1 X186.964 Y138.058 E53.55582
G1 X188.31 Y138.594 E53.6281
G0 F3600 X188.193 Y139.018
G0 X188.176 Y139.078
G0 X170.614 Y142.807
G0 X170.544 Y142.737
;TYPE:WALL-INNER
G1 F1200 X170.544 Y121.537 E54.68577
G1 X109.344 Y121.537 E57.73905
G1 X109.344 Y142.737 E58.79673
G1 X170.544 Y142.737 E61.85001
G0 F3600 X170.144 Y142.337
;TYPE:WALL-OUTER
G1 F1200 X170.144 Y121.937 E62.86777
G1 X109.744 Y121.937 E65.88113
G1 X109.744 Y142.337 E66.89889
G1 X170.144 Y142.337 E69.91226
G0 F3600 X170.644 Y142.337
G0 X157.189 Y173.597
G0 X157.147 Y176.73
G0 X157.217 Y176.8
;TYPE:WALL-INNER
G1 F1200 X122.784 Y176.8 E71.63013
G1 X122.783 Y173.625 E71.78853
G1 X114.543 Y173.625 E72.19963
G1 X114.542 Y158.1 E72.97417
G1 X26.3 Y158.1 E77.37659
G1 X26.3 Y83.1 E81.11835
G1 X253.7 Y83.1 E92.46338
G1 X253.7 Y158.1 E96.20515
G1 X165.458 Y158.1 E100.60756
G1 X165.458 Y173.625 E101.3821
G1 X157.217 Y173.625 E101.79325
G1 X157.217 Y176.8 E101.95165
G0 F3600 X157.617 Y177.2
;TYPE:WALL-OUTER
G1 F1200 X122.384 Y177.2 E103.70943
G1 X122.383 Y174.025 E103.86783
G1 X114.143 Y174.025 E104.27893
G1 X114.142 Y158.5 E105.05347
G1 X25.9 Y158.5 E109.45589
G1 X25.9 Y82.7 E113.23756
G1 X254.1 Y82.7 E124.62251
G1 X254.1 Y158.5 E128.40418
G1 X165.858 Y158.5 E132.8066
G1 X165.858 Y174.025 E133.58114
G1 X157.617 Y174.025 E133.99229
G1 X157.617 Y177.2 E134.15069
G0 F3600 X157.147 Y176.73
G0 X156.827 Y176.41
;TYPE:SKIN
G1 F1200 X123.174 Y176.41 E135.82964
G1 X123.173 Y173.235 E135.98804
G1 X114.933 Y173.235 E136.39914
G1 X114.932 Y157.71 E137.17368
G1 X26.69 Y157.71 E141.5761
G1 X26.69 Y83.49 E145.27895
G1 X253.31 Y83.49 E156.58506
G1 X253.31 Y157.71 E160.28792
G1 X165.068 Y157.71 E164.69033
G1 X165.068 Y173.235 E165.46487
G1 X156.827 Y173.235 E165.87602
G1 X156.827 Y176.41 E166.03442
G0 F3600 X157.189 Y173.597
G0 X170.934 Y143.127
G1 F1200 X170.934 Y121.147 E167.13101
G1 X108.954 Y121.147 E170.2232
G1 X108.954 Y143.127 E171.31979
G1 X170.934 Y143.127 E174.41198
G0 F3600 X185.25 Y137.85
G1 F1200 X186.591 Y138.76 E174.49283
G1 X188.097 Y139.36 E174.57371
G1 X189.697 Y139.622 E174.6546
G1 X191.317 Y139.535 E174.73554
G1 X192.877 Y139.101 E174.81632
G1 X194.31 Y138.342 E174.89722
G1 X195.545 Y137.291 E174.97813
G1 X196.526 Y136.003 E175.0589
G1 X197.207 Y134.529 E175.13991
G1 X197.555 Y132.947 E175.22073
G1 X197.555 Y131.326 E175.3016
G1 X197.207 Y129.744 E175.38241
G1 X196.526 Y128.271 E175.46337
G1 X195.545 Y126.983 E175.54415
G1 X194.31 Y125.934 E175.62499
G1 X192.879 Y125.172 E175.70587
G1 X191.317 Y124.738 E175.78675
G1 X189.697 Y124.651 E175.86769
G1 X188.097 Y124.914 E175.94859
G1 X186.591 Y125.514 E176.02946
G1 X185.251 Y126.424 E176.11028
G1 X184.136 Y127.599 E176.19109
G1 X183.299 Y128.99 E176.27208
G1 X182.783 Y130.526 E176.35292
G1 X182.608 Y132.137 E176.43377
G1 X182.783 Y133.747 E176.51456
G1 X183.299 Y135.283 E176.5954
G1 X184.136 Y136.674 E176.6764
G1 X185.25 Y137.85 E176.75721
G0 F3600 X170.572 Y121.509
G0 X164.078 Y116.032
G1 F1200 X164.856 Y115.919 E176.79643
G1 X165.572 Y115.611 E176.83532
G1 X166.186 Y115.129 E176.87426
G1 X166.655 Y114.502 E176.91333
G1 X166.945 Y113.777 E176.95228
G1 X167.039 Y113.001 E176.99128
G1 X166.926 Y112.223 E177.0305
G1 X166.618 Y111.507 E177.06939
G1 X166.136 Y110.893 E177.10833
G1 X165.509 Y110.424 E177.1474
G1 X164.784 Y110.134 E177.18635
G1 X164.008 Y110.04 E177.22535
G1 X163.23 Y110.153 E177.26457
G1 X162.514 Y110.461 E177.30346
G1 X161.9 Y110.943 E177.3424
G1 X161.431 Y111.57 E177.38147
G1 X161.141 Y112.295 E177.42042
