;FLAVOR:Marlin
;TIME:19434
;Filament used: 13.9225m
;Layer height: 0.15
;MINX:23.652
;MINY:7.012
;MINZ:0.3
;MAXX:258.62
;MAXY:241.95
;MAXZ:10.05
;Generated with Cura_SteamEngine 4.8.0
M140 S60
M105
M190 S60
M104 S210
M105
M109 S210
M82 ;absolute extrusion mode
M201 X500.00 Y500.00 Z100.00 E5000.00 ;Setup machine max acceleration
M203 X500.00 Y500.00 Z10.00 E50.00 ;Setup machine max feedrate
M204 P500.00 R1000.00 T500.00 ;Setup Print/Retract/Travel acceleration
M205 X8.00 Y8.00 Z0.40 E5.00 ;Setup Jerk
M220 S100 ;Reset Feedrate
M221 S100 ;Reset Flowrate

G28 ;Home

G92 E0 ;Reset Extruder
G1 Z2.0 F3000 ;Move Z Axis up
G1 X10.1 Y20 Z0.28 F5000.0 ;Move to start position
G1 X10.1 Y200.0 Z0.28 F1500.0 E15 ;Draw the first line
G1 X10.4 Y200.0 Z0.28 F5000.0 ;Move to side a little
G1 X10.4 Y20 Z0.28 F1500.0 E30 ;Draw the second line
G92 E0 ;Reset Extruder
G1 Z2.0 F3000 ;Move Z Axis up

G92 E0
G92 E0
G1 F3000 E-3
;LAYER_COUNT:66
;LAYER:0
M107
G0 F3600 X53.192 Y46.595 Z0.3
;TYPE:SKIRT
G1 F3000 E0
G1 F1500 X53.829 Y45.898 E0.04711
G1 X57.497 Y42.001 E0.31411
G1 X57.934 Y41.549 E0.34547
G1 X58.632 Y40.869 E0.39409
G1 X62.552 Y37.173 E0.66288
G1 X63.112 Y36.662 E0.7007
G1 X63.794 Y36.074 E0.74563
G1 X67.901 Y32.641 E1.01268
G1 X68.485 Y32.168 E1.05018
G1 X69.193 Y31.628 E1.0946
G1 X73.508 Y28.438 E1.36232
G1 X74.122 Y28 E1.39994
G1 X74.866 Y27.499 E1.44469
G1 X79.304 Y24.611 E1.70886
G1 X79.914 Y24.225 E1.74487
G1 X80.741 Y23.736 E1.79281
G1 X85.393 Y21.088 E2.05986
G1 X86.06 Y20.722 E2.09782
G1 X86.929 Y20.277 E2.14653
G1 X91.688 Y17.933 E2.41119
G1 X92.352 Y17.619 E2.44784
G1 X93.185 Y17.254 E2.49321
G1 X98.12 Y15.179 E2.7603
G1 X98.826 Y14.895 E2.79826
G1 X99.649 Y14.592 E2.84201
G1 X104.751 Y12.796 E3.11187
G1 X105.42 Y12.573 E3.14705
G1 X106.269 Y12.316 E3.1913
G1 X111.425 Y10.84 E3.45887
G1 X112.18 Y10.636 E3.49789
G1 X113.006 Y10.44 E3.54024
G1 X118.323 Y9.255 E3.81201
G1 X118.982 Y9.119 E3.84558
G1 X119.886 Y8.961 E3.89137
G1 X125.191 Y8.107 E4.15944
G1 X125.881 Y8.007 E4.19423
G1 X126.853 Y7.895 E4.24304
G1 X132.169 Y7.361 E4.50959
G1 X132.781 Y7.309 E4.54024
G1 X133.738 Y7.255 E4.58806
G1 X139.129 Y7.037 E4.85723
G1 X140.093 Y7.012 E4.90535
G1 X140.629 Y7.017 E4.93209
G1 X146.08 Y7.124 E5.20409
G1 X146.872 Y7.151 E5.24363
G1 X147.698 Y7.204 E5.28492
G1 X152.891 Y7.609 E5.54479
G1 X153.695 Y7.684 E5.58507
G1 X154.475 Y7.779 E5.62428
G1 X159.679 Y8.491 E5.88632
G1 X160.352 Y8.593 E5.92028
G1 X161.27 Y8.759 E5.96682
G1 X166.39 Y9.765 E6.22715
G1 X167.177 Y9.932 E6.26728
G1 X167.901 Y10.108 E6.30446
G1 X173.034 Y11.432 E6.56893
G1 X173.761 Y11.632 E6.60654
G1 X174.544 Y11.871 E6.64739
G1 X179.531 Y13.469 E6.90865
G1 X180.181 Y13.688 E6.94287
G1 X181.055 Y14.01 E6.98934
G1 X185.958 Y15.905 E7.25158
G1 X186.63 Y16.176 E7.28773
G1 X187.39 Y16.509 E7.32913
G1 X192.17 Y18.682 E7.59109
G1 X192.768 Y18.964 E7.62408
G1 X193.599 Y19.385 E7.67055
G1 X198.251 Y21.837 E7.93291
G1 X198.895 Y22.188 E7.9695
G1 X199.618 Y22.61 E8.01126
G1 X204.105 Y25.32 E8.27278
G1 X204.754 Y25.726 E8.31098
G1 X205.422 Y26.169 E8.35096
G1 X209.764 Y29.148 E8.61367
G1 X210.377 Y29.583 E8.65117
G1 X211.062 Y30.098 E8.69393
G1 X215.151 Y33.267 E8.95202
G1 X215.801 Y33.787 E8.99355
G1 X216.404 Y34.298 E9.03298
G1 X220.365 Y37.755 E9.29528
G1 X220.912 Y38.248 E9.33201
G1 X221.566 Y38.871 E9.37708
G1 X225.244 Y42.477 E9.63405
G1 X225.752 Y42.99 E9.67007
G1 X226.368 Y43.648 E9.71504
G1 X229.874 Y47.511 E9.97531
G1 X230.409 Y48.121 E10.01579
G1 X230.922 Y48.737 E10.05578
G1 X234.224 Y52.83 E10.31815
G1 X234.674 Y53.406 E10.35461
G1 X235.2 Y54.12 E10.39886
G1 X238.22 Y58.344 E10.65792
G1 X238.671 Y58.998 E10.69755
G1 X239.088 Y59.635 E10.73553
G1 X241.918 Y64.125 E11.00032
G1 X242.299 Y64.752 E11.03693
G1 X242.718 Y65.486 E11.07909
G1 X245.226 Y70.03 E11.33803
G1 X245.612 Y70.755 E11.37901
G1 X245.973 Y71.482 E11.41951
G1 X248.245 Y76.232 E11.6822
G1 X248.557 Y76.913 E11.71957
G1 X248.865 Y77.637 E11.75882
G1 X250.857 Y82.509 E12.02142
G1 X251.117 Y83.171 E12.0569
G1 X251.382 Y83.904 E12.09579
G1 X253.113 Y88.958 E12.36231
G1 X253.358 Y89.711 E12.40182
G1 X253.574 Y90.443 E12.43989
G1 X254.998 Y95.558 E12.70479
G1 X255.183 Y96.263 E12.74115
G1 X255.371 Y97.075 E12.78273
G1 X256.479 Y102.182 E13.04345
G1 X256.617 Y102.865 E13.07821
G1 X256.772 Y103.761 E13.12358
G1 X257.584 Y108.94 E13.38512
G1 X257.68 Y109.612 E13.41898
G1 X257.779 Y110.489 E13.46302
G1 X258.295 Y115.774 E13.72794
G1 X258.345 Y116.373 E13.75793
G1 X258.399 Y117.347 E13.80659
G1 X258.604 Y122.63 E14.07036
G1 X258.62 Y123.312 E14.1044
G1 X258.615 Y124.272 E14.15229
G1 X258.507 Y129.594 E14.41786
G1 X258.485 Y130.229 E14.44956
G1 X258.419 Y131.279 E14.50205
G1 X257.993 Y136.602 E14.76846
G1 X257.924 Y137.318 E14.80435
G1 X257.811 Y138.219 E14.84966
G1 X257.069 Y143.509 E15.11616
G1 X256.952 Y144.253 E15.15373
G1 X256.778 Y145.191 E15.20133
G1 X255.723 Y150.419 E15.46741
G1 X255.568 Y151.133 E15.50386
G1 X255.356 Y151.987 E15.54776
G1 X253.964 Y157.244 E15.81907
G1 X253.812 Y157.788 E15.84725
G1 X253.523 Y158.717 E15.89579
G1 X251.813 Y163.905 E16.16832
G1 X251.586 Y164.559 E16.20286
G1 X251.276 Y165.373 E16.24631
G1 X249.285 Y170.387 E16.51546
G1 X249 Y171.072 E16.55248
G1 X248.632 Y171.893 E16.59736
G1 X246.37 Y176.728 E16.86368
G1 X246.072 Y177.344 E16.89782
G1 X245.651 Y178.153 E16.94332
G1 X243.045 Y182.951 E17.21572
G1 X242.695 Y183.572 E17.25128
G1 X242.23 Y184.344 E17.29624
G1 X239.401 Y188.889 E17.56333
G1 X239.047 Y189.443 E17.59613
G1 X238.512 Y190.224 E17.64336
G1 X235.368 Y194.662 E17.91471
G1 X235.003 Y195.162 E17.94559
G1 X234.426 Y195.906 E17.99256
G1 X231.033 Y200.134 E18.26302
G1 X230.566 Y200.698 E18.29955
G1 X229.947 Y201.403 E18.34636
G1 X226.382 Y205.338 E18.61127
G1 X225.846 Y205.912 E18.65045
G1 X225.234 Y206.532 E18.69391
G1 X221.366 Y210.321 E18.96405
G1 X220.85 Y210.811 E18.99955
G1 X220.205 Y211.389 E19.04276
G1 X216.166 Y214.9 E19.30975
G1 X215.559 Y215.412 E19.34937
G1 X214.85 Y215.975 E19.39454
G1 X210.628 Y219.224 E19.66032
G1 X210.101 Y219.618 E19.69315
G1 X209.255 Y220.213 E19.74475
G1 X204.835 Y223.215 E20.01132
G1 X204.241 Y223.605 E20.04677
G1 X203.434 Y224.101 E20.09403
G1 X198.819 Y226.847 E20.36195
G1 X198.231 Y227.183 E20.39573
G1 X197.36 Y227.651 E20.44506
G1 X192.654 Y230.083 E20.70935
G1 X191.96 Y230.428 E20.74801
G1 X191.192 Y230.783 E20.79022
G1 X186.247 Y232.976 E21.0601
G1 X185.583 Y233.258 E21.09609
G1 X184.737 Y233.589 E21.14142
G1 X179.713 Y235.467 E21.409
G1 X179.009 Y235.718 E21.44629
G1 X178.164 Y235.992 E21.49061
G1 X173.011 Y237.576 E21.75957
G1 X172.416 Y237.749 E21.79048
G1 X171.432 Y238.005 E21.84121
G1 X166.249 Y239.265 E22.10732
G1 X165.486 Y239.439 E22.14636
G1 X164.665 Y239.6 E22.1881
G1 X159.292 Y240.571 E22.4605
G1 X158.64 Y240.678 E22.49347
G1 X157.716 Y240.803 E22.53999
G1 X152.392 Y241.441 E22.8075
G1 X151.671 Y241.516 E22.84367
G1 X150.734 Y241.586 E22.89054
G1 X145.428 Y241.903 E23.15573
G1 X144.668 Y241.936 E23.19369
G1 X143.799 Y241.95 E23.23705
G1 X138.389 Y241.95 E23.50695
G1 X137.678 Y241.938 E23.54243
G1 X136.724 Y241.895 E23.59007
G1 X131.404 Y241.578 E23.85596
G1 X130.798 Y241.534 E23.88627
G1 X129.758 Y241.427 E23.93843
G1 X124.469 Y240.793 E24.20419
G1 X123.709 Y240.689 E24.24246
G1 X122.812 Y240.541 E24.28782
G1 X117.506 Y239.582 E24.55682
G1 X116.907 Y239.465 E24.58727
G1 X115.971 Y239.253 E24.63515
G1 X110.717 Y237.974 E24.90493
G1 X110.01 Y237.79 E24.94138
G1 X109.152 Y237.542 E24.98594
G1 X103.992 Y235.954 E25.25528
G1 X103.335 Y235.74 E25.28976
G1 X102.421 Y235.414 E25.33817
G1 X97.45 Y233.556 E25.60293
G1 X96.749 Y233.281 E25.6405
G1 X95.919 Y232.929 E25.68548
G1 X91.001 Y230.746 E25.95392
G1 X90.363 Y230.45 E25.98901
G1 X89.503 Y230.023 E26.03692
G1 X84.74 Y227.56 E26.30443
G1 X84.13 Y227.232 E26.33899
G1 X83.341 Y226.778 E26.3844
G1 X78.721 Y224.029 E26.65261
G1 X78.099 Y223.645 E26.68908
G1 X77.351 Y223.155 E26.73369
G1 X72.921 Y220.147 E27.00084
G1 X72.307 Y219.715 E27.0383
G1 X71.54 Y219.145 E27.08597
G1 X67.34 Y215.911 E27.35043
G1 X66.812 Y215.492 E27.38406
G1 X66.056 Y214.856 E27.43335
G1 X61.997 Y211.326 E27.70172
G1 X61.446 Y210.832 E27.73864
G1 X60.842 Y210.258 E27.78021
G1 X56.937 Y206.431 E28.05299
G1 X56.48 Y205.966 E28.08552
G1 X55.813 Y205.253 E28.13423
G1 X52.257 Y201.325 E28.39857
G1 X51.739 Y200.733 E28.43782
G1 X51.182 Y200.062 E28.48133
G1 X47.789 Y195.833 E28.75183
G1 X47.444 Y195.391 E28.7798
G1 X46.815 Y194.533 E28.83288
G1 X43.701 Y190.138 E29.1016
G1 X43.323 Y189.586 E29.13498
G1 X42.826 Y188.815 E29.18075
G1 X39.979 Y184.24 E29.44958
G1 X39.608 Y183.622 E29.48554
G1 X39.171 Y182.846 E29.52997
G1 X36.619 Y178.145 E29.79684
G1 X36.308 Y177.552 E29.83024
G1 X35.853 Y176.617 E29.88212
G1 X33.608 Y171.819 E30.1464
G1 X33.325 Y171.19 E30.18081
G1 X32.949 Y170.289 E30.22952
G1 X30.981 Y165.331 E30.49565
G1 X30.706 Y164.605 E30.53438
G1 X30.403 Y163.731 E30.58053
G1 X28.733 Y158.663 E30.84675
G1 X28.538 Y158.044 E30.87913
G1 X28.273 Y157.106 E30.92776
G1 X26.891 Y151.881 E31.1974
G1 X26.717 Y151.174 E31.23372
G1 X26.533 Y150.332 E31.27672
G1 X25.456 Y144.992 E31.5485
G1 X25.335 Y144.334 E31.58188
G1 X25.193 Y143.429 E31.62758
G1 X24.452 Y138.141 E31.89398
G1 X24.358 Y137.379 E31.93228
G1 X24.268 Y136.448 E31.97894
G1 X23.844 Y131.142 E32.24451
G1 X23.796 Y130.398 E32.2817
G1 X23.764 Y129.477 E32.32768
G1 X23.656 Y124.09 E32.59649
G1 X23.652 Y123.492 E32.62633
G1 X23.674 Y122.503 E32.67568
G1 X23.889 Y117.085 E32.9462
G1 X23.925 Y116.426 E32.97912
G1 X24.009 Y115.443 E33.02834
G1 X24.533 Y110.182 E33.29212
G1 X24.62 Y109.428 E33.32998
G1 X24.758 Y108.472 E33.37817
G1 X25.602 Y103.207 E33.6442
G1 X25.725 Y102.51 E33.67951
G1 X25.908 Y101.618 E33.72494
G1 X27.092 Y96.289 E33.99728
G1 X27.212 Y95.785 E34.02313
G1 X27.5 Y94.709 E34.0787
G1 X28.948 Y89.641 E34.34167
G1 X29.162 Y88.934 E34.37852
G1 X29.463 Y88.032 E34.42596
G1 X31.217 Y83.038 E34.69003
G1 X31.454 Y82.392 E34.72436
G1 X31.826 Y81.459 E34.77447
G1 X33.891 Y76.544 E35.04044
G1 X34.202 Y75.836 E35.07902
G1 X34.575 Y75.045 E35.12266
G1 X36.945 Y70.227 E35.39053
G1 X37.284 Y69.565 E35.42764
G1 X37.733 Y68.746 E35.47424
G1 X40.362 Y64.117 E35.73983
G1 X40.755 Y63.452 E35.77836
G1 X41.234 Y62.689 E35.82331
G1 X44.159 Y58.189 E36.09107
G1 X44.547 Y57.613 E36.12572
G1 X45.104 Y56.834 E36.1735
G1 X48.26 Y52.56 E36.43856
G1 X48.721 Y51.956 E36.47647
G1 X49.292 Y51.249 E36.52181
G1 X52.752 Y47.106 E36.79111
G1 X53.192 Y46.595 E36.82475
G1 F3000 E33.82475
;MESH:dispenser_cover.stl
G0 F3600 X66.068 Y61.876
G0 X65.1 Y61.063
G0 X61.159 Y66.042
G0 X57.578 Y71.287
G0 X54.34 Y76.749
G0 X51.46 Y82.409
G0 X48.947 Y88.24
G0 X46.812 Y94.222
G0 X45.067 Y100.327
G0 X43.715 Y106.532
G0 X42.765 Y112.811
G0 X42.217 Y119.137
G0 X42.078 Y125.486
G0 X42.344 Y131.831
G0 X43.017 Y138.145
G0 X44.092 Y144.404
G0 X45.567 Y150.58
G0 X47.434 Y156.65
G0 X49.687 Y162.588
G0 X52.315 Y168.369
G0 X55.308 Y173.969
G0 X58.653 Y179.368
G0 X62.339 Y184.539
G0 X66.347 Y189.464
G0 X70.663 Y194.123
G0 X75.269 Y198.494
G0 X80.145 Y202.563
G0 X85.271 Y206.311
G0 X90.628 Y209.721
G0 X96.191 Y212.783
G0 X101.941 Y215.482
G0 X107.851 Y217.805
G0 X113.896 Y219.746
G0 X120.055 Y221.297
G0 X126.301 Y222.448
G0 X131.976 Y223.122
G0 X138.946 Y223.601
G0 X138.948 Y223.502
;TYPE:WALL-INNER
G1 F3000 E36.82475
G1 F1500 X145.295 Y223.439 E37.14142
G1 X151.625 Y222.969 E37.45809
G1 X157.913 Y222.094 E37.77483
G1 X164.131 Y220.819 E38.0915
G1 X170.256 Y219.148 E38.40824
G1 X176.26 Y217.088 E38.72492
G1 X182.12 Y214.647 E39.04163
G1 X187.811 Y211.836 E39.3583
G1 X193.31 Y208.666 E39.67497
G1 X198.596 Y205.151 E39.99167
G1 X203.645 Y201.303 E40.30838
G1 X208.438 Y197.142 E40.62505
G1 X212.953 Y192.681 E40.94171
G1 X217.174 Y187.938 E41.25847
G1 X221.083 Y182.936 E41.57519
G1 X224.663 Y177.694 E41.89188
G1 X227.899 Y172.233 E42.20857
G1 X230.778 Y166.576 E42.52525
G1 X233.29 Y160.747 E42.84191
G1 X235.424 Y154.767 E43.15868
G1 X237.169 Y148.665 E43.47532
G1 X238.52 Y142.462 E43.79204
G1 X239.47 Y136.186 E44.10872
G1 X240.018 Y129.862 E44.42541
G1 X240.157 Y123.516 E44.74209
G1 X239.891 Y117.173 E45.05882
G1 X239.218 Y110.861 E45.37551
G1 X238.143 Y104.606 E45.69215
G1 X236.669 Y98.431 E46.00888
G1 X234.803 Y92.363 E46.3256
G1 X232.551 Y86.428 E46.6423
G1 X229.924 Y80.65 E46.95896
G1 X226.932 Y75.051 E47.27568
G1 X223.588 Y69.655 E47.59239
G1 X219.904 Y64.486 E47.90906
G1 X215.897 Y59.563 E48.22575
G1 X211.583 Y54.906 E48.54245
G1 X206.979 Y50.536 E48.85914
G1 X202.104 Y46.469 E49.17588
G1 X196.981 Y42.723 E49.49251
G1 X191.626 Y39.314 E49.80921
G1 X186.065 Y36.254 E50.12588
G1 X180.317 Y33.556 E50.44267
G1 X174.41 Y31.233 E50.75934
G1 X168.367 Y29.293 E51.07598
G1 X162.211 Y27.743 E51.39269
G1 X155.968 Y26.592 E51.70941
G1 X149.664 Y25.843 E52.02613
G1 X143.326 Y25.5 E52.34279
G1 X136.979 Y25.562 E52.65946
G1 X130.649 Y26.032 E52.97614
G1 X124.361 Y26.907 E53.29287
G1 X118.143 Y28.182 E53.60954
G1 X112.018 Y29.853 E53.92628
G1 X106.014 Y31.914 E54.24298
G1 X100.154 Y34.354 E54.55967
G1 X94.463 Y37.165 E54.87634
G1 X88.963 Y40.335 E55.19305
G1 X83.678 Y43.85 E55.50971
G1 X78.628 Y47.698 E55.82647
G1 X73.836 Y51.86 E56.14312
G1 X69.321 Y56.321 E56.45978
G1 X65.1 Y61.063 E56.77651
G1 X61.191 Y66.065 E57.09322
G1 X57.611 Y71.308 E57.40996
G1 X54.375 Y76.768 E57.72661
G1 X51.496 Y82.425 E58.04328
G1 X48.984 Y88.254 E58.35995
G1 X46.85 Y94.234 E58.67672
G1 X45.105 Y100.336 E58.99335
G1 X43.754 Y106.539 E59.31008
G1 X42.804 Y112.815 E59.62676
G1 X42.256 Y119.139 E59.94344
G1 X42.117 Y125.486 E60.26017
G1 X42.383 Y131.829 E60.5769
G1 X43.056 Y138.14 E60.89355
G1 X44.131 Y144.396 E61.21023
G1 X45.605 Y150.57 E61.52691
G1 X47.471 Y156.638 E61.84364
G1 X49.723 Y162.573 E62.16034
G1 X52.35 Y168.352 E62.47704
G1 X55.342 Y173.95 E62.79372
G1 X58.686 Y179.346 E63.11043
G1 X62.37 Y184.515 E63.4271
G1 X66.377 Y189.438 E63.74379
G1 X70.691 Y194.095 E64.06049
G1 X75.295 Y198.465 E64.37718
G1 X80.169 Y202.532 E64.69388
G1 X85.293 Y206.278 E65.01055
G1 X90.648 Y209.687 E65.32725
G1 X96.209 Y212.748 E65.64395
G1 X101.956 Y215.446 E65.96069
G1 X107.864 Y217.768 E66.27739
G1 X113.907 Y219.708 E66.59403
G1 X120.063 Y221.258 E66.91074
G1 X126.306 Y222.409 E67.22745
G1 X132.61 Y223.158 E67.54417
G1 X138.948 Y223.502 E67.86084
G0 F3600 X138.957 Y223.102
;TYPE:WALL-OUTER
G1 F1500 X145.278 Y223.039 E68.17621
G1 X151.583 Y222.571 E68.49164
G1 X157.845 Y221.7 E68.80706
G1 X164.038 Y220.43 E69.12246
G1 X170.138 Y218.765 E69.43792
G1 X176.118 Y216.714 E69.75332
G1 X181.954 Y214.283 E70.06873
G1 X187.622 Y211.483 E70.38413
G1 X193.099 Y208.326 E70.69953
G1 X198.364 Y204.825 E71.01497
G1 X203.392 Y200.993 E71.33036
G1 X208.166 Y196.848 E71.64579
G1 X212.663 Y192.405 E71.96118
G1 X216.867 Y187.682 E72.27663
G1 X220.76 Y182.7 E72.59207
G1 X224.325 Y177.479 E72.90748
G1 X227.548 Y172.04 E73.22289
G1 X230.416 Y166.406 E73.5383
G1 X232.918 Y160.6 E73.85371
G1 X235.043 Y154.645 E74.16916
G1 X236.781 Y148.567 E74.48454
G1 X238.126 Y142.389 E74.79999
G1 X239.073 Y136.139 E75.11536
G1 X239.618 Y129.84 E75.43079
G1 X239.757 Y123.52 E75.74617
G1 X239.492 Y117.203 E76.06161
G1 X238.822 Y110.916 E76.37704
G1 X237.751 Y104.686 E76.69242
G1 X236.283 Y98.536 E77.00786
G1 X234.424 Y92.493 E77.32329
G1 X232.182 Y86.582 E77.63869
G1 X229.565 Y80.827 E77.9541
G1 X226.585 Y75.251 E78.26953
G1 X223.255 Y69.877 E78.58494
G1 X219.586 Y64.729 E78.90033
G1 X215.595 Y59.825 E79.21577
G1 X211.298 Y55.187 E79.53121
G1 X206.713 Y50.835 E79.84659
G1 X201.858 Y46.784 E80.16205
G1 X196.755 Y43.054 E80.4774
G1 X191.422 Y39.658 E80.79283
G1 X185.883 Y36.611 E81.10822
G1 X180.159 Y33.924 E81.42369
G1 X174.276 Y31.61 E81.73909
G1 X168.257 Y29.678 E82.05447
G1 X162.126 Y28.134 E82.36989
G1 X155.908 Y26.988 E82.68534
G1 X149.63 Y26.242 E83.00075
G1 X143.317 Y25.9 E83.31617
G1 X136.996 Y25.962 E83.63154
G1 X130.691 Y26.43 E83.94696
G1 X124.429 Y27.301 E84.26238
G1 X118.236 Y28.571 E84.57778
G1 X112.136 Y30.236 E84.89325
G1 X106.156 Y32.288 E85.20867
G1 X100.32 Y34.718 E85.52406
G1 X94.652 Y37.518 E85.83946
G1 X89.174 Y40.675 E86.15489
