;FLAVOR:Marlin
;TIME:79024
;Filament used: 60.7579m
;Layer height: 0.15
;MINX:22.5
;MINY:10.15
;MINZ:0.3
;MAXX:257.5
;MAXY:249.849
;MAXZ:15
;Generated with Cura_SteamEngine 4.8.0
M140 S60
M105
M190 S60
M104 S200
M105
M109 S200
M82 ;absolute extrusion mode
M201 X500.00 Y500.00 Z100.00 E5000.00 ;Setup machine max acceleration
M203 X500.00 Y500.00 Z10.00 E50.00 ;Setup machine max feedrate
M204 P500.00 R1000.00 T500.00 ;Setup Print/Retract/Travel acceleration
M205 X8.00 Y8.00 Z0.40 E5.00 ;Setup Jerk
M220 S100 ;Reset Feedrate
M221 S100 ;Reset Flowrate

G28 ;Home

G92 E0 ;Reset Extruder
G1 Z2.0 F3000 ;Move Z Axis up
G1 X10.1 Y20 Z0.28 F5000.0 ;Move to start position
G1 X10.1 Y200.0 Z0.28 F1500.0 E15 ;Draw the first line
G1 X10.4 Y200.0 Z0.28 F5000.0 ;Move to side a little
G1 X10.4 Y20 Z0.28 F1500.0 E30 ;Draw the second line
G92 E0 ;Reset Extruder
G1 Z2.0 F3000 ;Move Z Axis up

G92 E0
G92 E0
G1 F3000 E-3
;LAYER_COUNT:99
;LAYER:0
M107
G0 F3600 X55.904 Y50.317 Z0.3
;TYPE:SKIRT
G1 F3000 E0
G1 F1500 X56.437 Y49.763 E0.03835
G1 X57.063 Y49.147 E0.08217
G1 X61.008 Y45.39 E0.35396
G1 X61.435 Y44.993 E0.38305
G1 X62.168 Y44.352 E0.43163
G1 X66.375 Y40.8 E0.70632
G1 X66.889 Y40.38 E0.73944
G1 X67.616 Y39.819 E0.78525
G1 X71.985 Y36.56 E1.05718
G1 X72.525 Y36.17 E1.09042
G1 X73.325 Y35.627 E1.13865
G1 X77.802 Y32.685 E1.40592
G1 X78.433 Y32.285 E1.44319
G1 X79.219 Y31.817 E1.48883
G1 X83.903 Y29.129 E1.75826
G1 X84.551 Y28.769 E1.79525
G1 X85.317 Y28.374 E1.83825
G1 X90.229 Y25.932 E2.11192
G1 X90.808 Y25.656 E2.14392
G1 X91.719 Y25.252 E2.19364
G1 X96.665 Y23.154 E2.46168
G1 X97.231 Y22.922 E2.4922
G1 X98.174 Y22.569 E2.54243
G1 X102.325 Y21.094 E2.76221
G1 X104.931 Y20.127 E2.90089
G1 X107.444 Y19.112 E3.0361
G1 X109.996 Y17.996 E3.17506
G1 X112.465 Y16.833 E3.31122
G1 X114.882 Y15.608 E3.44641
G1 X117.305 Y14.295 E3.5839
G1 X119.641 Y12.94 E3.71863
G1 X122.015 Y11.474 E3.85783
G1 X122.352 Y11.254 E3.87791
G1 X123.29 Y10.659 E3.93333
G1 X123.737 Y10.423 E3.95855
G1 X124.236 Y10.255 E3.98482
G1 X124.921 Y10.16 E4.01932
G1 X125.33 Y10.15 E4.03973
G1 X126.891 Y10.15 E4.11761
G1 X127.674 Y10.162 E4.15668
G1 X128.207 Y10.195 E4.18332
G1 X129.735 Y10.339 E4.25989
G1 X130.854 Y10.462 E4.31605
G1 X133.592 Y10.684 E4.4531
G1 X136.34 Y10.827 E4.59038
G1 X139.057 Y10.893 E4.72598
G1 X141.811 Y10.881 E4.86338
G1 X144.53 Y10.793 E4.9991
G1 X147.241 Y10.629 E5.1346
G1 X151.185 Y10.252 E5.33226
G1 X151.542 Y10.216 E5.35016
G1 X152.261 Y10.166 E5.38612
G1 X152.442 Y10.158 E5.39516
G1 X153.066 Y10.15 E5.42629
G1 X154.339 Y10.15 E5.4898
G1 X155.041 Y10.16 E5.52483
G1 X155.544 Y10.207 E5.55003
G1 X156.034 Y10.333 E5.57528
G1 X156.497 Y10.535 E5.60048
G1 X156.92 Y10.795 E5.62525
G1 X159.279 Y12.293 E5.76466
G1 X161.608 Y13.682 E5.89995
G1 X164.018 Y15.03 E6.03772
G1 X166.446 Y16.296 E6.17433
G1 X168.884 Y17.483 E6.30961
G1 X171.386 Y18.613 E6.44658
G1 X173.928 Y19.678 E6.58408
G1 X177.63 Y21.081 E6.78159
G1 X181.948 Y22.614 E7.01019
G1 X182.636 Y22.871 E7.04683
G1 X183.45 Y23.202 E7.09067
G1 X188.427 Y25.315 E7.36043
G1 X189.11 Y25.618 E7.3977
G1 X189.935 Y26.013 E7.44334
G1 X194.781 Y28.423 E7.71335
G1 X195.339 Y28.71 E7.74466
G1 X196.19 Y29.181 E7.79318
G1 X200.91 Y31.892 E8.06474
G1 X201.45 Y32.213 E8.09609
G1 X202.276 Y32.737 E8.14489
G1 X206.827 Y35.727 E8.41656
G1 X207.322 Y36.063 E8.4464
G1 X208.137 Y36.651 E8.49654
G1 X212.513 Y39.918 E8.76899
G1 X213.059 Y40.339 E8.80339
G1 X213.749 Y40.903 E8.84785
G1 X217.887 Y44.4 E9.11815
G1 X218.448 Y44.889 E9.15527
G1 X219.112 Y45.502 E9.20036
G1 X223.022 Y49.229 E9.46985
G1 X223.487 Y49.685 E9.50234
G1 X224.139 Y50.363 E9.54927
G1 X227.848 Y54.348 E9.82087
G1 X228.289 Y54.835 E9.85365
G1 X228.933 Y55.59 E9.90316
G1 X232.4 Y59.797 E10.17514
G1 X232.828 Y60.331 E10.20928
G1 X233.366 Y61.047 E10.25396
G1 X236.58 Y65.461 E10.52637
G1 X236.915 Y65.935 E10.55533
G1 X237.488 Y66.797 E10.60697
G1 X240.42 Y71.377 E10.87828
G1 X240.728 Y71.873 E10.9074
G1 X241.234 Y72.746 E10.95775
G1 X243.873 Y77.466 E11.22753
G1 X244.171 Y78.017 E11.25879
G1 X244.615 Y78.899 E11.30805
G1 X247 Y83.842 E11.58186
G1 X247.231 Y84.338 E11.60916
G1 X247.631 Y85.268 E11.65967
G1 X249.709 Y90.326 E11.93248
G1 X249.917 Y90.853 E11.96075
G1 X250.266 Y91.819 E12.01199
G1 X252.013 Y96.931 E12.28151
G1 X252.244 Y97.642 E12.31881
G1 X252.5 Y98.516 E12.36424
G1 X253.95 Y103.761 E12.63573
G1 X254.099 Y104.33 E12.66508
G1 X254.319 Y105.291 E12.71426
G1 X255.456 Y110.633 E12.98674
G1 X255.584 Y111.282 E13.01975
G1 X255.748 Y112.265 E13.06947
G1 X256.546 Y117.562 E13.33672
G1 X256.632 Y118.193 E13.36849
G1 X256.734 Y119.139 E13.41596
G1 X257.224 Y124.589 E13.68896
G1 X257.276 Y125.295 E13.72427
G1 X257.318 Y126.22 E13.77047
G1 X257.478 Y131.607 E14.03935
G1 X257.5 Y133.113 E14.11449
G1 X257.499 Y242.998 E19.59667
G1 X257.489 Y243.695 E19.63145
G1 X257.435 Y244.332 E19.66335
G1 X257.357 Y244.862 E19.69007
G1 X257.17 Y245.564 E19.72632
G1 X256.961 Y246.097 E19.75488
G1 X256.843 Y246.375 E19.76995
G1 X256.474 Y247.018 E19.80693
G1 X256.116 Y247.501 E19.83693
G1 X255.924 Y247.745 E19.85242
G1 X255.405 Y248.264 E19.88904
G1 X254.933 Y248.636 E19.91902
G1 X254.722 Y248.793 E19.93214
G1 X254.091 Y249.159 E19.96853
G1 X253.523 Y249.405 E19.99941
G1 X253.288 Y249.499 E20.01204
G1 X252.574 Y249.693 E20.04895
G1 X252.027 Y249.775 E20.07655
G1 X251.384 Y249.839 E20.10879
G1 X251.035 Y249.849 E20.12621
G1 X29.35 Y249.849 E31.18612
G1 X28.627 Y249.838 E31.22219
G1 X28.014 Y249.785 E31.25289
G1 X27.492 Y249.709 E31.2792
G1 X26.778 Y249.518 E31.31608
G1 X26.164 Y249.275 E31.34902
G1 X25.979 Y249.196 E31.35906
G1 X25.328 Y248.822 E31.39652
G1 X24.846 Y248.464 E31.42647
G1 X24.605 Y248.274 E31.44178
G1 X24.086 Y247.755 E31.4784
G1 X23.715 Y247.285 E31.50827
G1 X23.557 Y247.073 E31.52146
G1 X23.189 Y246.438 E31.55808
G1 X22.939 Y245.86 E31.5895
G1 X22.849 Y245.634 E31.60163
G1 X22.657 Y244.924 E31.63833
G1 X22.575 Y244.377 E31.66592
G1 X22.511 Y243.735 E31.69811
G1 X22.501 Y243.387 E31.71548
G1 X22.5 Y133.005 E37.22246
G1 X22.524 Y131.479 E37.2986
G1 X22.689 Y126.037 E37.57023
G1 X22.722 Y125.307 E37.60669
G1 X22.789 Y124.426 E37.65077
G1 X23.276 Y119.038 E37.92067
G1 X23.346 Y118.368 E37.95428
G1 X23.47 Y117.446 E38.00069
G1 X24.286 Y112.049 E38.27301
G1 X24.404 Y111.35 E38.30838
G1 X24.589 Y110.409 E38.35622
G1 X25.707 Y105.163 E38.62382
G1 X25.859 Y104.502 E38.65766
G1 X26.096 Y103.587 E38.70482
G1 X27.552 Y98.331 E38.97692
G1 X27.746 Y97.674 E39.01109
G1 X28.039 Y96.774 E39.05831
G1 X29.788 Y91.669 E39.32754
G1 X30.021 Y91.018 E39.36203
G1 X30.376 Y90.117 E39.41035
G1 X32.406 Y85.179 E39.67671
G1 X32.663 Y84.576 E39.70941
G1 X33.108 Y83.614 E39.76229
G1 X35.441 Y78.786 E40.02981
G1 X35.756 Y78.159 E40.06482
G1 X36.223 Y77.293 E40.1139
G1 X38.839 Y72.615 E40.3813
G1 X39.193 Y72.005 E40.41649
G1 X39.699 Y71.188 E40.46443
G1 X42.592 Y66.675 E40.73188
G1 X42.986 Y66.081 E40.76744
G1 X43.569 Y65.254 E40.81792
G1 X46.713 Y60.941 E41.0842
G1 X47.129 Y60.388 E41.11872
G1 X47.747 Y59.615 E41.1681
G1 X51.171 Y55.465 E41.43652
G1 X51.618 Y54.94 E41.47092
G1 X52.243 Y54.249 E41.5174
G1 X55.904 Y50.317 E41.78544
G0 F3600 X61.452 Y53.781
;TYPE:SUPPORT
G1 F1500 X66.339 Y49.18 E42.1203
G1 X71.492 Y44.887 E42.45491
G1 X76.89 Y40.915 E42.78927
G1 X82.541 Y37.263 E43.12495
G1 X88.379 Y33.972 E43.4593
G1 X94.398 Y31.042 E43.79328
G1 X100.624 Y28.463 E44.12949
G1 X106.948 Y26.281 E44.46325
G1 X113.416 Y24.478 E44.79824
G1 X119.978 Y23.071 E45.13306
G1 X126.624 Y22.058 E45.46846
G1 X133.275 Y21.454 E45.80165
G1 X140 Y21.251 E46.13731
G1 X146.725 Y21.454 E46.47298
G1 X153.376 Y22.058 E46.80616
G1 X160.022 Y23.071 E47.14156
G1 X166.584 Y24.478 E47.47638
G1 X173.052 Y26.281 E47.81137
G1 X179.376 Y28.463 E48.14513
G1 X185.602 Y31.042 E48.48134
G1 X191.621 Y33.972 E48.81532
G1 X197.459 Y37.263 E49.14967
G1 X203.11 Y40.915 E49.48535
G1 X208.508 Y44.887 E49.81971
G1 X213.661 Y49.18 E50.15432
G1 X218.548 Y53.781 E50.48919
G1 X223.143 Y58.66 E50.82356
G1 X227.45 Y63.827 E51.15915
G1 X231.418 Y69.216 E51.49303
G1 X235.072 Y74.866 E51.82872
G1 X238.362 Y80.697 E52.16274
G1 X241.295 Y86.718 E52.49688
G1 X243.875 Y92.942 E52.83301
G1 X246.062 Y99.276 E53.16733
G1 X247.863 Y105.728 E53.50152
G1 X249.277 Y112.305 E53.83715
G1 X250.288 Y118.943 E54.17214
G1 X250.894 Y125.596 E54.50543
G1 X251.1 Y132.339 E54.842
G1 X251.1 Y243.45 E60.38535
G1 X28.9 Y243.45 E71.47095
G1 X28.9 Y132.351 E77.0137
G1 X29.106 Y125.596 E77.35087
G1 X29.712 Y118.943 E77.68416
G1 X30.724 Y112.305 E78.01916
G1 X32.131 Y105.752 E78.35354
G1 X33.938 Y99.276 E78.68897
G1 X36.125 Y92.942 E79.02328
G1 X38.695 Y86.74 E79.35822
G1 X41.638 Y80.697 E79.69355
G1 X44.928 Y74.866 E80.02758
G1 X48.582 Y69.216 E80.36327
G1 X52.55 Y63.827 E80.69715
G1 X56.841 Y58.678 E81.03154
G1 X61.452 Y53.781 E81.36711
G0 F3600 X61.341 Y54.016
G1 F1500 X61.341 Y243.37 E90.81402
G0 F3600 X58.674 Y243.37
G1 F1500 X58.674 Y56.848 E100.11964
G0 F3600 X59.466 Y56.007
G1 F1500 X220.536 Y56.007 E108.15546
G0 F3600 X221.361 Y56.885
G1 F1500 X221.361 Y243.37 E117.45923
G0 F3600 X218.694 Y243.37
G1 F1500 X218.694 Y54.054 E126.90424
G0 F3600 X217.964 Y53.34
G1 F1500 X62.037 Y53.34 E134.68347
G0 F3600 X64.008 Y51.484
G1 F1500 X64.008 Y243.37 E144.25671
G0 F3600 X66.675 Y243.37
G1 F1500 X66.675 Y49.003 E153.95371
G0 F3600 X67.872 Y48.006
G1 F1500 X212.129 Y48.006 E161.15073
G0 F3600 X213.36 Y49.033
G1 F1500 X213.36 Y243.37 E170.84624
G0 F3600 X210.693 Y243.37
G1 F1500 X210.693 Y46.811 E180.65261
G0 F3600 X208.928 Y45.339
G1 F1500 X71.073 Y45.339 E187.53022
G0 F3600 X72.009 Y44.605
G1 F1500 X72.009 Y243.37 E197.44665
G0 F3600 X69.342 Y243.37
G1 F1500 X69.342 Y46.781 E207.25451
G0 F3600 X64.869 Y50.673
G1 F1500 X215.132 Y50.673 E214.75116
G0 F3600 X216.027 Y51.518
G1 F1500 X216.027 Y243.37 E224.3227
G0 F3600 X208.026 Y243.37
G1 F1500 X208.026 Y44.632 E234.23778
G0 F3600 X205.365 Y42.672
G1 F1500 X74.636 Y42.672 E240.75987
G0 F3600 X74.676 Y42.643
G1 F1500 X74.676 Y243.37 E250.77418
G0 F3600 X77.343 Y243.37
G1 F1500 X77.343 Y40.717 E260.88458
G0 F3600 X78.445 Y40.005
G1 F1500 X201.556 Y40.005 E267.02662
G0 F3600 X202.692 Y40.741
G1 F1500 X202.692 Y243.37 E277.13582
G0 F3600 X200.025 Y243.37
G1 F1500 X200.025 Y39.017 E287.33103
G0 F3600 X197.43 Y37.338
G1 F1500 X82.571 Y37.338 E293.06137
G0 F3600 X82.677 Y37.277
G1 F1500 X82.677 Y243.37 E303.34339
G0 F3600 X80.01 Y243.37
G1 F1500 X80.01 Y38.994 E313.53975
G0 F3600 X85.344 Y35.774
G1 F1500 X85.344 Y243.37 E323.89676
G0 F3600 X88.011 Y243.37
G1 F1500 X88.011 Y34.271 E334.32875
G0 F3600 X87.301 Y34.671
G1 F1500 X192.7 Y34.671 E339.58713
G0 F3600 X192.024 Y34.292
G1 F1500 X192.024 Y243.37 E350.01807
G0 F3600 X189.357 Y243.37
G1 F1500 X189.357 Y32.96 E360.51547
G0 F3600 X187.396 Y32.004
G1 F1500 X92.605 Y32.004 E365.24461
G0 F3600 X93.345 Y31.644
G1 F1500 X93.345 Y243.37 E375.80766
G0 F3600 X90.678 Y243.37
G1 F1500 X90.678 Y32.942 E386.30596
G0 F3600 X96.012 Y30.46
G1 F1500 X96.012 Y243.37 E396.92808
G0 F3600 X98.679 Y243.37
G1 F1500 X98.679 Y29.355 E407.60533
G0 F3600 X98.723 Y29.337
G1 F1500 X181.278 Y29.337 E411.72402
G0 F3600 X181.356 Y29.371
G1 F1500 X181.356 Y243.37 E422.40047
G0 F3600 X178.689 Y243.37
G1 F1500 X178.689 Y28.311 E433.12981
G0 F3600 X176.022 Y27.391
G1 F1500 X176.022 Y243.37 E443.90505
G0 F3600 X173.355 Y243.37
G1 F1500 X173.355 Y26.47 E454.72623
G0 F3600 X173.939 Y26.67
G1 F1500 X106.062 Y26.67 E458.11263
G0 F3600 X106.68 Y26.457
G1 F1500 X106.68 Y243.37 E468.93446
G0 F3600 X104.013 Y243.37
G1 F1500 X104.013 Y27.378 E479.71035
G0 F3600 X101.346 Y28.298
G1 F1500 X101.346 Y243.37 E490.44033
G0 F3600 X109.347 Y243.37
G1 F1500 X109.347 Y25.695 E501.30018
G0 F3600 X112.014 Y24.951
G1 F1500 X112.014 Y243.37 E512.19715
G0 F3600 X114.681 Y243.37
G1 F1500 X114.681 Y24.288 E523.12719
G0 F3600 X116.01 Y24.003
G1 F1500 X163.991 Y24.003 E525.52098
G0 F3600 X162.687 Y23.725
G1 F1500 X162.687 Y243.37 E536.47911
G0 F3600 X160.02 Y243.37
G1 F1500 X160.02 Y23.154 E547.46573
G0 F3600 X157.353 Y22.746
G1 F1500 X157.353 Y243.37 E558.47271
G0 F3600 X154.686 Y243.37
G1 F1500 X154.686 Y22.34 E569.49994
G0 F3600 X152.019 Y22.016
G1 F1500 X152.019 Y243.37 E580.54333
G0 F3600 X149.352 Y243.37
G1 F1500 X149.352 Y21.773 E591.59885
G0 F3600 X146.685 Y21.533
G1 F1500 X146.685 Y243.37 E602.66635
G0 F3600 X144.018 Y243.37
G1 F1500 X144.018 Y21.453 E613.73783
G0 F3600 X141.351 Y21.372
G1 F1500 X141.351 Y243.37 E624.81336
G0 F3600 X138.684 Y243.37
G1 F1500 X138.684 Y21.37 E635.88898
G0 F3600 X139.802 Y21.336
G1 F1500 X140.199 Y21.336 E635.90879
G0 F3600 X136.017 Y21.451
G1 F1500 X136.017 Y243.37 E646.98037
G0 F3600 X133.35 Y243.37
G1 F1500 X133.35 Y21.531 E658.04796
G0 F3600 X130.683 Y21.769
G1 F1500 X130.683 Y243.37 E669.10368
G0 F3600 X128.016 Y243.37
G1 F1500 X128.016 Y22.011 E680.14733
G0 F3600 X125.349 Y22.333
G1 F1500 X125.349 Y243.37 E691.17491
G0 F3600 X122.682 Y243.37
G1 F1500 X122.682 Y22.74 E702.18218
G0 F3600 X120.015 Y23.146
G1 F1500 X120.015 Y243.37 E713.1692
G0 F3600 X117.348 Y243.37
G1 F1500 X117.348 Y23.717 E724.12774
G0 F3600 X165.354 Y24.297
G1 F1500 X165.354 Y243.37 E735.05733
G0 F3600 X168.021 Y243.37
G1 F1500 X168.021 Y24.962 E745.95375
G0 F3600 X170.688 Y25.706
G1 F1500 X170.688 Y243.37 E756.81305
G0 F3600 X184.023 Y243.37
G1 F1500 X184.023 Y30.476 E767.43438
G0 F3600 X186.69 Y31.662
G1 F1500 X186.69 Y243.37 E777.99653
G0 F3600 X194.691 Y243.37
G1 F1500 X194.691 Y35.795 E788.35249
G0 F3600 X197.358 Y37.298
G1 F1500 X197.358 Y243.37 E798.63347
G0 F3600 X205.359 Y243.37
G1 F1500 X205.359 Y42.669 E808.64648
G0 F3600 X223.048 Y58.674
G1 F1500 X56.955 Y58.674 E816.93289
G0 F3600 X56.007 Y59.803
G1 F1500 X56.007 Y243.37 E826.09109
G0 F3600 X53.34 Y243.37
G1 F1500 X53.34 Y63.004 E835.08958
G0 F3600 X52.516 Y64.008
G1 F1500 X227.485 Y64.008 E843.81882
G0 F3600 X226.695 Y63.048
G1 F1500 X226.695 Y243.37 E852.81512
G0 F3600 X224.028 Y243.37
G1 F1500 X224.028 Y59.847 E861.97112
G0 F3600 X225.275 Y61.341
G1 F1500 X54.726 Y61.341 E870.47985
G0 F3600 X50.673 Y66.511
G1 F1500 X50.673 Y243.37 E879.30338
G0 F3600 X48.006 Y243.37
G1 F1500 X48.006 Y70.254 E887.94017
G0 F3600 X48.596 Y69.342
G1 F1500 X231.405 Y69.342 E897.06055
G0 F3600 X232.029 Y70.309
G1 F1500 X232.029 Y243.37 E905.6946
G0 F3600 X229.362 Y243.37
G1 F1500 X229.362 Y66.559 E914.51573
G0 F3600 X229.449 Y66.675
G1 F1500 X50.552 Y66.675 E923.44094
G0 F3600 X46.871 Y72.009
G1 F1500 X233.13 Y72.009 E932.73344
G0 F3600 X234.696 Y74.433
G1 F1500 X234.696 Y243.37 E941.16174
G0 F3600 X237.363 Y243.37
G1 F1500 X237.363 Y79.09 E949.3577
G0 F3600 X237.883 Y80.01
G1 F1500 X42.117 Y80.01 E959.12451
G0 F3600 X42.672 Y79.027
G1 F1500 X42.672 Y243.37 E967.32362
G0 F3600 X40.005 Y243.37
G1 F1500 X40.005 Y84.234 E975.26294
G0 F3600 X39.464 Y85.344
G1 F1500 X240.537 Y85.344 E985.29452
G0 F3600 X240.03 Y84.306
G1 F1500 X240.03 Y243.37 E993.23025
G0 F3600 X242.697 Y243.37
G1 F1500 X242.697 Y90.311 E1000.8664
G0 F3600 X242.85 Y90.678
G1 F1500 X37.15 Y90.678 E1011.12881
G0 F3600 X37.338 Y90.224
G1 F1500 X37.338 Y243.37 E1018.76929
G0 F3600 X34.671 Y243.37
G1 F1500 X34.671 Y97.397 E1026.05192
G0 F3600 X34.228 Y98.679
G1 F1500 X245.772 Y98.679 E1036.60589
G0 F3600 X245.364 Y97.499
G1 F1500 X245.364 Y243.37 E1043.88342
G0 F3600 X248.031 Y243.37
G1 F1500 X248.031 Y106.891 E1050.69239
G0 F3600 X247.987 Y106.68
G1 F1500 X32.013 Y106.68 E1061.46738
G0 F3600 X32.004 Y106.723
G1 F1500 X32.004 Y243.37 E1068.28472
G0 F3600 X29.337 Y243.37
G1 F1500 X29.337 Y123.938 E1074.24321
G0 F3600 X29.451 Y122.682
G1 F1500 X250.549 Y122.682 E1085.27383
G0 F3600 X250.698 Y124.323
G1 F1500 X250.698 Y243.37 E1091.21311
G0 F3600 X251.019 Y242.697
G1 F1500 X28.979 Y242.697 E1102.29073
G0 F3600 X28.979 Y240.03
G1 F1500 X251.019 Y240.03 E1113.36835
G0 F3600 X251.02 Y237.363
G1 F1500 X28.979 Y237.363 E1124.44602
G0 F3600 X28.979 Y234.696
G1 F1500 X251.02 Y234.696 E1135.52369
G0 F3600 X251.02 Y232.029
G1 F1500 X28.979 Y232.029 E1146.60136
G0 F3600 X28.979 Y229.362
G1 F1500 X251.02 Y229.362 E1157.67903
G0 F3600 X251.02 Y226.695
G1 F1500 X28.979 Y226.695 E1168.75671
G0 F3600 X28.979 Y224.028
