;FLAVOR:Marlin
;TIME:4523
;Filament used: 5.81444m
;Layer height: 0.3
;MINX:94.814
;MINY:98.908
;MINZ:0.3
;MAXX:185.699
;MAXY:161.056
;MAXZ:12
;Generated with Cura_SteamEngine 4.8.0
M140 S60
M105
M190 S60
M104 S200
M105
M109 S200
M82 ;absolute extrusion mode
M201 X500.00 Y500.00 Z100.00 E5000.00 ;Setup machine max acceleration
M203 X500.00 Y500.00 Z10.00 E50.00 ;Setup machine max feedrate
M204 P500.00 R1000.00 T500.00 ;Setup Print/Retract/Travel acceleration
M205 X8.00 Y8.00 Z0.40 E5.00 ;Setup Jerk
M220 S100 ;Reset Feedrate
M221 S100 ;Reset Flowrate

G28 ;Home

G92 E0 ;Reset Extruder
G1 Z2.0 F3000 ;Move Z Axis up
G1 X10.1 Y20 Z0.28 F5000.0 ;Move to start position
G1 X10.1 Y200.0 Z0.28 F1500.0 E15 ;Draw the first line
G1 X10.4 Y200.0 Z0.28 F5000.0 ;Move to side a little
G1 X10.4 Y20 Z0.28 F1500.0 E30 ;Draw the second line
G92 E0 ;Reset Extruder
G1 Z2.0 F3000 ;Move Z Axis up

G92 E0
G92 E0
G1 F3000 E-3
;LAYER_COUNT:40
;LAYER:0
M107
G0 F3600 X96.653 Y100.82 Z0.3
;TYPE:SKIRT
G1 F3000 E0
G1 F1500 X97.159 Y100.411 E0.03246
G1 X97.698 Y100.059 E0.06458
G1 X98.349 Y99.733 E0.1009
G1 X98.996 Y99.508 E0.13508
G1 X99.499 Y99.391 E0.16084
G1 X100.195 Y99.307 E0.19582
G1 X100.477 Y99.29 E0.20991
G1 X101.391 Y99.276 E0.25552
G1 X167.443 Y99.277 E3.55086
G1 X170.24 Y99.237 E3.69042
G1 X172.963 Y99.122 E3.82639
G1 X175.054 Y98.976 E3.93097
G1 X175.423 Y98.956 E3.9494
G1 X176.463 Y98.918 E4.00132
G1 X176.93 Y98.908 E4.02463
G1 X177.571 Y98.959 E4.05671
G1 X178.087 Y99.084 E4.0832
G1 X180.801 Y99.772 E4.22288
G1 X182.532 Y100.166 E4.31145
G1 X183.231 Y100.387 E4.34802
G1 X183.695 Y100.589 E4.37327
G1 X184.12 Y100.862 E4.39847
G1 X184.498 Y101.198 E4.42371
G1 X184.817 Y101.575 E4.44834
G1 X185.105 Y101.991 E4.47359
G1 X185.323 Y102.447 E4.4988
G1 X185.466 Y102.931 E4.52398
G1 X185.51 Y103.189 E4.53704
G1 X185.592 Y103.842 E4.56987
G1 X185.628 Y104.345 E4.59503
G1 X185.629 Y104.449 E4.60022
G1 X185.679 Y106.109 E4.68308
G1 X185.669 Y106.308 E4.69302
G1 X185.699 Y107.633 E4.75914
G1 X185.693 Y109.067 E4.83068
G1 X185.678 Y110.373 E4.89584
G1 X185.661 Y111.224 E4.93831
G1 X185.617 Y112.373 E4.99567
G1 X185.558 Y113.769 E5.06538
G1 X185.517 Y116.589 E5.20609
G1 X185.516 Y143.163 E6.53187
G1 X185.556 Y145.96 E6.67143
G1 X185.623 Y147.546 E6.75062
G1 X185.62 Y147.636 E6.75512
G1 X185.676 Y148.958 E6.82113
G1 X185.679 Y149.136 E6.83001
G1 X185.666 Y150.103 E6.87826
G1 X185.643 Y150.903 E6.91819
G1 X185.64 Y151.884 E6.96713
G1 X185.629 Y152.45 E6.99537
G1 X185.625 Y155.029 E7.12404
G1 X185.618 Y155.679 E7.15647
G1 X185.593 Y156.296 E7.18728
G1 X185.532 Y156.798 E7.21251
G1 X185.364 Y157.386 E7.24302
G1 X185.173 Y157.854 E7.26824
G1 X184.893 Y158.319 E7.29532
G1 X184.581 Y158.717 E7.32055
G1 X184.211 Y159.061 E7.34575
G1 X183.672 Y159.407 E7.37771
G1 X183.402 Y159.544 E7.39281
G1 X182.934 Y159.736 E7.41805
G1 X182.623 Y159.819 E7.43411
G1 X181.478 Y160.064 E7.49252
G1 X178.747 Y160.687 E7.63227
G1 X178.494 Y160.752 E7.64531
G1 X177.592 Y160.966 E7.69156
G1 X176.89 Y161.052 E7.72684
G1 X176.48 Y161.056 E7.7473
G1 X175.509 Y161.049 E7.79574
G1 X175.332 Y161.043 E7.80458
G1 X174.345 Y160.981 E7.85392
G1 X173.483 Y160.915 E7.89705
G1 X170.794 Y160.783 E8.03136
G1 X167.356 Y160.724 E8.20291
G1 X101.232 Y160.723 E11.50185
G1 X100.529 Y160.713 E11.53693
G1 X100.024 Y160.678 E11.56218
G1 X99.641 Y160.633 E11.58142
G1 X99.002 Y160.491 E11.61408
G1 X98.495 Y160.322 E11.64074
G1 X97.84 Y160.027 E11.67658
G1 X97.243 Y159.661 E11.71152
G1 X96.739 Y159.26 E11.74365
G1 X96.225 Y158.729 E11.78052
G1 X95.751 Y158.101 E11.81977
G1 X95.403 Y157.486 E11.85503
G1 X95.173 Y156.935 E11.88482
G1 X95.051 Y156.563 E11.90435
G1 X94.93 Y156.055 E11.9304
G1 X94.846 Y155.384 E11.96414
G1 X94.829 Y155.106 E11.97803
G1 X94.814 Y154.132 E12.02663
G1 X94.815 Y105.652 E14.44531
G1 X94.825 Y104.946 E14.48054
G1 X94.863 Y104.421 E14.5068
G1 X94.984 Y103.664 E14.54504
G1 X95.163 Y103.1 E14.57456
G1 X95.267 Y102.815 E14.5897
G1 X95.483 Y102.349 E14.61533
G1 X95.852 Y101.743 E14.65072
G1 X96.175 Y101.316 E14.67743
G1 X96.653 Y100.82 E14.7118
G0 F3600 X99.066 Y103.203
;TYPE:SUPPORT
G1 F1500 X99.084 Y103.189 E14.71294
G1 X99.536 Y102.905 E14.73957
G1 X100.002 Y102.745 E14.76415
G1 X100.581 Y102.676 E14.79324
G1 X173.482 Y102.677 E18.43029
G1 X174.15 Y102.622 E18.46373
G1 X174.781 Y102.504 E18.49575
G1 X175.498 Y102.352 E18.53232
G1 X175.893 Y102.456 E18.5527
G1 X176.239 Y102.364 E18.57056
G1 X176.643 Y102.414 E18.59087
G1 X176.981 Y102.314 E18.60845
G1 X179.18 Y103.607 E18.73572
G1 X179.658 Y103.667 E18.75976
G1 X180.202 Y103.506 E18.78806
G1 X180.215 Y103.504 E18.78872
G1 X181.934 Y103.506 E18.87448
G1 X182.053 Y103.548 E18.88078
G1 X182.165 Y103.673 E18.88915
G1 X182.202 Y103.844 E18.89788
G1 X182.2 Y103.849 E18.89815
G1 X182.212 Y104.019 E18.90665
G1 X182.207 Y104.016 E18.90694
G1 X182.109 Y104.016 E18.91183
G1 X181.985 Y103.958 E18.91866
G1 X180.338 Y103.959 E19.00083
G1 X180.166 Y104.019 E19.00992
G1 X180.112 Y104.019 E19.01261
G1 X180.041 Y104.063 E19.01678
G1 X179.913 Y104.108 E19.02355
G1 X179.846 Y104.185 E19.02864
G1 X179.38 Y104.476 E19.05605
G1 X179.049 Y105.237 E19.09745
G1 X178.97 Y105.936 E19.13255
G1 X178.97 Y106.058 E19.13863
G1 X179.052 Y106.787 E19.17523
G1 X179.458 Y107.618 E19.22137
G1 X179.894 Y107.842 E19.24583
G1 X180.128 Y108.012 E19.26026
G1 X180.831 Y108.038 E19.29536
G1 X182.03 Y108.033 E19.35517
G1 X182.141 Y107.968 E19.36159
G1 X182.166 Y107.968 E19.36284
G1 X182.258 Y107.917 E19.36809
G1 X182.207 Y108.227 E19.38376
G1 X182.203 Y108.238 E19.38434
G1 X181.543 Y109.287 E19.44618
G1 X181.551 Y109.804 E19.47197
G1 X182.269 Y110.881 E19.53655
G1 X182.218 Y111.213 E19.55331
G1 X182.245 Y111.604 E19.57286
G1 X182.203 Y112.067 E19.59606
G1 X182.136 Y112.573 E19.62152
G1 X182.117 Y112.912 E19.63846
G1 X182.116 Y147.07 E21.34261
G1 X182.173 Y147.748 E21.37655
G1 X182.241 Y148.263 E21.40247
G1 X182.285 Y149.036 E21.4411
G1 X181.522 Y150.123 E21.50735
G1 X181.507 Y150.641 E21.53321
G1 X182.204 Y151.765 E21.59919
G1 X182.225 Y151.896 E21.60581
G1 X182.181 Y151.994 E21.61117
G1 X182.188 Y152.047 E21.61384
G1 X182.161 Y152.032 E21.61538
G1 X182.134 Y152.032 E21.61673
G1 X181.986 Y151.967 E21.62479
G1 X180.831 Y151.96 E21.68241
G1 X180.249 Y151.97 E21.71145
G1 X180.02 Y152.043 E21.72345
G1 X179.839 Y152.196 E21.73527
G1 X179.441 Y152.435 E21.75843
G1 X179.121 Y153.026 E21.79196
G1 X178.986 Y153.658 E21.8242
G1 X178.987 Y154.418 E21.86212
G1 X179.139 Y155.046 E21.89436
G1 X179.537 Y155.656 E21.93069
G1 X179.821 Y155.8 E21.94658
G1 X180.051 Y155.981 E21.96118
G1 X180.321 Y156.043 E21.975
G1 X181.977 Y156.041 E22.05762
G1 X182.146 Y155.985 E22.0665
G1 X182.179 Y155.985 E22.06815
G1 X182.161 Y156.128 E22.07534
G1 X182.194 Y156.262 E22.08222
G1 X182.1 Y156.415 E22.09118
G1 X181.952 Y156.495 E22.09958
G1 X180.241 Y156.494 E22.18494
G1 X179.262 Y156.277 E22.23497
G1 X178.788 Y156.377 E22.25914
G1 X177.249 Y157.507 E22.35439
G1 X176.881 Y157.611 E22.37347
G1 X176.836 Y157.639 E22.37611
G1 X176.605 Y157.546 E22.38854
G1 X176.186 Y157.62 E22.40976
G1 X175.913 Y157.552 E22.4238
G1 X175.533 Y157.655 E22.44344
G1 X174.522 Y157.451 E22.4949
G1 X173.899 Y157.347 E22.52641
G1 X173.484 Y157.324 E22.54715
G1 X100.582 Y157.323 E26.18424
G1 X100.013 Y157.263 E26.21279
G1 X99.524 Y157.089 E26.23868
G1 X99.082 Y156.813 E26.26468
G1 X98.725 Y156.453 E26.28997
G1 X98.446 Y156.009 E26.31614
G1 X98.278 Y155.523 E26.34179
G1 X98.214 Y154.985 E26.36882
G1 X98.215 Y105.005 E28.86233
G1 X98.218 Y104.954 E28.86488
G1 X98.269 Y104.499 E28.88772
G1 X98.274 Y104.48 E28.8887
G1 X98.444 Y103.997 E28.91425
G1 X98.475 Y103.942 E28.9174
G1 X98.71 Y103.567 E28.93948
G1 X98.725 Y103.548 E28.94069
G1 X99.066 Y103.203 E28.96489
G0 F3600 X98.679 Y103.767
G1 F1500 X98.679 Y156.23 E31.58228
G0 F3600 X98.294 Y154.686
G1 F1500 X178.971 Y154.686 E35.60727
G0 F3600 X178.689 Y156.35
G1 F1500 X178.689 Y103.411 E38.24841
G0 F3600 X179.939 Y104.013
G1 F1500 X98.527 Y104.013 E42.31007
G0 F3600 X98.295 Y106.68
G1 F1500 X178.959 Y106.68 E46.33441
G1 F3000 E43.33441
G0 F3600 X181.356 Y108.115
G1 F3000 E46.33441
G1 F1500 X181.356 Y151.883 E48.518
G0 F3600 X179.924 Y152.019
G1 F1500 X98.294 Y152.019 E52.59054
G0 F3600 X98.294 Y149.352
G1 F1500 X181.965 Y149.352 E56.76491
G0 F3600 X182.036 Y146.685
G1 F1500 X98.294 Y146.685 E60.94281
G0 F3600 X98.294 Y144.018
G1 F1500 X182.036 Y144.018 E65.12072
G0 F3600 X182.036 Y141.351
G1 F1500 X98.294 Y141.351 E69.29862
G0 F3600 X98.294 Y138.684
G1 F1500 X182.036 Y138.684 E73.47653
G0 F3600 X182.036 Y136.017
G1 F1500 X98.294 Y136.017 E77.65443
G0 F3600 X98.294 Y133.35
G1 F1500 X182.036 Y133.35 E81.83234
G0 F3600 X182.036 Y130.683
G1 F1500 X98.294 Y130.683 E86.01024
G0 F3600 X98.294 Y128.016
G1 F1500 X182.036 Y128.016 E90.18815
G0 F3600 X182.036 Y125.349
G1 F1500 X98.294 Y125.349 E94.36605
G0 F3600 X98.294 Y122.682
G1 F1500 X182.036 Y122.682 E98.54396
G0 F3600 X182.036 Y120.015
G1 F1500 X98.294 Y120.015 E102.72186
G0 F3600 X98.295 Y117.348
G1 F1500 X182.036 Y117.348 E106.89972
G0 F3600 X182.036 Y114.681
G1 F1500 X98.295 Y114.681 E111.07757
G0 F3600 X98.295 Y112.014
G1 F1500 X182.127 Y112.014 E115.25997
G0 F3600 X181.465 Y109.347
G1 F1500 X98.295 Y109.347 E119.40934
G0 F3600 X101.346 Y102.757
G1 F1500 X101.346 Y157.243 E122.12766
G0 F3600 X104.013 Y157.243
G1 F1500 X104.013 Y102.757 E124.84597
G0 F3600 X106.68 Y102.757
G1 F1500 X106.68 Y157.243 E127.56429
G0 F3600 X109.347 Y157.243
G1 F1500 X109.347 Y102.757 E130.28261
G0 F3600 X112.014 Y102.757
G1 F1500 X112.014 Y157.243 E133.00093
G0 F3600 X114.681 Y157.243
G1 F1500 X114.681 Y102.757 E135.71924
G0 F3600 X117.348 Y102.757
G1 F1500 X117.348 Y157.243 E138.43756
G0 F3600 X120.015 Y157.243
G1 F1500 X120.015 Y102.757 E141.15588
G0 F3600 X122.682 Y102.757
G1 F1500 X122.682 Y157.243 E143.8742
G0 F3600 X125.349 Y157.243
G1 F1500 X125.349 Y102.757 E146.59251
G0 F3600 X128.016 Y102.757
G1 F1500 X128.016 Y157.243 E149.31083
G0 F3600 X130.683 Y157.243
G1 F1500 X130.683 Y102.757 E152.02915
G0 F3600 X133.35 Y102.757
G1 F1500 X133.35 Y157.243 E154.74747
G0 F3600 X136.017 Y157.243
G1 F1500 X136.017 Y102.757 E157.46578
G0 F3600 X138.684 Y102.757
G1 F1500 X138.684 Y157.243 E160.1841
G0 F3600 X141.351 Y157.243
G1 F1500 X141.351 Y102.757 E162.90242
G0 F3600 X144.018 Y102.757
G1 F1500 X144.018 Y157.243 E165.62074
G0 F3600 X146.685 Y157.243
G1 F1500 X146.685 Y102.757 E168.33905
G0 F3600 X149.352 Y102.757
G1 F1500 X149.352 Y157.243 E171.05737
G0 F3600 X152.019 Y157.243
G1 F1500 X152.019 Y102.757 E173.77569
G0 F3600 X154.686 Y102.757
G1 F1500 X154.686 Y157.243 E176.49401
G0 F3600 X157.353 Y157.243
G1 F1500 X157.353 Y102.757 E179.21233
G0 F3600 X160.02 Y102.757
G1 F1500 X160.02 Y157.243 E181.93064
G0 F3600 X162.687 Y157.243
G1 F1500 X162.687 Y102.757 E184.64896
G0 F3600 X165.354 Y102.757
G1 F1500 X165.354 Y157.243 E187.36728
G0 F3600 X168.021 Y157.243
G1 F1500 X168.021 Y102.757 E190.0856
G0 F3600 X170.688 Y102.757
G1 F1500 X170.688 Y157.243 E192.80391
G0 F3600 X173.355 Y157.243
G1 F1500 X173.355 Y102.757 E195.52223
G0 F3600 X176.022 Y102.504
G1 F1500 X176.022 Y157.496 E198.26579
G0 F3600 X177.324 Y157.353
G1 F1500 X174.425 Y157.353 E198.41042
G0 F3600 X181.356 Y156.414
G1 F1500 X181.356 Y156.121 E198.42504
G1 F3000 E195.42504
G0 F3600 X182.157 Y155.748
G0 X182.914 Y154.733
G0 X182.97 Y105.677
G0 X182.546 Y104.477
G0 X181.356 Y103.879
G1 F3000 E198.42504
G1 F1500 X181.356 Y103.586 E198.43966
G1 F3000 E195.43966
;MESH:PiMount.stl
G0 F3600 X182.546 Y104.477
G0 X182.957 Y105.609
G0 X181.051 Y152.262
G0 X181.062 Y153.346
G0 X181.661 Y154.485
;TYPE:WALL-INNER
G1 F3000 E198.43966
G1 F1500 X181.389 Y154.485 E198.45323
G1 X180.556 Y154.478 E198.49479
G1 X180.487 Y154.248 E198.50677
G1 X180.486 Y153.802 E198.52902
G1 X180.549 Y153.531 E198.5429
G1 X181.062 Y153.526 E198.5685
G1 X181.661 Y153.53 E198.59838
G1 X181.71 Y154.061 E198.62499
G1 X181.661 Y154.485 E198.64628
G0 F3600 X181.912 Y154.885
;TYPE:WALL-OUTER
G1 F1500 X181.386 Y154.885 E198.67252
G1 X180.413 Y154.877 E198.72107
G1 X180.309 Y154.827 E198.72682
G1 X180.167 Y154.618 E198.73943
G1 X180.087 Y154.297 E198.75593
G1 X180.086 Y153.762 E198.78263
G1 X180.159 Y153.418 E198.80017
G1 X180.251 Y153.229 E198.81066
G1 X180.39 Y153.133 E198.81909
G1 X181.06 Y153.126 E198.85251
G1 X181.902 Y153.131 E198.89452
G1 X181.965 Y153.172 E198.89827
G1 X182.086 Y153.541 E198.91765
G1 X182.111 Y154.064 E198.94377
G1 X182.069 Y154.527 E198.96696
G1 X181.961 Y154.84 E198.98348
G1 X181.912 Y154.885 E198.9868
G0 F3600 X181.635 Y154.436
G0 X181.313 Y154.094
;TYPE:SKIN
G1 F1500 X180.877 Y154.09 E199.00855
G1 X180.876 Y153.918 E199.01714
G1 X181.306 Y153.918 E199.03859
G1 X181.313 Y154.094 E199.04738
G1 F3000 E196.04738
G0 F3600 X181.293 Y152.262
G0 X181.06 Y107.74
G0 X181.05 Y106.456
G0 X181.594 Y105.59
G0 X181.658 Y105.514
;TYPE:WALL-INNER
G1 F3000 E199.04738
G1 F1500 X181.706 Y105.775 E199.06062
G1 X181.706 Y105.842 E199.06396
G1 X181.704 Y106.195 E199.08157
G1 X181.658 Y106.471 E199.09553
G1 X181.05 Y106.476 E199.12586
G1 X180.555 Y106.471 E199.15056
G1 X180.472 Y105.997 E199.17457
G1 X180.552 Y105.517 E199.19885
G1 X181.326 Y105.513 E199.23746
G1 X181.591 Y105.514 E199.25068
G1 X181.658 Y105.514 E199.25402
G0 F3600 X181.918 Y105.115
;TYPE:WALL-OUTER
G1 F1500 X182.022 Y105.286 E199.26401
G1 X182.106 Y105.742 E199.28714
G1 X182.104 Y106.226 E199.31129
G1 X182.02 Y106.725 E199.33654
G1 X181.975 Y106.821 E199.34182
G1 X181.902 Y106.869 E199.34618
G1 X181.049 Y106.876 E199.38874
G1 X180.385 Y106.869 E199.42187
G1 X180.264 Y106.798 E199.42887
G1 X180.126 Y106.493 E199.44557
G1 X180.07 Y105.997 E199.47047
G1 X180.125 Y105.508 E199.49502
G1 X180.233 Y105.239 E199.50949
G1 X180.404 Y105.118 E199.51994
G1 X181.325 Y105.113 E199.56589
G1 X181.918 Y105.115 E199.59547
G0 F3600 X181.315 Y105.903
;TYPE:SKIN
G1 F1500 X181.314 Y106.084 E199.6045
G1 X180.883 Y106.084 E199.626
G1 X180.882 Y105.905 E199.63493
G1 X181.315 Y105.903 E199.65654
G0 F3600 X181.306 Y105.914
G1 F3000 E196.65654
;MESH:NONMESH
G0 F600 X181.306 Y105.914 Z0.6
G0 F3600 X180.567 Y106.456
G0 X179.426 Y107.013
G0 X98.679 Y156.38
;TIME_ELAPSED:180.055784
;LAYER:1
M106 S255
;TYPE:SUPPORT
G1 F3000 E199.65654
G1 F2250 X98.722 Y156.449 E199.66059
G1 X99.087 Y156.817 E199.68645
G1 X99.515 Y157.086 E199.71167
G1 X100.017 Y157.264 E199.73825
G1 X100.582 Y157.323 E199.76659
G1 X101.346 Y157.323 E199.8047
G1 X101.346 Y102.677 E202.531
G1 X104.013 Y102.677 E202.66406
G1 X104.013 Y157.323 E205.39036
G1 X106.68 Y157.323 E205.52342
G1 X106.68 Y102.677 E208.24972
G1 X109.347 Y102.677 E208.38277
G1 X109.347 Y157.323 E211.10907
G1 X112.014 Y157.323 E211.24213
G1 X112.014 Y102.677 E213.96843
G1 X114.681 Y102.677 E214.10149
G1 X114.681 Y157.323 E216.82779
G1 X117.348 Y157.323 E216.96085
G1 X117.348 Y102.677 E219.68715
G1 X120.015 Y102.677 E219.8202
G1 X120.015 Y157.323 E222.5465
G1 X122.682 Y157.323 E222.67956
G1 X122.682 Y102.677 E225.40586
G1 X125.349 Y102.677 E225.53892
G1 X125.349 Y157.323 E228.26522
G1 X128.016 Y157.323 E228.39827
G1 X128.016 Y102.677 E231.12457
G1 X130.683 Y102.677 E231.25763
G1 X130.683 Y157.323 E233.98393
G1 X133.35 Y157.323 E234.11699
G1 X133.35 Y102.677 E236.84329
G1 X136.017 Y102.677 E236.97635
G1 X136.017 Y157.323 E239.70265
G1 X138.684 Y157.323 E239.8357
G1 X138.684 Y102.677 E242.562
G1 X141.351 Y102.677 E242.69506
G1 X141.351 Y157.323 E245.42136
G1 X144.018 Y157.323 E245.55442
G1 X144.018 Y102.677 E248.28072
G1 X146.685 Y102.677 E248.41377
G1 X146.685 Y157.323 E251.14007
G1 X149.352 Y157.323 E251.27313
G1 X149.352 Y102.677 E253.99943
G1 X152.019 Y102.677 E254.13249
G1 X152.019 Y157.323 E256.85879
G1 X154.686 Y157.323 E256.99185
G1 X154.686 Y102.677 E259.71815
G1 X157.353 Y102.677 E259.8512
G1 X157.353 Y157.323 E262.5775
G1 X160.02 Y157.323 E262.71056
G1 X160.02 Y102.677 E265.43686
G1 X162.687 Y102.677 E265.56992
G1 X162.687 Y157.323 E268.29622
G1 X165.354 Y157.323 E268.42927
G1 X165.354 Y102.677 E271.15557
G1 X168.021 Y102.677 E271.28863
G1 X168.021 Y157.323 E274.01493
G1 X170.688 Y157.323 E274.14799
G1 X170.688 Y102.677 E276.87429
