;FLAVOR:Marlin
;TIME:8651
;Filament used: 5.77694m
;Layer height: 0.15
;MINX:97.738
;MINY:102.2
;MINZ:0.3
;MAXX:183.126
;MAXY:157.857
;MAXZ:12
;Generated with Cura_SteamEngine 4.8.0
M140 S60
M105
M190 S60
M104 S200
M105
M109 S200
M82 ;absolute extrusion mode
M201 X500.00 Y500.00 Z100.00 E5000.00 ;Setup machine max acceleration
M203 X500.00 Y500.00 Z10.00 E50.00 ;Setup machine max feedrate
M204 P500.00 R1000.00 T500.00 ;Setup Print/Retract/Travel acceleration
M205 X8.00 Y8.00 Z0.40 E5.00 ;Setup Jerk
M220 S100 ;Reset Feedrate
M221 S100 ;Reset Flowrate

G28 ;Home

G92 E0 ;Reset Extruder
G1 Z2.0 F3000 ;Move Z Axis up
G1 X10.1 Y20 Z0.28 F5000.0 ;Move to start position
G1 X10.1 Y200.0 Z0.28 F1500.0 E15 ;Draw the first line
G1 X10.4 Y200.0 Z0.28 F5000.0 ;Move to side a little
G1 X10.4 Y20 Z0.28 F1500.0 E30 ;Draw the second line
G92 E0 ;Reset Extruder
G1 Z2.0 F3000 ;Move Z Axis up

G92 E0
G92 E0
G1 F3000 E-3
;LAYER_COUNT:79
;LAYER:0
M107
G0 F3600 X99.012 Y103.11 Z0.3
;TYPE:SUPPORT
G1 F3000 E0
G1 F1500 X99.439 Y102.836 E0.02531
G1 X99.971 Y102.643 E0.05355
G1 X100.525 Y102.572 E0.08141
G1 X101.142 Y102.569 E0.11219
G1 X173.41 Y102.57 E3.71766
G1 X174.398 Y102.5 E3.76707
G1 X175.264 Y102.353 E3.8109
G1 X175.943 Y102.611 E3.84714
G1 X176.44 Y102.542 E3.87217
G1 X176.49 Y102.504 E3.8753
G1 X177.274 Y102.602 E3.91472
G1 X176.939 Y103.605 E3.96748
G1 X177.347 Y104.081 E3.99876
G1 X180.214 Y103.589 E4.14388
G1 X181.939 Y103.591 E4.22994
G1 X182.03 Y103.616 E4.23465
G1 X182.114 Y103.694 E4.24037
G1 X182.11 Y103.701 E4.24077
G1 X182.068 Y104.016 E4.25663
G1 X181.324 Y104.013 E4.29374
G1 X180.111 Y104.019 E4.35426
G1 X179.38 Y104.476 E4.39727
G1 X179.049 Y105.237 E4.43867
G1 X178.97 Y105.936 E4.47377
G1 X178.97 Y106.058 E4.47986
G1 X179.052 Y106.787 E4.51646
G1 X179.458 Y107.618 E4.5626
G1 X180.135 Y107.966 E4.60057
G1 X181.047 Y107.976 E4.64608
G1 X182.167 Y107.968 E4.70196
G1 X182.194 Y107.953 E4.7035
G1 X182.117 Y108.204 E4.71659
G1 X182.138 Y108.249 E4.71907
G1 X181.23 Y109.697 E4.80434
G1 X181.294 Y110.232 E4.83122
G1 X182.159 Y111.085 E4.89183
G1 X182.246 Y111.592 E4.9175
G1 X182.126 Y112.187 E4.94778
G1 X182.024 Y112.931 E4.98524
G1 X182.023 Y147.029 E6.6864
G1 X182.132 Y147.849 E6.72767
G1 X182.319 Y148.783 E6.77519
G1 X181.44 Y150.478 E6.87045
G1 X181.5 Y150.995 E6.89642
G1 X182.147 Y151.746 E6.94587
G1 X182.161 Y152.032 E6.96016
G1 X181.059 Y152.026 E7.01514
G1 X180.103 Y152.036 E7.06283
G1 X179.441 Y152.435 E7.1014
G1 X179.121 Y153.026 E7.13493
G1 X178.986 Y153.658 E7.16717
G1 X178.987 Y154.418 E7.20509
G1 X179.139 Y155.046 E7.23732
G1 X179.537 Y155.656 E7.27366
G1 X180.172 Y155.976 E7.30913
G1 X181.381 Y155.985 E7.36945
G1 X182.091 Y155.985 E7.40488
G1 X182.075 Y156.035 E7.40749
G1 X182.109 Y156.108 E7.41151
G1 X182.019 Y156.279 E7.42115
G1 X182.038 Y156.352 E7.42492
G1 X181.939 Y156.409 E7.43062
G1 X180.767 Y156.409 E7.48909
G1 X180.408 Y156.578 E7.50888
G1 X180.231 Y156.576 E7.51771
G1 X180.05 Y156.542 E7.5269
G1 X179.248 Y156.201 E7.57038
G1 X178.747 Y156.262 E7.59556
G1 X176.61 Y157.857 E7.7286
G1 X174.202 Y157.481 E7.85019
G1 X173.433 Y157.432 E7.88863
G1 X100.601 Y157.43 E11.52224
G1 X100.512 Y157.425 E11.52668
G1 X100.007 Y157.37 E11.55203
G1 X99.522 Y157.206 E11.57757
G1 X99.05 Y156.911 E11.60534
G1 X98.638 Y156.507 E11.63413
G1 X98.369 Y156.088 E11.65897
G1 X98.173 Y155.557 E11.68721
G1 X98.113 Y155.077 E11.71134
G1 X98.107 Y154.711 E11.7296
G1 X98.108 Y105.062 E14.2066
G1 X98.119 Y104.933 E14.21306
G1 X98.168 Y104.492 E14.2352
G1 X98.352 Y103.954 E14.26356
G1 X98.628 Y103.501 E14.29003
G1 X99.012 Y103.11 E14.31737
G0 F3600 X98.679 Y103.572
G1 F1500 X98.679 Y156.423 E16.95412
G0 F3600 X98.187 Y154.686
G1 F1500 X178.97 Y154.686 E20.9844
G0 F3600 X178.689 Y156.206
G1 F1500 X178.689 Y103.932 E23.59236
G0 F3600 X178.214 Y104.013
G1 F1500 X179.968 Y104.013 E23.67987
G0 F3600 X181.356 Y103.933
G1 F1500 X181.356 Y103.671 E23.69294
G1 F3000 E20.69294
G0 F3600 X180.18 Y104.256
G0 X179.335 Y105.172
G0 X178.959 Y106.68
G1 F3000 E23.69294
G1 F1500 X98.188 Y106.68 E27.72262
G0 F3600 X98.188 Y109.347
G1 F1500 X181.355 Y109.347 E31.87184
G0 F3600 X181.356 Y109.347
G1 F1500 X181.356 Y108.053 E31.93639
G0 F3600 X181.356 Y110.406
G1 F1500 X181.356 Y151.947 E34.00888
G0 F3600 X179.977 Y152.019
G1 F1500 X98.187 Y152.019 E38.0894
G0 F3600 X98.187 Y149.352
G1 F1500 X181.933 Y149.352 E42.26751
G0 F3600 X181.943 Y146.685
G1 F1500 X98.187 Y146.685 E46.44611
G0 F3600 X98.187 Y144.018
G1 F1500 X181.943 Y144.018 E50.62472
G0 F3600 X181.943 Y141.351
G1 F1500 X98.187 Y141.351 E54.80332
G0 F3600 X98.187 Y138.684
G1 F1500 X181.943 Y138.684 E58.98192
G0 F3600 X181.943 Y136.017
G1 F1500 X98.187 Y136.017 E63.16053
G0 F3600 X98.187 Y133.35
G1 F1500 X181.943 Y133.35 E67.33913
G0 F3600 X181.943 Y130.683
G1 F1500 X98.187 Y130.683 E71.51773
G0 F3600 X98.187 Y128.016
G1 F1500 X181.943 Y128.016 E75.69634
G0 F3600 X181.943 Y125.349
G1 F1500 X98.187 Y125.349 E79.87494
G0 F3600 X98.187 Y122.682
G1 F1500 X181.943 Y122.682 E84.05355
G0 F3600 X181.943 Y120.015
G1 F1500 X98.187 Y120.015 E88.23215
G0 F3600 X98.188 Y117.348
G1 F1500 X181.943 Y117.348 E92.4107
G0 F3600 X181.943 Y114.681
G1 F1500 X98.188 Y114.681 E96.58926
G0 F3600 X98.188 Y112.014
G1 F1500 X182.079 Y112.014 E100.7746
G0 F3600 X177.184 Y104.013
G1 F1500 X98.418 Y104.013 E104.70425
G0 F3600 X101.346 Y102.65
G1 F1500 X101.346 Y157.35 E107.43324
G0 F3600 X104.013 Y157.35
G1 F1500 X104.013 Y102.65 E110.16224
G0 F3600 X106.68 Y102.65
G1 F1500 X106.68 Y157.35 E112.89123
G0 F3600 X109.347 Y157.35
G1 F1500 X109.347 Y102.65 E115.62022
G0 F3600 X112.014 Y102.65
G1 F1500 X112.014 Y157.35 E118.34922
G0 F3600 X114.681 Y157.35
G1 F1500 X114.681 Y102.65 E121.07821
G0 F3600 X117.348 Y102.65
G1 F1500 X117.348 Y157.35 E123.80721
G0 F3600 X120.015 Y157.35
G1 F1500 X120.015 Y102.65 E126.5362
G0 F3600 X122.682 Y102.65
G1 F1500 X122.682 Y157.35 E129.2652
G0 F3600 X125.349 Y157.35
G1 F1500 X125.349 Y102.65 E131.99419
G0 F3600 X128.016 Y102.65
G1 F1500 X128.016 Y157.35 E134.72318
G0 F3600 X130.683 Y157.35
G1 F1500 X130.683 Y102.65 E137.45218
G0 F3600 X133.35 Y102.65
G1 F1500 X133.35 Y157.35 E140.18117
G0 F3600 X136.017 Y157.35
G1 F1500 X136.017 Y102.65 E142.91017
G0 F3600 X138.684 Y102.65
G1 F1500 X138.684 Y157.351 E145.63921
G0 F3600 X141.351 Y157.351
G1 F1500 X141.351 Y102.65 E148.36825
G0 F3600 X144.018 Y102.65
G1 F1500 X144.018 Y157.351 E151.0973
G0 F3600 X146.685 Y157.351
G1 F1500 X146.685 Y102.65 E153.82634
G0 F3600 X149.352 Y102.65
G1 F1500 X149.352 Y157.351 E156.55539
G0 F3600 X152.019 Y157.351
G1 F1500 X152.019 Y102.65 E159.28443
G0 F3600 X154.686 Y102.65
G1 F1500 X154.686 Y157.351 E162.01347
G0 F3600 X157.353 Y157.351
G1 F1500 X157.353 Y102.65 E164.74252
G0 F3600 X160.02 Y102.65
G1 F1500 X160.02 Y157.351 E167.47156
G0 F3600 X162.687 Y157.351
G1 F1500 X162.687 Y102.65 E170.20061
G0 F3600 X165.354 Y102.65
G1 F1500 X165.354 Y157.351 E172.92965
G0 F3600 X168.021 Y157.351
G1 F1500 X168.021 Y102.65 E175.65869
G0 F3600 X170.688 Y102.65
G1 F1500 X170.688 Y157.351 E178.38774
G0 F3600 X173.355 Y157.351
G1 F1500 X173.355 Y102.65 E181.11678
G0 F3600 X176.022 Y102.68
G1 F1500 X176.022 Y157.683 E183.86089
G0 F3600 X177.15 Y157.353
G1 F1500 X173.446 Y157.353 E184.04569
G0 F3600 X181.356 Y156.329
G1 F1500 X181.356 Y156.065 E184.05886
G1 F3000 E181.05886
;MESH:dispenser_pi_mount.stl
G0 F3600 X181.389 Y154.665
G0 X181.661 Y154.485
;TYPE:WALL-INNER
G1 F3000 E184.05886
G1 F1500 X181.389 Y154.485 E184.07243
G1 X180.556 Y154.478 E184.11399
G1 X180.487 Y154.248 E184.12597
G1 X180.486 Y153.802 E184.14822
G1 X180.549 Y153.531 E184.1621
G1 X181.062 Y153.526 E184.18769
G1 X181.661 Y153.53 E184.21758
G1 X181.71 Y154.061 E184.24418
G1 X181.661 Y154.485 E184.26548
G0 F3600 X181.912 Y154.885
;TYPE:WALL-OUTER
G1 F1500 X181.386 Y154.885 E184.29172
G1 X180.413 Y154.877 E184.34026
G1 X180.309 Y154.827 E184.34602
G1 X180.167 Y154.618 E184.35863
G1 X180.087 Y154.297 E184.37513
G1 X180.086 Y153.762 E184.40182
G1 X180.159 Y153.418 E184.41937
G1 X180.251 Y153.229 E184.42985
G1 X180.39 Y153.133 E184.43828
G1 X181.06 Y153.126 E184.47171
G1 X181.902 Y153.131 E184.51372
G1 X181.965 Y153.172 E184.51747
G1 X182.086 Y153.541 E184.53684
G1 X182.111 Y154.064 E184.56296
G1 X182.069 Y154.527 E184.58616
G1 X181.961 Y154.84 E184.60268
G1 X181.912 Y154.885 E184.606
G0 F3600 X181.635 Y154.436
G0 X181.313 Y154.094
;TYPE:SKIN
G1 F1500 X180.877 Y154.09 E184.62775
G1 X180.876 Y153.918 E184.63633
G1 X181.306 Y153.918 E184.65778
G1 X181.313 Y154.094 E184.66657
G1 F3000 E181.66657
G0 F3600 X181.293 Y152.262
G0 X181.06 Y107.74
G0 X181.05 Y106.456
G0 X181.594 Y105.59
G0 X181.658 Y105.514
;TYPE:WALL-INNER
G1 F3000 E184.66657
G1 F1500 X181.706 Y105.775 E184.67981
G1 X181.706 Y105.842 E184.68315
G1 X181.704 Y106.195 E184.70077
G1 X181.658 Y106.471 E184.71473
G1 X181.05 Y106.476 E184.74506
G1 X180.555 Y106.471 E184.76976
G1 X180.472 Y105.997 E184.79376
G1 X180.552 Y105.517 E184.81804
G1 X181.326 Y105.513 E184.85666
G1 X181.591 Y105.514 E184.86988
G1 X181.658 Y105.514 E184.87322
G0 F3600 X181.918 Y105.115
;TYPE:WALL-OUTER
G1 F1500 X182.022 Y105.286 E184.88321
G1 X182.106 Y105.742 E184.90634
G1 X182.104 Y106.226 E184.93049
G1 X182.02 Y106.725 E184.95573
G1 X181.975 Y106.821 E184.96102
G1 X181.902 Y106.869 E184.96538
G1 X181.049 Y106.876 E185.00794
G1 X180.385 Y106.869 E185.04107
G1 X180.264 Y106.798 E185.04807
G1 X180.126 Y106.493 E185.06477
G1 X180.07 Y105.997 E185.08967
G1 X180.125 Y105.508 E185.11422
G1 X180.233 Y105.239 E185.12868
G1 X180.404 Y105.118 E185.13913
G1 X181.325 Y105.113 E185.18508
G1 X181.918 Y105.115 E185.21467
G0 F3600 X181.315 Y105.903
;TYPE:SKIN
G1 F1500 X181.314 Y106.084 E185.2237
G1 X180.883 Y106.084 E185.2452
G1 X180.882 Y105.905 E185.25413
G1 X181.315 Y105.903 E185.27573
G0 F3600 X181.306 Y105.914
G1 F3000 E182.27573
;MESH:NONMESH
G0 F600 X181.306 Y105.914 Z0.45
G0 F3600 X180.492 Y105.997
G0 X179.216 Y105.853
G0 X98.115 Y104.961
;TIME_ELAPSED:166.252347
;LAYER:1
M106 S255
;TYPE:SUPPORT
G1 F3000 E185.27573
G1 F2250 X98.108 Y105.055 E185.27808
G1 X98.107 Y154.696 E186.51638
G1 X98.113 Y155.079 E186.52594
G1 X98.173 Y155.557 E186.53796
G1 X98.368 Y156.085 E186.552
G1 X98.638 Y156.506 E186.56447
G1 X98.679 Y156.546 E186.5659
G1 X98.679 Y103.448 E187.89044
G1 X98.629 Y103.5 E187.89224
G1 X98.352 Y103.954 E187.9055
G1 X98.168 Y104.492 E187.91969
G1 X98.116 Y104.961 E187.93146
G0 F5400 X98.679 Y156.546
G1 F2250 X99.051 Y156.912 E187.94448
G1 X99.52 Y157.205 E187.95827
G1 X100.008 Y157.37 E187.97112
G1 X100.514 Y157.425 E187.98382
G1 X100.6 Y157.43 E187.98597
G1 X101.346 Y157.43 E188.00458
G1 X101.346 Y102.57 E189.37306
G1 X104.013 Y102.57 E189.43959
G1 X104.013 Y157.43 E190.80808
G1 X106.68 Y157.43 E190.87461
G1 X106.68 Y102.57 E192.2431
G1 X109.347 Y102.57 E192.30963
G1 X109.347 Y157.43 E193.67811
G1 X112.014 Y157.43 E193.74464
G1 X112.014 Y102.57 E195.11313
G1 X114.681 Y102.57 E195.17966
G1 X114.681 Y157.43 E196.54815
G1 X117.348 Y157.43 E196.61468
G1 X117.348 Y102.57 E197.98316
G1 X120.015 Y102.57 E198.04969
G1 X120.015 Y157.43 E199.41818
G1 X122.682 Y157.43 E199.48471
G1 X122.682 Y102.57 E200.8532
G1 X125.349 Y102.57 E200.91973
G1 X125.349 Y157.43 E202.28822
G1 X128.016 Y157.43 E202.35474
G1 X128.016 Y102.57 E203.72323
G1 X130.683 Y102.57 E203.78976
G1 X130.683 Y157.43 E205.15825
G1 X133.35 Y157.43 E205.22478
G1 X133.35 Y102.57 E206.59327
G1 X136.017 Y102.57 E206.65979
G1 X136.017 Y157.43 E208.02828
G1 X138.684 Y157.43 E208.09481
G1 X138.684 Y102.57 E209.4633
G1 X141.351 Y102.57 E209.52983
G1 X141.351 Y157.43 E210.89832
G1 X144.018 Y157.43 E210.96485
G1 X144.018 Y102.57 E212.33333
G1 X146.685 Y102.57 E212.39986
G1 X146.685 Y157.43 E213.76835
G1 X149.352 Y157.43 E213.83488
G1 X149.352 Y102.57 E215.20337
G1 X152.019 Y102.57 E215.2699
G1 X152.019 Y157.43 E216.63838
G1 X154.686 Y157.43 E216.70491
G1 X154.686 Y102.57 E218.0734
G1 X157.353 Y102.57 E218.13993
G1 X157.353 Y157.43 E219.50842
G1 X160.02 Y157.43 E219.57495
G1 X160.02 Y102.57 E220.94343
G1 X162.687 Y102.57 E221.00996
G1 X162.687 Y157.43 E222.37845
G1 X165.354 Y157.43 E222.44498
G1 X165.354 Y102.57 E223.81347
G1 X168.021 Y102.57 E223.88
G1 X168.021 Y157.43 E225.24848
G1 X170.688 Y157.43 E225.31501
G1 X170.688 Y102.57 E226.6835
G1 X173.355 Y102.57 E226.75003
G1 X173.355 Y157.431 E228.11854
G1 X173.433 Y157.432 E228.12049
G1 X174.202 Y157.481 E228.13971
G1 X176.022 Y157.765 E228.18566
G1 X176.022 Y102.599 E229.56178
G1 X176.44 Y102.54 E229.57231
G1 X176.488 Y102.504 E229.57381
G1 X177.303 Y102.606 E229.5943
G1 X177.411 Y102.654 E229.59725
G1 X177.181 Y103.572 E229.62085
G1 X177.598 Y104.025 E229.63621
G1 X178.689 Y103.842 E229.66381
G1 X178.689 Y156.307 E230.97255
G1 X178.747 Y156.263 E230.97437
G1 X179.248 Y156.202 E230.98696
G1 X180.048 Y156.542 E231.00864
G1 X180.232 Y156.576 E231.01331
G1 X180.408 Y156.578 E231.0177
G1 X180.769 Y156.409 E231.02764
G1 X181.356 Y156.409 E231.04229
G1 X181.356 Y156.173 E231.04817
G1 X182.023 Y156.171 E231.06481
G1 X182.098 Y156.131 E231.06693
G1 X182.02 Y156.278 E231.07108
G1 X182.039 Y156.352 E231.07299
G1 X181.939 Y156.409 E231.07586
G1 X181.356 Y156.409 E231.0904
G0 F5400 X181.356 Y156.173
G1 F2250 X181.03 Y156.174 E231.09854
G1 X180.307 Y156.172 E231.11657
G1 X179.947 Y156.066 E231.12593
G1 X179.703 Y155.846 E231.13413
G1 X179.623 Y155.686 E231.13859
G1 X179.552 Y155.616 E231.14108
G1 X179.341 Y155.111 E231.15473
G1 X179.221 Y154.323 E231.17461
G1 X179.218 Y153.758 E231.18871
G1 X179.277 Y153.172 E231.2034
G1 X179.453 Y152.581 E231.21878
G1 X179.536 Y152.462 E231.2224
G1 X179.548 Y152.424 E231.22339
G1 X179.773 Y152.075 E231.23375
G1 X180.08 Y151.867 E231.243
G1 X180.314 Y151.824 E231.24894
G1 X181.356 Y151.82 E231.27493
G1 X181.356 Y110.294 E232.3108
G1 X182.159 Y111.085 E232.33892
G0 F5400 X182.158 Y111.089
G1 F2250 X182.246 Y111.592 E232.35166
G1 X182.125 Y112.192 E232.36692
G1 X182.024 Y112.929 E232.38548
G1 X182.023 Y147.032 E233.23618
G1 X182.131 Y147.844 E233.25662
G1 X182.319 Y148.783 E233.28051
G1 X181.439 Y150.479 E233.32817
G1 X181.499 Y150.996 E233.34115
G1 X182.147 Y151.746 E233.36588
G1 X182.155 Y151.904 E233.36982
G1 X181.987 Y151.821 E233.3745
G1 X181.386 Y151.819 E233.38949
G1 X181.356 Y151.82 E233.39024
G1 F3000 E230.39024
G0 F5400 X181.355 Y151.648
G0 X181.356 Y110.294
G1 F3000 E233.39024
G1 F2250 X181.294 Y110.232 E233.39243
G1 X181.23 Y109.698 E233.40584
G1 X181.356 Y109.498 E233.41174
G1 X181.356 Y108.181 E233.44459
G1 X181.376 Y108.181 E233.44509
G1 X182.019 Y108.178 E233.46113
G1 X182.143 Y108.114 E233.46461
G1 X182.116 Y108.203 E233.46693
G1 X182.138 Y108.25 E233.46822
G1 X181.356 Y109.498 E233.50496
G1 F3000 E230.50496
G0 F5400 X181.356 Y108.181
G1 F3000 E233.50496
G1 F2250 X180.275 Y108.174 E233.53193
G1 X179.945 Y108.066 E233.54059
G1 X179.708 Y107.849 E233.54861
G1 X179.619 Y107.68 E233.55337
G1 X179.464 Y107.449 E233.56031
G1 X179.308 Y106.985 E233.57252
G1 X179.227 Y106.39 E233.5875
G1 X179.217 Y105.794 E233.60237
G1 X179.267 Y105.226 E233.61659
G1 X179.424 Y104.644 E233.63163
G1 X179.529 Y104.472 E233.63666
G1 X179.533 Y104.458 E233.63702
G1 X179.745 Y104.106 E233.64727
G1 X180.02 Y103.892 E233.65596
G1 X180.311 Y103.828 E233.6634
G1 X181.356 Y103.828 E233.68946
G1 X181.356 Y103.591 E233.69538
G1 X181.941 Y103.591 E233.70997
G1 X182.029 Y103.615 E233.71224
G1 X182.114 Y103.694 E233.71514
G1 X182.11 Y103.701 E233.71534
G1 X182.145 Y103.893 E233.72021
G1 X181.986 Y103.828 E233.72449
G1 X181.356 Y103.828 E233.74021
G1 F3000 E230.74021
;MESH:dispenser_pi_mount.stl
G0 F5400 X181.355 Y103.655
G0 X182.608 Y103.904
G0 X183.054 Y104.952
G0 X183.094 Y106.012
G0 X181.718 Y151.645
G0 X181.727 Y152.925
G0 X181.673 Y155.005
G0 X181.737 Y155.081
;TYPE:WALL-INNER
G1 F3000 E233.74021
G1 F2760 X180.428 Y155.08 E233.77286
G1 X180.312 Y154.848 E233.77933
G1 X180.221 Y154.253 E233.79435
G1 X180.261 Y153.372 E233.81635
G1 X180.419 Y152.929 E233.82808
G1 X180.444 Y152.918 E233.82876
G1 X181.738 Y152.909 E233.86104
G1 X181.768 Y152.99 E233.86319
G1 X181.832 Y153.486 E233.87567
G1 X181.843 Y154.057 E233.88992
