;FLAVOR:Marlin
;TIME:14344
;Filament used: 17.0557m
;Layer height: 0.3
;MINX:22.5
;MINY:79.3
;MINZ:0.3
;MAXX:257.5
;MAXY:180.6
;MAXZ:3
;Generated with Cura_SteamEngine 4.8.0
M140 S60
M105
M190 S60
M104 S200
M105
M109 S200
M82 ;absolute extrusion mode
M201 X500.00 Y500.00 Z100.00 E5000.00 ;Setup machine max acceleration
M203 X500.00 Y500.00 Z10.00 E50.00 ;Setup machine max feedrate
M204 P500.00 R1000.00 T500.00 ;Setup Print/Retract/Travel acceleration
M205 X8.00 Y8.00 Z0.40 E5.00 ;Setup Jerk
M220 S100 ;Reset Feedrate
M221 S100 ;Reset Flowrate

G28 ;Home

G92 E0 ;Reset Extruder
G1 Z2.0 F3000 ;Move Z Axis up
G1 X10.1 Y20 Z0.28 F5000.0 ;Move to start position
G1 X10.1 Y200.0 Z0.28 F1500.0 E15 ;Draw the first line
G1 X10.4 Y200.0 Z0.28 F5000.0 ;Move to side a little
G1 X10.4 Y20 Z0.28 F1500.0 E30 ;Draw the second line
G92 E0 ;Reset Extruder
G1 Z2.0 F3000 ;Move Z Axis up

G92 E0
G92 E0
G1 F3000 E-3
;LAYER_COUNT:10
;LAYER:0
M107
G0 F3600 X24.788 Y79.444 Z0.3
;TYPE:SKIRT
G1 F3000 E0
G1 F1500 X25.282 Y79.338 E0.02521
G1 X25.94 Y79.301 E0.05809
G1 X253.639 Y79.3 E11.41804
G1 X254.337 Y79.31 E11.45286
G1 X254.84 Y79.357 E11.47807
G1 X255.33 Y79.483 E11.50331
G1 X255.794 Y79.685 E11.52856
G1 X256.22 Y79.957 E11.55377
G1 X256.598 Y80.292 E11.57897
G1 X256.918 Y80.683 E11.60418
G1 X257.173 Y81.12 E11.62942
G1 X257.356 Y81.591 E11.65463
G1 X257.463 Y82.085 E11.67985
G1 X257.499 Y82.74 E11.71257
G1 X257.5 Y158.004 E15.46751
G1 X257.491 Y158.731 E15.50378
G1 X257.445 Y159.234 E15.52898
G1 X257.32 Y159.724 E15.55421
G1 X257.119 Y160.188 E15.57944
G1 X256.848 Y160.615 E15.60467
G1 X256.513 Y160.994 E15.62991
G1 X256.123 Y161.315 E15.65511
G1 X255.687 Y161.571 E15.68033
G1 X255.216 Y161.754 E15.70554
G1 X254.722 Y161.862 E15.73077
G1 X254.06 Y161.899 E15.76385
G1 X219.601 Y161.9 E17.48301
G1 X216.804 Y161.94 E17.62257
G1 X214.087 Y162.055 E17.75824
G1 X211.341 Y162.25 E17.89559
G1 X208.635 Y162.518 E18.03125
G1 X205.912 Y162.866 E18.16821
G1 X203.211 Y163.291 E18.30462
G1 X200.503 Y163.794 E18.44203
G1 X197.846 Y164.366 E18.57763
G1 X195.199 Y165.014 E18.71359
G1 X192.559 Y165.741 E18.8502
G1 X189.912 Y166.551 E18.9883
G1 X187.317 Y167.426 E19.12493
G1 X184.781 Y168.362 E19.25979
G1 X182.206 Y169.396 E19.39823
G1 X179.696 Y170.488 E19.53479
G1 X177.239 Y171.64 E19.67018
G1 X174.796 Y172.87 E19.80664
G1 X172.363 Y174.185 E19.94462
G1 X170.016 Y175.538 E20.07977
G1 X167.89 Y176.847 E20.20433
G1 X167.701 Y176.96 E20.21532
G1 X167.13 Y177.228 E20.24679
G1 X165.959 Y177.644 E20.30878
G1 X165.49 Y177.803 E20.33349
G1 X162.944 Y178.747 E20.46896
G1 X160.377 Y179.783 E20.60707
G1 X160.194 Y179.862 E20.61701
G1 X159.048 Y180.341 E20.67898
G1 X158.499 Y180.515 E20.70771
G1 X157.896 Y180.59 E20.73803
G1 X157.487 Y180.6 E20.75844
G1 X122.845 Y180.6 E22.48673
G1 X122.144 Y180.59 E22.52171
G1 X121.641 Y180.543 E22.54691
G1 X120.955 Y180.342 E22.58258
G1 X118.25 Y179.21 E22.72887
G1 X115.64 Y178.201 E22.86848
G1 X112.884 Y177.233 E23.01421
G1 X112.267 Y176.94 E23.04829
G1 X111.147 Y176.251 E23.11389
G1 X108.796 Y174.85 E23.25043
G1 X106.4 Y173.512 E23.38734
G1 X103.97 Y172.245 E23.52406
G1 X101.529 Y171.059 E23.65946
G1 X99.033 Y169.931 E23.79611
G1 X96.472 Y168.861 E23.93458
G1 X93.921 Y167.879 E24.07096
G1 X91.338 Y166.968 E24.2076
G1 X88.772 Y166.143 E24.34208
G1 X86.115 Y165.371 E24.48012
G1 X83.468 Y164.682 E24.61658
G1 X80.803 Y164.068 E24.75302
G1 X78.116 Y163.528 E24.88975
G1 X75.407 Y163.067 E25.02685
G1 X72.728 Y162.685 E25.16185
G1 X69.96 Y162.371 E25.30084
G1 X67.279 Y162.142 E25.43508
G1 X64.53 Y161.988 E25.57244
G1 X60.408 Y161.9 E25.77814
G1 X26.361 Y161.9 E27.47675
G1 X25.663 Y161.89 E27.51157
G1 X25.16 Y161.843 E27.53678
G1 X24.67 Y161.717 E27.56202
G1 X24.206 Y161.515 E27.58727
G1 X23.78 Y161.243 E27.61248
G1 X23.402 Y160.908 E27.63768
G1 X23.082 Y160.517 E27.66289
G1 X22.827 Y160.08 E27.68813
G1 X22.644 Y159.609 E27.71334
G1 X22.537 Y159.115 E27.73856
G1 X22.501 Y158.445 E27.77203
G1 X22.5 Y83.131 E31.52946
G1 X22.509 Y82.466 E31.56264
G1 X22.556 Y81.962 E31.5879
G1 X22.682 Y81.473 E31.61309
G1 X22.883 Y81.009 E31.63832
G1 X23.154 Y80.582 E31.66355
G1 X23.489 Y80.204 E31.68875
G1 X23.88 Y79.883 E31.71399
G1 X24.317 Y79.628 E31.73923
G1 X24.788 Y79.444 E31.76446
G1 F3000 E28.76446
;MESH:dispenser_interface.stl
G0 F3600 X26.314 Y81.835
G0 X26.314 Y83.114
G0 X65.829 Y123.881
G0 X67.13 Y125.297
G0 X68.182 Y126.905
G0 X68.955 Y128.667
G0 X69.427 Y130.531
G0 X69.586 Y132.446
G0 X69.427 Y134.362
G0 X68.955 Y136.225
G0 X68.182 Y137.987
G0 X67.13 Y139.595
G0 X65.96 Y140.869
G0 X64.344 Y142.242
G0 X64.29 Y142.159
;TYPE:WALL-INNER
G1 F3000 E31.76446
G1 F1500 X65.802 Y140.982 E31.86005
G1 X67.099 Y139.571 E31.95567
G1 X68.147 Y137.968 E32.05122
G1 X68.918 Y136.213 E32.14685
G1 X69.388 Y134.356 E32.24242
G1 X69.546 Y132.446 E32.33804
G1 X69.388 Y130.537 E32.4336
G1 X68.918 Y128.679 E32.52922
G1 X68.147 Y126.924 E32.62485
G1 X67.099 Y125.321 E32.7204
G1 X65.802 Y123.91 E32.81602
G1 X64.29 Y122.733 E32.91161
G1 X62.605 Y121.821 E33.0072
G1 X60.791 Y121.199 E33.10287
G1 X58.902 Y120.884 E33.19842
G1 X56.985 Y120.884 E33.29406
G1 X55.097 Y121.199 E33.38955
G1 X53.283 Y121.821 E33.48523
G1 X51.597 Y122.733 E33.58086
G1 X50.086 Y123.91 E33.67641
G1 X48.788 Y125.321 E33.77206
G1 X47.741 Y126.924 E33.86758
G1 X46.97 Y128.679 E33.96322
G1 X46.5 Y130.537 E34.05883
G1 X46.342 Y132.446 E34.1544
G1 X46.5 Y134.356 E34.25002
G1 X46.97 Y136.213 E34.34558
G1 X47.741 Y137.968 E34.44122
G1 X48.788 Y139.571 E34.53674
G1 X50.086 Y140.982 E34.63239
G1 X51.597 Y142.159 E34.72795
G1 X53.283 Y143.072 E34.8236
G1 X55.097 Y143.693 E34.91926
G1 X56.985 Y144.008 E35.01475
G1 X58.902 Y144.008 E35.11039
G1 X60.791 Y143.693 E35.20594
G1 X62.605 Y143.072 E35.30159
G1 X64.29 Y142.159 E35.39721
G0 F3600 X64.07 Y141.823
;TYPE:WALL-OUTER
G1 F1500 X65.53 Y140.687 E35.4895
G1 X66.782 Y139.325 E35.5818
G1 X67.794 Y137.777 E35.67406
G1 X68.538 Y136.083 E35.76637
G1 X68.992 Y134.29 E35.85865
G1 X69.145 Y132.446 E35.95096
G1 X68.992 Y130.603 E36.04322
G1 X68.538 Y128.809 E36.13555
G1 X67.794 Y127.115 E36.22785
G1 X66.782 Y125.567 E36.32012
G1 X65.53 Y124.205 E36.41242
G1 X64.07 Y123.069 E36.50471
G1 X62.444 Y122.189 E36.59695
G1 X60.693 Y121.588 E36.68931
G1 X58.869 Y121.284 E36.78157
G1 X57.018 Y121.284 E36.87391
G1 X55.195 Y121.588 E36.96612
G1 X53.444 Y122.189 E37.05848
G1 X51.817 Y123.069 E37.15076
G1 X50.358 Y124.205 E37.24302
G1 X49.105 Y125.567 E37.33535
G1 X48.094 Y127.115 E37.42759
G1 X47.35 Y128.809 E37.5199
G1 X46.896 Y130.603 E37.61222
G1 X46.743 Y132.446 E37.70448
G1 X46.896 Y134.29 E37.7968
G1 X47.35 Y136.083 E37.88907
G1 X48.094 Y137.777 E37.98138
G1 X49.105 Y139.325 E38.07362
G1 X50.358 Y140.687 E38.16595
G1 X51.817 Y141.823 E38.2582
G1 X53.444 Y142.704 E38.35051
G1 X55.195 Y143.304 E38.44286
G1 X57.018 Y143.608 E38.53506
G1 X58.869 Y143.608 E38.62741
G1 X60.693 Y143.304 E38.71966
G1 X62.444 Y142.704 E38.81201
G1 X64.07 Y141.823 E38.90427
G0 F3600 X64.31 Y142.191
G0 X64.344 Y142.242
G0 X102.114 Y138.32
G0 X102.044 Y138.25
;TYPE:WALL-INNER
G1 F1500 X102.044 Y125.55 E39.53788
G1 X76.844 Y125.55 E40.79511
G1 X76.844 Y138.25 E41.42872
G1 X102.044 Y138.25 E42.68595
G0 F3600 X101.644 Y137.85
;TYPE:WALL-OUTER
G1 F1500 X101.644 Y125.95 E43.27964
G1 X77.244 Y125.95 E44.49696
G1 X77.244 Y137.85 E45.09066
G1 X101.644 Y137.85 E46.30798
G0 F3600 X102.144 Y137.85
G0 X109.316 Y121.272
G0 X116.75 Y115.637
G0 X116.723 Y115.541
;TYPE:WALL-INNER
G1 F1500 X117.345 Y115.273 E46.34177
G1 X117.879 Y114.854 E46.37563
G1 X118.286 Y114.309 E46.40957
G1 X118.538 Y113.68 E46.44337
G1 X118.619 Y113.005 E46.47729
G1 X118.522 Y112.33 E46.51131
G1 X118.254 Y111.708 E46.5451
G1 X117.835 Y111.174 E46.57896
G1 X117.29 Y110.767 E46.6129
G1 X116.661 Y110.515 E46.64671
G1 X115.986 Y110.434 E46.68062
G1 X115.311 Y110.531 E46.71464
G1 X114.689 Y110.799 E46.74843
G1 X114.155 Y111.218 E46.7823
G1 X113.748 Y111.763 E46.81623
G1 X113.496 Y112.392 E46.85004
G1 X113.415 Y113.067 E46.88396
G1 X113.512 Y113.742 E46.91798
G1 X113.78 Y114.364 E46.95177
G1 X114.199 Y114.898 E46.98563
G1 X114.744 Y115.305 E47.01957
G1 X115.373 Y115.557 E47.05337
G1 X116.048 Y115.638 E47.08729
G1 X116.723 Y115.541 E47.12131
G0 F3600 X116.613 Y115.153
;TYPE:WALL-OUTER
G1 F1500 X117.139 Y114.926 E47.14989
G1 X117.59 Y114.572 E47.1785
G1 X117.934 Y114.112 E47.20715
G1 X118.147 Y113.58 E47.23574
G1 X118.216 Y113.01 E47.26439
G1 X118.134 Y112.44 E47.29312
G1 X117.907 Y111.914 E47.3217
G1 X117.553 Y111.463 E47.35031
G1 X117.093 Y111.119 E47.37896
G1 X116.561 Y110.906 E47.40755
G1 X115.991 Y110.837 E47.4362
G1 X115.421 Y110.919 E47.46493
G1 X114.895 Y111.146 E47.49351
G1 X114.444 Y111.5 E47.52211
G1 X114.1 Y111.96 E47.55077
G1 X113.887 Y112.492 E47.57936
G1 X113.818 Y113.062 E47.60801
G1 X113.9 Y113.632 E47.63674
G1 X114.127 Y114.158 E47.66532
G1 X114.481 Y114.609 E47.69392
G1 X114.941 Y114.953 E47.72258
G1 X115.473 Y115.166 E47.75117
G1 X116.043 Y115.235 E47.77981
G1 X116.613 Y115.153 E47.80854
G0 F3600 X116.732 Y115.576
G0 X116.75 Y115.637
G0 X163.375 Y115.653
G0 X163.399 Y115.557
;TYPE:WALL-INNER
G1 F1500 X164.074 Y115.638 E47.84246
G1 X164.749 Y115.541 E47.87648
G1 X165.371 Y115.273 E47.91027
G1 X165.905 Y114.854 E47.94414
G1 X166.312 Y114.309 E47.97807
G1 X166.564 Y113.68 E48.01188
G1 X166.645 Y113.005 E48.04579
G1 X166.548 Y112.33 E48.07982
G1 X166.28 Y111.708 E48.11361
G1 X165.861 Y111.174 E48.14747
G1 X165.316 Y110.767 E48.1814
G1 X164.687 Y110.515 E48.21521
G1 X164.012 Y110.434 E48.24913
G1 X163.337 Y110.531 E48.28315
G1 X162.715 Y110.799 E48.31694
G1 X162.181 Y111.218 E48.3508
G1 X161.774 Y111.763 E48.38474
G1 X161.522 Y112.392 E48.41854
G1 X161.441 Y113.067 E48.45246
G1 X161.538 Y113.742 E48.48648
G1 X161.806 Y114.364 E48.52027
G1 X162.225 Y114.898 E48.55414
G1 X162.77 Y115.305 E48.58807
G1 X163.399 Y115.557 E48.62188
G0 F3600 X163.499 Y115.166
;TYPE:WALL-OUTER
G1 F1500 X164.069 Y115.235 E48.65052
G1 X164.639 Y115.153 E48.67925
G1 X165.165 Y114.926 E48.70783
G1 X165.616 Y114.572 E48.73644
G1 X165.96 Y114.112 E48.7651
G1 X166.173 Y113.58 E48.79368
G1 X166.242 Y113.01 E48.82233
G1 X166.16 Y112.44 E48.85106
G1 X165.933 Y111.914 E48.87964
G1 X165.579 Y111.463 E48.90825
G1 X165.119 Y111.119 E48.9369
G1 X164.587 Y110.906 E48.96549
G1 X164.017 Y110.837 E48.99414
G1 X163.447 Y110.919 E49.02287
G1 X162.921 Y111.146 E49.05145
G1 X162.47 Y111.5 E49.08005
G1 X162.126 Y111.96 E49.10871
G1 X161.913 Y112.492 E49.1373
G1 X161.844 Y113.062 E49.16595
G1 X161.926 Y113.632 E49.19468
G1 X162.153 Y114.158 E49.22326
G1 X162.507 Y114.609 E49.25186
G1 X162.967 Y114.953 E49.28052
G1 X163.499 Y115.166 E49.30911
G0 F3600 X163.39 Y115.592
G0 X163.375 Y115.653
G0 X170.572 Y121.272
G0 X185.962 Y137.331
G0 X187.195 Y138.176
G0 X187.238 Y138.086
;TYPE:WALL-INNER
G1 F1500 X188.633 Y138.574 E49.38284
G1 X190.103 Y138.741 E49.45665
G1 X191.573 Y138.574 E49.53046
G1 X192.968 Y138.086 E49.60419
G1 X194.22 Y137.3 E49.67794
G1 X195.266 Y136.254 E49.75175
G1 X196.053 Y135.002 E49.82552
G1 X196.541 Y133.607 E49.89926
G1 X196.707 Y132.137 E49.97306
G1 X196.541 Y130.667 E50.04687
G1 X196.053 Y129.271 E50.12065
G1 X195.266 Y128.019 E50.19442
G1 X194.22 Y126.974 E50.26819
G1 X192.968 Y126.187 E50.34197
G1 X191.573 Y125.699 E50.4157
G1 X190.103 Y125.533 E50.4895
G1 X188.633 Y125.699 E50.56331
G1 X187.238 Y126.187 E50.63704
G1 X185.986 Y126.974 E50.71082
G1 X184.94 Y128.019 E50.78459
G1 X184.153 Y129.271 E50.85836
G1 X183.665 Y130.667 E50.93214
G1 X183.499 Y132.137 E51.00595
G1 X183.665 Y133.607 E51.07975
G1 X184.153 Y135.002 E51.15348
G1 X184.94 Y136.254 E51.22726
G1 X185.986 Y137.3 E51.30106
G1 X187.238 Y138.086 E51.37481
G0 F3600 X187.413 Y137.723
;TYPE:WALL-OUTER
G1 F1500 X188.723 Y138.182 E51.44407
G1 X190.103 Y138.338 E51.51335
G1 X191.483 Y138.182 E51.58264
G1 X192.793 Y137.723 E51.65189
G1 X193.969 Y136.985 E51.72116
G1 X194.951 Y136.003 E51.79044
G1 X195.69 Y134.827 E51.85974
G1 X196.149 Y133.517 E51.92899
G1 X196.304 Y132.137 E51.99827
G1 X196.149 Y130.757 E52.06755
G1 X195.69 Y129.446 E52.13685
G1 X194.951 Y128.27 E52.20615
G1 X193.969 Y127.289 E52.2754
G1 X192.793 Y126.55 E52.34469
G1 X191.483 Y126.091 E52.41394
G1 X190.103 Y125.936 E52.48322
G1 X188.723 Y126.091 E52.5525
G1 X187.413 Y126.55 E52.62176
G1 X186.237 Y127.289 E52.69105
G1 X185.255 Y128.27 E52.7603
G1 X184.516 Y129.446 E52.82959
G1 X184.057 Y130.757 E52.89889
G1 X183.902 Y132.137 E52.96817
G1 X184.057 Y133.517 E53.03745
G1 X184.516 Y134.827 E53.10671
G1 X185.255 Y136.003 E53.176
G1 X186.237 Y136.985 E53.24529
G1 X187.413 Y137.723 E53.31455
G0 F3600 X187.223 Y138.119
G0 X187.195 Y138.176
G0 X170.614 Y142.57
G0 X170.544 Y142.5
;TYPE:WALL-INNER
G1 F1500 X170.544 Y121.3 E54.37222
G1 X109.344 Y121.3 E57.4255
G1 X109.344 Y142.5 E58.48318
G1 X170.544 Y142.5 E61.53646
G0 F3600 X170.144 Y142.1
;TYPE:WALL-OUTER
G1 F1500 X170.144 Y121.7 E62.55422
G1 X109.744 Y121.7 E65.56759
G1 X109.744 Y142.1 E66.58535
G1 X170.144 Y142.1 E69.59871
G0 F3600 X170.644 Y142.1
G0 X157.189 Y173.597
G0 X157.147 Y176.73
G0 X157.217 Y176.8
;TYPE:WALL-INNER
G1 F1500 X122.784 Y176.8 E71.31658
G1 X122.783 Y173.625 E71.47498
G1 X114.543 Y173.625 E71.88608
G1 X114.542 Y158.1 E72.66063
G1 X26.3 Y158.1 E77.06304
G1 X26.3 Y83.1 E80.8048
G1 X253.7 Y83.1 E92.14983
G1 X253.7 Y158.1 E95.8916
G1 X165.458 Y158.1 E100.29401
G1 X165.458 Y173.625 E101.06856
G1 X157.217 Y173.625 E101.4797
G1 X157.217 Y176.8 E101.6381
G0 F3600 X157.617 Y177.2
;TYPE:WALL-OUTER
G1 F1500 X122.384 Y177.2 E103.39588
G1 X122.383 Y174.025 E103.55429
G1 X114.143 Y174.025 E103.96538
G1 X114.142 Y158.5 E104.73993
G1 X25.9 Y158.5 E109.14234
G1 X25.9 Y82.7 E112.92401
G1 X254.1 Y82.7 E124.30896
G1 X254.1 Y158.5 E128.09064
G1 X165.858 Y158.5 E132.49305
G1 X165.858 Y174.025 E133.26759
G1 X157.617 Y174.025 E133.67874
G1 X157.617 Y177.2 E133.83714
G0 F3600 X157.147 Y176.73
G0 X156.827 Y176.41
;TYPE:SKIN
G1 F1500 X123.174 Y176.41 E135.51609
G1 X123.173 Y173.235 E135.6745
G1 X114.933 Y173.235 E136.08559
G1 X114.932 Y157.71 E136.86014
G1 X26.69 Y157.71 E141.26255
G1 X26.69 Y83.49 E144.9654
G1 X253.31 Y83.49 E156.27152
G1 X253.31 Y157.71 E159.97437
G1 X165.068 Y157.71 E164.37678
G1 X165.068 Y173.235 E165.15132
G1 X156.827 Y173.235 E165.56247
G1 X156.827 Y176.41 E165.72087
G0 F3600 X157.189 Y173.597
G0 X170.934 Y142.89
G1 F1500 X170.934 Y120.91 E166.81746
G1 X108.954 Y120.91 E169.90965
G1 X108.954 Y142.89 E171.00624
G1 X170.934 Y142.89 E174.09843
G0 F3600 X185.742 Y137.607
G1 F1500 X187.068 Y138.439 E174.17653
G1 X188.545 Y138.956 E174.2546
G1 X190.103 Y139.133 E174.33283
G1 X191.661 Y138.956 E174.41106
G1 X193.138 Y138.439 E174.48913
G1 X194.464 Y137.607 E174.56723
G1 X195.572 Y136.498 E174.64544
G1 X196.406 Y135.172 E174.72359
G1 X196.923 Y133.695 E174.80167
G1 X197.099 Y132.137 E174.87989
G1 X196.923 Y130.579 E174.95811
G1 X196.406 Y129.101 E175.03623
G1 X195.572 Y127.774 E175.11442
G1 X194.464 Y126.667 E175.19256
G1 X193.138 Y125.834 E175.27069
G1 X191.661 Y125.317 E175.34876
G1 X190.103 Y125.141 E175.42698
G1 X188.545 Y125.317 E175.50521
G1 X187.068 Y125.834 E175.58328
G1 X185.742 Y126.667 E175.6614
G1 X184.634 Y127.774 E175.73954
G1 X183.8 Y129.101 E175.81774
G1 X183.283 Y130.579 E175.89586
G1 X183.107 Y132.137 E175.97408
G1 X183.283 Y133.695 E176.0523
G1 X183.8 Y135.172 E176.13038
G1 X184.634 Y136.498 E176.20853
G1 X185.742 Y137.607 E176.28674
G0 F3600 X170.572 Y121.272
G0 X164.078 Y116.032
G1 F1500 X164.856 Y115.919 E176.32596
G1 X165.572 Y115.611 E176.36485
G1 X166.186 Y115.129 E176.40379
G1 X166.655 Y114.502 E176.44285
G1 X166.945 Y113.777 E176.48181
G1 X167.039 Y113.001 E176.52081
G1 X166.926 Y112.223 E176.56003
G1 X166.618 Y111.507 E176.59892
G1 X166.136 Y110.893 E176.63786
G1 X165.509 Y110.424 E176.67692
G1 X164.784 Y110.134 E176.71588
G1 X164.008 Y110.04 E176.75488
G1 X163.23 Y110.153 E176.7941
G1 X162.514 Y110.461 E176.83299
G1 X161.9 Y110.943 E176.87193
G1 X161.431 Y111.57 E176.91099
G1 X161.141 Y112.295 E176.94995
G1 X161.047 Y113.071 E176.98895
G1 X161.16 Y113.849 E177.02817
G1 X161.468 Y114.565 E177.06706
G1 X161.95 Y115.179 E177.106
